( pcb2gcode 1.2.2 )

( This file uses a mill head of 0.03000inch to drill the 4bit sizes. )
( Bit sizes: [0.12800] [0.03500] [0.06300] [0.03800] )

G94       (Inches per minute feed rate.)
G20       (Units == INCHES.)
G90       (Absolute coordinates.)
S10000    (RPM spindle speed.)
M3
G91.1
G0 Z0.10000
F1.00000 (Feedrate)

G00 Z0.02000
G0 X0.34900 Y0.35000
G1 Z[-0.10000+12*0.00800]
G2 I-0.04900 J0
G1 Z[-0.10000+11*0.00800]
G2 I-0.04900 J0
G1 Z[-0.10000+10*0.00800]
G2 I-0.04900 J0
G1 Z[-0.10000+9*0.00800]
G2 I-0.04900 J0
G1 Z[-0.10000+8*0.00800]
G2 I-0.04900 J0
G1 Z[-0.10000+7*0.00800]
G2 I-0.04900 J0
G1 Z[-0.10000+6*0.00800]
G2 I-0.04900 J0
G1 Z[-0.10000+5*0.00800]
G2 I-0.04900 J0
G1 Z[-0.10000+4*0.00800]
G2 I-0.04900 J0
G1 Z[-0.10000+3*0.00800]
G2 I-0.04900 J0
G1 Z[-0.10000+2*0.00800]
G2 I-0.04900 J0
G1 Z[-0.10000+1*0.00800]
G2 I-0.04900 J0
G0 Z0.02000

G0 X0.79900 Y0.35000
G1 Z[-0.10000+12*0.00800]
G2 I-0.04900 J0
G1 Z[-0.10000+11*0.00800]
G2 I-0.04900 J0
G1 Z[-0.10000+10*0.00800]
G2 I-0.04900 J0
G1 Z[-0.10000+9*0.00800]
G2 I-0.04900 J0
G1 Z[-0.10000+8*0.00800]
G2 I-0.04900 J0
G1 Z[-0.10000+7*0.00800]
G2 I-0.04900 J0
G1 Z[-0.10000+6*0.00800]
G2 I-0.04900 J0
G1 Z[-0.10000+5*0.00800]
G2 I-0.04900 J0
G1 Z[-0.10000+4*0.00800]
G2 I-0.04900 J0
G1 Z[-0.10000+3*0.00800]
G2 I-0.04900 J0
G1 Z[-0.10000+2*0.00800]
G2 I-0.04900 J0
G1 Z[-0.10000+1*0.00800]
G2 I-0.04900 J0
G0 Z0.02000

G0 X0.79900 Y0.95000
G1 Z[-0.10000+12*0.00800]
G2 I-0.04900 J0
G1 Z[-0.10000+11*0.00800]
G2 I-0.04900 J0
G1 Z[-0.10000+10*0.00800]
G2 I-0.04900 J0
G1 Z[-0.10000+9*0.00800]
G2 I-0.04900 J0
G1 Z[-0.10000+8*0.00800]
G2 I-0.04900 J0
G1 Z[-0.10000+7*0.00800]
G2 I-0.04900 J0
G1 Z[-0.10000+6*0.00800]
G2 I-0.04900 J0
G1 Z[-0.10000+5*0.00800]
G2 I-0.04900 J0
G1 Z[-0.10000+4*0.00800]
G2 I-0.04900 J0
G1 Z[-0.10000+3*0.00800]
G2 I-0.04900 J0
G1 Z[-0.10000+2*0.00800]
G2 I-0.04900 J0
G1 Z[-0.10000+1*0.00800]
G2 I-0.04900 J0
G0 Z0.02000

G0 X0.34900 Y0.95000
G1 Z[-0.10000+12*0.00800]
G2 I-0.04900 J0
G1 Z[-0.10000+11*0.00800]
G2 I-0.04900 J0
G1 Z[-0.10000+10*0.00800]
G2 I-0.04900 J0
G1 Z[-0.10000+9*0.00800]
G2 I-0.04900 J0
G1 Z[-0.10000+8*0.00800]
G2 I-0.04900 J0
G1 Z[-0.10000+7*0.00800]
G2 I-0.04900 J0
G1 Z[-0.10000+6*0.00800]
G2 I-0.04900 J0
G1 Z[-0.10000+5*0.00800]
G2 I-0.04900 J0
G1 Z[-0.10000+4*0.00800]
G2 I-0.04900 J0
G1 Z[-0.10000+3*0.00800]
G2 I-0.04900 J0
G1 Z[-0.10000+2*0.00800]
G2 I-0.04900 J0
G1 Z[-0.10000+1*0.00800]
G2 I-0.04900 J0
G0 Z0.02000

G0 X0.34900 Y2.02500
G1 Z[-0.10000+12*0.00800]
G2 I-0.04900 J0
G1 Z[-0.10000+11*0.00800]
G2 I-0.04900 J0
G1 Z[-0.10000+10*0.00800]
G2 I-0.04900 J0
G1 Z[-0.10000+9*0.00800]
G2 I-0.04900 J0
G1 Z[-0.10000+8*0.00800]
G2 I-0.04900 J0
G1 Z[-0.10000+7*0.00800]
G2 I-0.04900 J0
G1 Z[-0.10000+6*0.00800]
G2 I-0.04900 J0
G1 Z[-0.10000+5*0.00800]
G2 I-0.04900 J0
G1 Z[-0.10000+4*0.00800]
G2 I-0.04900 J0
G1 Z[-0.10000+3*0.00800]
G2 I-0.04900 J0
G1 Z[-0.10000+2*0.00800]
G2 I-0.04900 J0
G1 Z[-0.10000+1*0.00800]
G2 I-0.04900 J0
G0 Z0.02000

G0 X0.79900 Y2.02500
G1 Z[-0.10000+12*0.00800]
G2 I-0.04900 J0
G1 Z[-0.10000+11*0.00800]
G2 I-0.04900 J0
G1 Z[-0.10000+10*0.00800]
G2 I-0.04900 J0
G1 Z[-0.10000+9*0.00800]
G2 I-0.04900 J0
G1 Z[-0.10000+8*0.00800]
G2 I-0.04900 J0
G1 Z[-0.10000+7*0.00800]
G2 I-0.04900 J0
G1 Z[-0.10000+6*0.00800]
G2 I-0.04900 J0
G1 Z[-0.10000+5*0.00800]
G2 I-0.04900 J0
G1 Z[-0.10000+4*0.00800]
G2 I-0.04900 J0
G1 Z[-0.10000+3*0.00800]
G2 I-0.04900 J0
G1 Z[-0.10000+2*0.00800]
G2 I-0.04900 J0
G1 Z[-0.10000+1*0.00800]
G2 I-0.04900 J0
G0 Z0.02000

G0 X0.79900 Y2.65000
G1 Z[-0.10000+12*0.00800]
G2 I-0.04900 J0
G1 Z[-0.10000+11*0.00800]
G2 I-0.04900 J0
G1 Z[-0.10000+10*0.00800]
G2 I-0.04900 J0
G1 Z[-0.10000+9*0.00800]
G2 I-0.04900 J0
G1 Z[-0.10000+8*0.00800]
G2 I-0.04900 J0
G1 Z[-0.10000+7*0.00800]
G2 I-0.04900 J0
G1 Z[-0.10000+6*0.00800]
G2 I-0.04900 J0
G1 Z[-0.10000+5*0.00800]
G2 I-0.04900 J0
G1 Z[-0.10000+4*0.00800]
G2 I-0.04900 J0
G1 Z[-0.10000+3*0.00800]
G2 I-0.04900 J0
G1 Z[-0.10000+2*0.00800]
G2 I-0.04900 J0
G1 Z[-0.10000+1*0.00800]
G2 I-0.04900 J0
G0 Z0.02000

G0 X0.34900 Y2.65000
G1 Z[-0.10000+12*0.00800]
G2 I-0.04900 J0
G1 Z[-0.10000+11*0.00800]
G2 I-0.04900 J0
G1 Z[-0.10000+10*0.00800]
G2 I-0.04900 J0
G1 Z[-0.10000+9*0.00800]
G2 I-0.04900 J0
G1 Z[-0.10000+8*0.00800]
G2 I-0.04900 J0
G1 Z[-0.10000+7*0.00800]
G2 I-0.04900 J0
G1 Z[-0.10000+6*0.00800]
G2 I-0.04900 J0
G1 Z[-0.10000+5*0.00800]
G2 I-0.04900 J0
G1 Z[-0.10000+4*0.00800]
G2 I-0.04900 J0
G1 Z[-0.10000+3*0.00800]
G2 I-0.04900 J0
G1 Z[-0.10000+2*0.00800]
G2 I-0.04900 J0
G1 Z[-0.10000+1*0.00800]
G2 I-0.04900 J0
G0 Z0.02000

G0 X0.40250 Y0.60000
G1 Z[-0.10000+12*0.00800]
G2 I-0.00250 J0
G1 Z[-0.10000+11*0.00800]
G2 I-0.00250 J0
G1 Z[-0.10000+10*0.00800]
G2 I-0.00250 J0
G1 Z[-0.10000+9*0.00800]
G2 I-0.00250 J0
G1 Z[-0.10000+8*0.00800]
G2 I-0.00250 J0
G1 Z[-0.10000+7*0.00800]
G2 I-0.00250 J0
G1 Z[-0.10000+6*0.00800]
G2 I-0.00250 J0
G1 Z[-0.10000+5*0.00800]
G2 I-0.00250 J0
G1 Z[-0.10000+4*0.00800]
G2 I-0.00250 J0
G1 Z[-0.10000+3*0.00800]
G2 I-0.00250 J0
G1 Z[-0.10000+2*0.00800]
G2 I-0.00250 J0
G1 Z[-0.10000+1*0.00800]
G2 I-0.00250 J0
G0 Z0.02000

G0 X0.50250 Y0.60000
G1 Z[-0.10000+12*0.00800]
G2 I-0.00250 J0
G1 Z[-0.10000+11*0.00800]
G2 I-0.00250 J0
G1 Z[-0.10000+10*0.00800]
G2 I-0.00250 J0
G1 Z[-0.10000+9*0.00800]
G2 I-0.00250 J0
G1 Z[-0.10000+8*0.00800]
G2 I-0.00250 J0
G1 Z[-0.10000+7*0.00800]
G2 I-0.00250 J0
G1 Z[-0.10000+6*0.00800]
G2 I-0.00250 J0
G1 Z[-0.10000+5*0.00800]
G2 I-0.00250 J0
G1 Z[-0.10000+4*0.00800]
G2 I-0.00250 J0
G1 Z[-0.10000+3*0.00800]
G2 I-0.00250 J0
G1 Z[-0.10000+2*0.00800]
G2 I-0.00250 J0
G1 Z[-0.10000+1*0.00800]
G2 I-0.00250 J0
G0 Z0.02000

G0 X0.60250 Y0.60000
G1 Z[-0.10000+12*0.00800]
G2 I-0.00250 J0
G1 Z[-0.10000+11*0.00800]
G2 I-0.00250 J0
G1 Z[-0.10000+10*0.00800]
G2 I-0.00250 J0
G1 Z[-0.10000+9*0.00800]
G2 I-0.00250 J0
G1 Z[-0.10000+8*0.00800]
G2 I-0.00250 J0
G1 Z[-0.10000+7*0.00800]
G2 I-0.00250 J0
G1 Z[-0.10000+6*0.00800]
G2 I-0.00250 J0
G1 Z[-0.10000+5*0.00800]
G2 I-0.00250 J0
G1 Z[-0.10000+4*0.00800]
G2 I-0.00250 J0
G1 Z[-0.10000+3*0.00800]
G2 I-0.00250 J0
G1 Z[-0.10000+2*0.00800]
G2 I-0.00250 J0
G1 Z[-0.10000+1*0.00800]
G2 I-0.00250 J0
G0 Z0.02000

G0 X0.70250 Y0.60000
G1 Z[-0.10000+12*0.00800]
G2 I-0.00250 J0
G1 Z[-0.10000+11*0.00800]
G2 I-0.00250 J0
G1 Z[-0.10000+10*0.00800]
G2 I-0.00250 J0
G1 Z[-0.10000+9*0.00800]
G2 I-0.00250 J0
G1 Z[-0.10000+8*0.00800]
G2 I-0.00250 J0
G1 Z[-0.10000+7*0.00800]
G2 I-0.00250 J0
G1 Z[-0.10000+6*0.00800]
G2 I-0.00250 J0
G1 Z[-0.10000+5*0.00800]
G2 I-0.00250 J0
G1 Z[-0.10000+4*0.00800]
G2 I-0.00250 J0
G1 Z[-0.10000+3*0.00800]
G2 I-0.00250 J0
G1 Z[-0.10000+2*0.00800]
G2 I-0.00250 J0
G1 Z[-0.10000+1*0.00800]
G2 I-0.00250 J0
G0 Z0.02000

G0 X0.65250 Y0.70000
G1 Z[-0.10000+12*0.00800]
G2 I-0.00250 J0
G1 Z[-0.10000+11*0.00800]
G2 I-0.00250 J0
G1 Z[-0.10000+10*0.00800]
G2 I-0.00250 J0
G1 Z[-0.10000+9*0.00800]
G2 I-0.00250 J0
G1 Z[-0.10000+8*0.00800]
G2 I-0.00250 J0
G1 Z[-0.10000+7*0.00800]
G2 I-0.00250 J0
G1 Z[-0.10000+6*0.00800]
G2 I-0.00250 J0
G1 Z[-0.10000+5*0.00800]
G2 I-0.00250 J0
G1 Z[-0.10000+4*0.00800]
G2 I-0.00250 J0
G1 Z[-0.10000+3*0.00800]
G2 I-0.00250 J0
G1 Z[-0.10000+2*0.00800]
G2 I-0.00250 J0
G1 Z[-0.10000+1*0.00800]
G2 I-0.00250 J0
G0 Z0.02000

G0 X0.55250 Y0.70000
G1 Z[-0.10000+12*0.00800]
G2 I-0.00250 J0
G1 Z[-0.10000+11*0.00800]
G2 I-0.00250 J0
G1 Z[-0.10000+10*0.00800]
G2 I-0.00250 J0
G1 Z[-0.10000+9*0.00800]
G2 I-0.00250 J0
G1 Z[-0.10000+8*0.00800]
G2 I-0.00250 J0
G1 Z[-0.10000+7*0.00800]
G2 I-0.00250 J0
G1 Z[-0.10000+6*0.00800]
G2 I-0.00250 J0
G1 Z[-0.10000+5*0.00800]
G2 I-0.00250 J0
G1 Z[-0.10000+4*0.00800]
G2 I-0.00250 J0
G1 Z[-0.10000+3*0.00800]
G2 I-0.00250 J0
G1 Z[-0.10000+2*0.00800]
G2 I-0.00250 J0
G1 Z[-0.10000+1*0.00800]
G2 I-0.00250 J0
G0 Z0.02000

G0 X0.45250 Y0.70000
G1 Z[-0.10000+12*0.00800]
G2 I-0.00250 J0
G1 Z[-0.10000+11*0.00800]
G2 I-0.00250 J0
G1 Z[-0.10000+10*0.00800]
G2 I-0.00250 J0
G1 Z[-0.10000+9*0.00800]
G2 I-0.00250 J0
G1 Z[-0.10000+8*0.00800]
G2 I-0.00250 J0
G1 Z[-0.10000+7*0.00800]
G2 I-0.00250 J0
G1 Z[-0.10000+6*0.00800]
G2 I-0.00250 J0
G1 Z[-0.10000+5*0.00800]
G2 I-0.00250 J0
G1 Z[-0.10000+4*0.00800]
G2 I-0.00250 J0
G1 Z[-0.10000+3*0.00800]
G2 I-0.00250 J0
G1 Z[-0.10000+2*0.00800]
G2 I-0.00250 J0
G1 Z[-0.10000+1*0.00800]
G2 I-0.00250 J0
G0 Z0.02000

G0 X0.35250 Y0.70000
G1 Z[-0.10000+12*0.00800]
G2 I-0.00250 J0
G1 Z[-0.10000+11*0.00800]
G2 I-0.00250 J0
G1 Z[-0.10000+10*0.00800]
G2 I-0.00250 J0
G1 Z[-0.10000+9*0.00800]
G2 I-0.00250 J0
G1 Z[-0.10000+8*0.00800]
G2 I-0.00250 J0
G1 Z[-0.10000+7*0.00800]
G2 I-0.00250 J0
G1 Z[-0.10000+6*0.00800]
G2 I-0.00250 J0
G1 Z[-0.10000+5*0.00800]
G2 I-0.00250 J0
G1 Z[-0.10000+4*0.00800]
G2 I-0.00250 J0
G1 Z[-0.10000+3*0.00800]
G2 I-0.00250 J0
G1 Z[-0.10000+2*0.00800]
G2 I-0.00250 J0
G1 Z[-0.10000+1*0.00800]
G2 I-0.00250 J0
G0 Z0.02000

G0 X0.35250 Y1.20000
G1 Z[-0.10000+12*0.00800]
G2 I-0.00250 J0
G1 Z[-0.10000+11*0.00800]
G2 I-0.00250 J0
G1 Z[-0.10000+10*0.00800]
G2 I-0.00250 J0
G1 Z[-0.10000+9*0.00800]
G2 I-0.00250 J0
G1 Z[-0.10000+8*0.00800]
G2 I-0.00250 J0
G1 Z[-0.10000+7*0.00800]
G2 I-0.00250 J0
G1 Z[-0.10000+6*0.00800]
G2 I-0.00250 J0
G1 Z[-0.10000+5*0.00800]
G2 I-0.00250 J0
G1 Z[-0.10000+4*0.00800]
G2 I-0.00250 J0
G1 Z[-0.10000+3*0.00800]
G2 I-0.00250 J0
G1 Z[-0.10000+2*0.00800]
G2 I-0.00250 J0
G1 Z[-0.10000+1*0.00800]
G2 I-0.00250 J0
G0 Z0.02000

G0 X0.45250 Y1.20000
G1 Z[-0.10000+12*0.00800]
G2 I-0.00250 J0
G1 Z[-0.10000+11*0.00800]
G2 I-0.00250 J0
G1 Z[-0.10000+10*0.00800]
G2 I-0.00250 J0
G1 Z[-0.10000+9*0.00800]
G2 I-0.00250 J0
G1 Z[-0.10000+8*0.00800]
G2 I-0.00250 J0
G1 Z[-0.10000+7*0.00800]
G2 I-0.00250 J0
G1 Z[-0.10000+6*0.00800]
G2 I-0.00250 J0
G1 Z[-0.10000+5*0.00800]
G2 I-0.00250 J0
G1 Z[-0.10000+4*0.00800]
G2 I-0.00250 J0
G1 Z[-0.10000+3*0.00800]
G2 I-0.00250 J0
G1 Z[-0.10000+2*0.00800]
G2 I-0.00250 J0
G1 Z[-0.10000+1*0.00800]
G2 I-0.00250 J0
G0 Z0.02000

G0 X0.55250 Y1.20000
G1 Z[-0.10000+12*0.00800]
G2 I-0.00250 J0
G1 Z[-0.10000+11*0.00800]
G2 I-0.00250 J0
G1 Z[-0.10000+10*0.00800]
G2 I-0.00250 J0
G1 Z[-0.10000+9*0.00800]
G2 I-0.00250 J0
G1 Z[-0.10000+8*0.00800]
G2 I-0.00250 J0
G1 Z[-0.10000+7*0.00800]
G2 I-0.00250 J0
G1 Z[-0.10000+6*0.00800]
G2 I-0.00250 J0
G1 Z[-0.10000+5*0.00800]
G2 I-0.00250 J0
G1 Z[-0.10000+4*0.00800]
G2 I-0.00250 J0
G1 Z[-0.10000+3*0.00800]
G2 I-0.00250 J0
G1 Z[-0.10000+2*0.00800]
G2 I-0.00250 J0
G1 Z[-0.10000+1*0.00800]
G2 I-0.00250 J0
G0 Z0.02000

G0 X0.65250 Y1.20000
G1 Z[-0.10000+12*0.00800]
G2 I-0.00250 J0
G1 Z[-0.10000+11*0.00800]
G2 I-0.00250 J0
G1 Z[-0.10000+10*0.00800]
G2 I-0.00250 J0
G1 Z[-0.10000+9*0.00800]
G2 I-0.00250 J0
G1 Z[-0.10000+8*0.00800]
G2 I-0.00250 J0
G1 Z[-0.10000+7*0.00800]
G2 I-0.00250 J0
G1 Z[-0.10000+6*0.00800]
G2 I-0.00250 J0
G1 Z[-0.10000+5*0.00800]
G2 I-0.00250 J0
G1 Z[-0.10000+4*0.00800]
G2 I-0.00250 J0
G1 Z[-0.10000+3*0.00800]
G2 I-0.00250 J0
G1 Z[-0.10000+2*0.00800]
G2 I-0.00250 J0
G1 Z[-0.10000+1*0.00800]
G2 I-0.00250 J0
G0 Z0.02000

G0 X0.70250 Y1.30000
G1 Z[-0.10000+12*0.00800]
G2 I-0.00250 J0
G1 Z[-0.10000+11*0.00800]
G2 I-0.00250 J0
G1 Z[-0.10000+10*0.00800]
G2 I-0.00250 J0
G1 Z[-0.10000+9*0.00800]
G2 I-0.00250 J0
G1 Z[-0.10000+8*0.00800]
G2 I-0.00250 J0
G1 Z[-0.10000+7*0.00800]
G2 I-0.00250 J0
G1 Z[-0.10000+6*0.00800]
G2 I-0.00250 J0
G1 Z[-0.10000+5*0.00800]
G2 I-0.00250 J0
G1 Z[-0.10000+4*0.00800]
G2 I-0.00250 J0
G1 Z[-0.10000+3*0.00800]
G2 I-0.00250 J0
G1 Z[-0.10000+2*0.00800]
G2 I-0.00250 J0
G1 Z[-0.10000+1*0.00800]
G2 I-0.00250 J0
G0 Z0.02000

G0 X0.60250 Y1.30000
G1 Z[-0.10000+12*0.00800]
G2 I-0.00250 J0
G1 Z[-0.10000+11*0.00800]
G2 I-0.00250 J0
G1 Z[-0.10000+10*0.00800]
G2 I-0.00250 J0
G1 Z[-0.10000+9*0.00800]
G2 I-0.00250 J0
G1 Z[-0.10000+8*0.00800]
G2 I-0.00250 J0
G1 Z[-0.10000+7*0.00800]
G2 I-0.00250 J0
G1 Z[-0.10000+6*0.00800]
G2 I-0.00250 J0
G1 Z[-0.10000+5*0.00800]
G2 I-0.00250 J0
G1 Z[-0.10000+4*0.00800]
G2 I-0.00250 J0
G1 Z[-0.10000+3*0.00800]
G2 I-0.00250 J0
G1 Z[-0.10000+2*0.00800]
G2 I-0.00250 J0
G1 Z[-0.10000+1*0.00800]
G2 I-0.00250 J0
G0 Z0.02000

G0 X0.50250 Y1.30000
G1 Z[-0.10000+12*0.00800]
G2 I-0.00250 J0
G1 Z[-0.10000+11*0.00800]
G2 I-0.00250 J0
G1 Z[-0.10000+10*0.00800]
G2 I-0.00250 J0
G1 Z[-0.10000+9*0.00800]
G2 I-0.00250 J0
G1 Z[-0.10000+8*0.00800]
G2 I-0.00250 J0
G1 Z[-0.10000+7*0.00800]
G2 I-0.00250 J0
G1 Z[-0.10000+6*0.00800]
G2 I-0.00250 J0
G1 Z[-0.10000+5*0.00800]
G2 I-0.00250 J0
G1 Z[-0.10000+4*0.00800]
G2 I-0.00250 J0
G1 Z[-0.10000+3*0.00800]
G2 I-0.00250 J0
G1 Z[-0.10000+2*0.00800]
G2 I-0.00250 J0
G1 Z[-0.10000+1*0.00800]
G2 I-0.00250 J0
G0 Z0.02000

G0 X0.40250 Y1.30000
G1 Z[-0.10000+12*0.00800]
G2 I-0.00250 J0
G1 Z[-0.10000+11*0.00800]
G2 I-0.00250 J0
G1 Z[-0.10000+10*0.00800]
G2 I-0.00250 J0
G1 Z[-0.10000+9*0.00800]
G2 I-0.00250 J0
G1 Z[-0.10000+8*0.00800]
G2 I-0.00250 J0
G1 Z[-0.10000+7*0.00800]
G2 I-0.00250 J0
G1 Z[-0.10000+6*0.00800]
G2 I-0.00250 J0
G1 Z[-0.10000+5*0.00800]
G2 I-0.00250 J0
G1 Z[-0.10000+4*0.00800]
G2 I-0.00250 J0
G1 Z[-0.10000+3*0.00800]
G2 I-0.00250 J0
G1 Z[-0.10000+2*0.00800]
G2 I-0.00250 J0
G1 Z[-0.10000+1*0.00800]
G2 I-0.00250 J0
G0 Z0.02000

G0 X0.45250 Y1.67500
G1 Z[-0.10000+12*0.00800]
G2 I-0.00250 J0
G1 Z[-0.10000+11*0.00800]
G2 I-0.00250 J0
G1 Z[-0.10000+10*0.00800]
G2 I-0.00250 J0
G1 Z[-0.10000+9*0.00800]
G2 I-0.00250 J0
G1 Z[-0.10000+8*0.00800]
G2 I-0.00250 J0
G1 Z[-0.10000+7*0.00800]
G2 I-0.00250 J0
G1 Z[-0.10000+6*0.00800]
G2 I-0.00250 J0
G1 Z[-0.10000+5*0.00800]
G2 I-0.00250 J0
G1 Z[-0.10000+4*0.00800]
G2 I-0.00250 J0
G1 Z[-0.10000+3*0.00800]
G2 I-0.00250 J0
G1 Z[-0.10000+2*0.00800]
G2 I-0.00250 J0
G1 Z[-0.10000+1*0.00800]
G2 I-0.00250 J0
G0 Z0.02000

G0 X0.55250 Y1.67500
G1 Z[-0.10000+12*0.00800]
G2 I-0.00250 J0
G1 Z[-0.10000+11*0.00800]
G2 I-0.00250 J0
G1 Z[-0.10000+10*0.00800]
G2 I-0.00250 J0
G1 Z[-0.10000+9*0.00800]
G2 I-0.00250 J0
G1 Z[-0.10000+8*0.00800]
G2 I-0.00250 J0
G1 Z[-0.10000+7*0.00800]
G2 I-0.00250 J0
G1 Z[-0.10000+6*0.00800]
G2 I-0.00250 J0
G1 Z[-0.10000+5*0.00800]
G2 I-0.00250 J0
G1 Z[-0.10000+4*0.00800]
G2 I-0.00250 J0
G1 Z[-0.10000+3*0.00800]
G2 I-0.00250 J0
G1 Z[-0.10000+2*0.00800]
G2 I-0.00250 J0
G1 Z[-0.10000+1*0.00800]
G2 I-0.00250 J0
G0 Z0.02000

G0 X0.65250 Y1.67500
G1 Z[-0.10000+12*0.00800]
G2 I-0.00250 J0
G1 Z[-0.10000+11*0.00800]
G2 I-0.00250 J0
G1 Z[-0.10000+10*0.00800]
G2 I-0.00250 J0
G1 Z[-0.10000+9*0.00800]
G2 I-0.00250 J0
G1 Z[-0.10000+8*0.00800]
G2 I-0.00250 J0
G1 Z[-0.10000+7*0.00800]
G2 I-0.00250 J0
G1 Z[-0.10000+6*0.00800]
G2 I-0.00250 J0
G1 Z[-0.10000+5*0.00800]
G2 I-0.00250 J0
G1 Z[-0.10000+4*0.00800]
G2 I-0.00250 J0
G1 Z[-0.10000+3*0.00800]
G2 I-0.00250 J0
G1 Z[-0.10000+2*0.00800]
G2 I-0.00250 J0
G1 Z[-0.10000+1*0.00800]
G2 I-0.00250 J0
G0 Z0.02000

G0 X0.70250 Y1.77500
G1 Z[-0.10000+12*0.00800]
G2 I-0.00250 J0
G1 Z[-0.10000+11*0.00800]
G2 I-0.00250 J0
G1 Z[-0.10000+10*0.00800]
G2 I-0.00250 J0
G1 Z[-0.10000+9*0.00800]
G2 I-0.00250 J0
G1 Z[-0.10000+8*0.00800]
G2 I-0.00250 J0
G1 Z[-0.10000+7*0.00800]
G2 I-0.00250 J0
G1 Z[-0.10000+6*0.00800]
G2 I-0.00250 J0
G1 Z[-0.10000+5*0.00800]
G2 I-0.00250 J0
G1 Z[-0.10000+4*0.00800]
G2 I-0.00250 J0
G1 Z[-0.10000+3*0.00800]
G2 I-0.00250 J0
G1 Z[-0.10000+2*0.00800]
G2 I-0.00250 J0
G1 Z[-0.10000+1*0.00800]
G2 I-0.00250 J0
G0 Z0.02000

G0 X0.60250 Y1.77500
G1 Z[-0.10000+12*0.00800]
G2 I-0.00250 J0
G1 Z[-0.10000+11*0.00800]
G2 I-0.00250 J0
G1 Z[-0.10000+10*0.00800]
G2 I-0.00250 J0
G1 Z[-0.10000+9*0.00800]
G2 I-0.00250 J0
G1 Z[-0.10000+8*0.00800]
G2 I-0.00250 J0
G1 Z[-0.10000+7*0.00800]
G2 I-0.00250 J0
G1 Z[-0.10000+6*0.00800]
G2 I-0.00250 J0
G1 Z[-0.10000+5*0.00800]
G2 I-0.00250 J0
G1 Z[-0.10000+4*0.00800]
G2 I-0.00250 J0
G1 Z[-0.10000+3*0.00800]
G2 I-0.00250 J0
G1 Z[-0.10000+2*0.00800]
G2 I-0.00250 J0
G1 Z[-0.10000+1*0.00800]
G2 I-0.00250 J0
G0 Z0.02000

G0 X0.50250 Y1.77500
G1 Z[-0.10000+12*0.00800]
G2 I-0.00250 J0
G1 Z[-0.10000+11*0.00800]
G2 I-0.00250 J0
G1 Z[-0.10000+10*0.00800]
G2 I-0.00250 J0
G1 Z[-0.10000+9*0.00800]
G2 I-0.00250 J0
G1 Z[-0.10000+8*0.00800]
G2 I-0.00250 J0
G1 Z[-0.10000+7*0.00800]
G2 I-0.00250 J0
G1 Z[-0.10000+6*0.00800]
G2 I-0.00250 J0
G1 Z[-0.10000+5*0.00800]
G2 I-0.00250 J0
G1 Z[-0.10000+4*0.00800]
G2 I-0.00250 J0
G1 Z[-0.10000+3*0.00800]
G2 I-0.00250 J0
G1 Z[-0.10000+2*0.00800]
G2 I-0.00250 J0
G1 Z[-0.10000+1*0.00800]
G2 I-0.00250 J0
G0 Z0.02000

G0 X0.40250 Y1.77500
G1 Z[-0.10000+12*0.00800]
G2 I-0.00250 J0
G1 Z[-0.10000+11*0.00800]
G2 I-0.00250 J0
G1 Z[-0.10000+10*0.00800]
G2 I-0.00250 J0
G1 Z[-0.10000+9*0.00800]
G2 I-0.00250 J0
G1 Z[-0.10000+8*0.00800]
G2 I-0.00250 J0
G1 Z[-0.10000+7*0.00800]
G2 I-0.00250 J0
G1 Z[-0.10000+6*0.00800]
G2 I-0.00250 J0
G1 Z[-0.10000+5*0.00800]
G2 I-0.00250 J0
G1 Z[-0.10000+4*0.00800]
G2 I-0.00250 J0
G1 Z[-0.10000+3*0.00800]
G2 I-0.00250 J0
G1 Z[-0.10000+2*0.00800]
G2 I-0.00250 J0
G1 Z[-0.10000+1*0.00800]
G2 I-0.00250 J0
G0 Z0.02000

G0 X0.35250 Y1.67500
G1 Z[-0.10000+12*0.00800]
G2 I-0.00250 J0
G1 Z[-0.10000+11*0.00800]
G2 I-0.00250 J0
G1 Z[-0.10000+10*0.00800]
G2 I-0.00250 J0
G1 Z[-0.10000+9*0.00800]
G2 I-0.00250 J0
G1 Z[-0.10000+8*0.00800]
G2 I-0.00250 J0
G1 Z[-0.10000+7*0.00800]
G2 I-0.00250 J0
G1 Z[-0.10000+6*0.00800]
G2 I-0.00250 J0
G1 Z[-0.10000+5*0.00800]
G2 I-0.00250 J0
G1 Z[-0.10000+4*0.00800]
G2 I-0.00250 J0
G1 Z[-0.10000+3*0.00800]
G2 I-0.00250 J0
G1 Z[-0.10000+2*0.00800]
G2 I-0.00250 J0
G1 Z[-0.10000+1*0.00800]
G2 I-0.00250 J0
G0 Z0.02000

G0 X0.40250 Y2.30000
G1 Z[-0.10000+12*0.00800]
G2 I-0.00250 J0
G1 Z[-0.10000+11*0.00800]
G2 I-0.00250 J0
G1 Z[-0.10000+10*0.00800]
G2 I-0.00250 J0
G1 Z[-0.10000+9*0.00800]
G2 I-0.00250 J0
G1 Z[-0.10000+8*0.00800]
G2 I-0.00250 J0
G1 Z[-0.10000+7*0.00800]
G2 I-0.00250 J0
G1 Z[-0.10000+6*0.00800]
G2 I-0.00250 J0
G1 Z[-0.10000+5*0.00800]
G2 I-0.00250 J0
G1 Z[-0.10000+4*0.00800]
G2 I-0.00250 J0
G1 Z[-0.10000+3*0.00800]
G2 I-0.00250 J0
G1 Z[-0.10000+2*0.00800]
G2 I-0.00250 J0
G1 Z[-0.10000+1*0.00800]
G2 I-0.00250 J0
G0 Z0.02000

G0 X0.50250 Y2.30000
G1 Z[-0.10000+12*0.00800]
G2 I-0.00250 J0
G1 Z[-0.10000+11*0.00800]
G2 I-0.00250 J0
G1 Z[-0.10000+10*0.00800]
G2 I-0.00250 J0
G1 Z[-0.10000+9*0.00800]
G2 I-0.00250 J0
G1 Z[-0.10000+8*0.00800]
G2 I-0.00250 J0
G1 Z[-0.10000+7*0.00800]
G2 I-0.00250 J0
G1 Z[-0.10000+6*0.00800]
G2 I-0.00250 J0
G1 Z[-0.10000+5*0.00800]
G2 I-0.00250 J0
G1 Z[-0.10000+4*0.00800]
G2 I-0.00250 J0
G1 Z[-0.10000+3*0.00800]
G2 I-0.00250 J0
G1 Z[-0.10000+2*0.00800]
G2 I-0.00250 J0
G1 Z[-0.10000+1*0.00800]
G2 I-0.00250 J0
G0 Z0.02000

G0 X0.60250 Y2.30000
G1 Z[-0.10000+12*0.00800]
G2 I-0.00250 J0
G1 Z[-0.10000+11*0.00800]
G2 I-0.00250 J0
G1 Z[-0.10000+10*0.00800]
G2 I-0.00250 J0
G1 Z[-0.10000+9*0.00800]
G2 I-0.00250 J0
G1 Z[-0.10000+8*0.00800]
G2 I-0.00250 J0
G1 Z[-0.10000+7*0.00800]
G2 I-0.00250 J0
G1 Z[-0.10000+6*0.00800]
G2 I-0.00250 J0
G1 Z[-0.10000+5*0.00800]
G2 I-0.00250 J0
G1 Z[-0.10000+4*0.00800]
G2 I-0.00250 J0
G1 Z[-0.10000+3*0.00800]
G2 I-0.00250 J0
G1 Z[-0.10000+2*0.00800]
G2 I-0.00250 J0
G1 Z[-0.10000+1*0.00800]
G2 I-0.00250 J0
G0 Z0.02000

G0 X0.70250 Y2.30000
G1 Z[-0.10000+12*0.00800]
G2 I-0.00250 J0
G1 Z[-0.10000+11*0.00800]
G2 I-0.00250 J0
G1 Z[-0.10000+10*0.00800]
G2 I-0.00250 J0
G1 Z[-0.10000+9*0.00800]
G2 I-0.00250 J0
G1 Z[-0.10000+8*0.00800]
G2 I-0.00250 J0
G1 Z[-0.10000+7*0.00800]
G2 I-0.00250 J0
G1 Z[-0.10000+6*0.00800]
G2 I-0.00250 J0
G1 Z[-0.10000+5*0.00800]
G2 I-0.00250 J0
G1 Z[-0.10000+4*0.00800]
G2 I-0.00250 J0
G1 Z[-0.10000+3*0.00800]
G2 I-0.00250 J0
G1 Z[-0.10000+2*0.00800]
G2 I-0.00250 J0
G1 Z[-0.10000+1*0.00800]
G2 I-0.00250 J0
G0 Z0.02000

G0 X0.65250 Y2.40000
G1 Z[-0.10000+12*0.00800]
G2 I-0.00250 J0
G1 Z[-0.10000+11*0.00800]
G2 I-0.00250 J0
G1 Z[-0.10000+10*0.00800]
G2 I-0.00250 J0
G1 Z[-0.10000+9*0.00800]
G2 I-0.00250 J0
G1 Z[-0.10000+8*0.00800]
G2 I-0.00250 J0
G1 Z[-0.10000+7*0.00800]
G2 I-0.00250 J0
G1 Z[-0.10000+6*0.00800]
G2 I-0.00250 J0
G1 Z[-0.10000+5*0.00800]
G2 I-0.00250 J0
G1 Z[-0.10000+4*0.00800]
G2 I-0.00250 J0
G1 Z[-0.10000+3*0.00800]
G2 I-0.00250 J0
G1 Z[-0.10000+2*0.00800]
G2 I-0.00250 J0
G1 Z[-0.10000+1*0.00800]
G2 I-0.00250 J0
G0 Z0.02000

G0 X0.55250 Y2.40000
G1 Z[-0.10000+12*0.00800]
G2 I-0.00250 J0
G1 Z[-0.10000+11*0.00800]
G2 I-0.00250 J0
G1 Z[-0.10000+10*0.00800]
G2 I-0.00250 J0
G1 Z[-0.10000+9*0.00800]
G2 I-0.00250 J0
G1 Z[-0.10000+8*0.00800]
G2 I-0.00250 J0
G1 Z[-0.10000+7*0.00800]
G2 I-0.00250 J0
G1 Z[-0.10000+6*0.00800]
G2 I-0.00250 J0
G1 Z[-0.10000+5*0.00800]
G2 I-0.00250 J0
G1 Z[-0.10000+4*0.00800]
G2 I-0.00250 J0
G1 Z[-0.10000+3*0.00800]
G2 I-0.00250 J0
G1 Z[-0.10000+2*0.00800]
G2 I-0.00250 J0
G1 Z[-0.10000+1*0.00800]
G2 I-0.00250 J0
G0 Z0.02000

G0 X0.45250 Y2.40000
G1 Z[-0.10000+12*0.00800]
G2 I-0.00250 J0
G1 Z[-0.10000+11*0.00800]
G2 I-0.00250 J0
G1 Z[-0.10000+10*0.00800]
G2 I-0.00250 J0
G1 Z[-0.10000+9*0.00800]
G2 I-0.00250 J0
G1 Z[-0.10000+8*0.00800]
G2 I-0.00250 J0
G1 Z[-0.10000+7*0.00800]
G2 I-0.00250 J0
G1 Z[-0.10000+6*0.00800]
G2 I-0.00250 J0
G1 Z[-0.10000+5*0.00800]
G2 I-0.00250 J0
G1 Z[-0.10000+4*0.00800]
G2 I-0.00250 J0
G1 Z[-0.10000+3*0.00800]
G2 I-0.00250 J0
G1 Z[-0.10000+2*0.00800]
G2 I-0.00250 J0
G1 Z[-0.10000+1*0.00800]
G2 I-0.00250 J0
G0 Z0.02000

G0 X0.35250 Y2.40000
G1 Z[-0.10000+12*0.00800]
G2 I-0.00250 J0
G1 Z[-0.10000+11*0.00800]
G2 I-0.00250 J0
G1 Z[-0.10000+10*0.00800]
G2 I-0.00250 J0
G1 Z[-0.10000+9*0.00800]
G2 I-0.00250 J0
G1 Z[-0.10000+8*0.00800]
G2 I-0.00250 J0
G1 Z[-0.10000+7*0.00800]
G2 I-0.00250 J0
G1 Z[-0.10000+6*0.00800]
G2 I-0.00250 J0
G1 Z[-0.10000+5*0.00800]
G2 I-0.00250 J0
G1 Z[-0.10000+4*0.00800]
G2 I-0.00250 J0
G1 Z[-0.10000+3*0.00800]
G2 I-0.00250 J0
G1 Z[-0.10000+2*0.00800]
G2 I-0.00250 J0
G1 Z[-0.10000+1*0.00800]
G2 I-0.00250 J0
G0 Z0.02000

G0 X0.23190 Y0.22990
G1 Z[-0.10000+12*0.00800]
G2 I-0.01650 J0
G1 Z[-0.10000+11*0.00800]
G2 I-0.01650 J0
G1 Z[-0.10000+10*0.00800]
G2 I-0.01650 J0
G1 Z[-0.10000+9*0.00800]
G2 I-0.01650 J0
G1 Z[-0.10000+8*0.00800]
G2 I-0.01650 J0
G1 Z[-0.10000+7*0.00800]
G2 I-0.01650 J0
G1 Z[-0.10000+6*0.00800]
G2 I-0.01650 J0
G1 Z[-0.10000+5*0.00800]
G2 I-0.01650 J0
G1 Z[-0.10000+4*0.00800]
G2 I-0.01650 J0
G1 Z[-0.10000+3*0.00800]
G2 I-0.01650 J0
G1 Z[-0.10000+2*0.00800]
G2 I-0.01650 J0
G1 Z[-0.10000+1*0.00800]
G2 I-0.01650 J0
G0 Z0.02000

G0 X0.23110 Y0.82990
G1 Z[-0.10000+12*0.00800]
G2 I-0.01650 J0
G1 Z[-0.10000+11*0.00800]
G2 I-0.01650 J0
G1 Z[-0.10000+10*0.00800]
G2 I-0.01650 J0
G1 Z[-0.10000+9*0.00800]
G2 I-0.01650 J0
G1 Z[-0.10000+8*0.00800]
G2 I-0.01650 J0
G1 Z[-0.10000+7*0.00800]
G2 I-0.01650 J0
G1 Z[-0.10000+6*0.00800]
G2 I-0.01650 J0
G1 Z[-0.10000+5*0.00800]
G2 I-0.01650 J0
G1 Z[-0.10000+4*0.00800]
G2 I-0.01650 J0
G1 Z[-0.10000+3*0.00800]
G2 I-0.01650 J0
G1 Z[-0.10000+2*0.00800]
G2 I-0.01650 J0
G1 Z[-0.10000+1*0.00800]
G2 I-0.01650 J0
G0 Z0.02000

G0 X0.85110 Y0.82990
G1 Z[-0.10000+12*0.00800]
G2 I-0.01650 J0
G1 Z[-0.10000+11*0.00800]
G2 I-0.01650 J0
G1 Z[-0.10000+10*0.00800]
G2 I-0.01650 J0
G1 Z[-0.10000+9*0.00800]
G2 I-0.01650 J0
G1 Z[-0.10000+8*0.00800]
G2 I-0.01650 J0
G1 Z[-0.10000+7*0.00800]
G2 I-0.01650 J0
G1 Z[-0.10000+6*0.00800]
G2 I-0.01650 J0
G1 Z[-0.10000+5*0.00800]
G2 I-0.01650 J0
G1 Z[-0.10000+4*0.00800]
G2 I-0.01650 J0
G1 Z[-0.10000+3*0.00800]
G2 I-0.01650 J0
G1 Z[-0.10000+2*0.00800]
G2 I-0.01650 J0
G1 Z[-0.10000+1*0.00800]
G2 I-0.01650 J0
G0 Z0.02000

G0 X0.85190 Y0.22990
G1 Z[-0.10000+12*0.00800]
G2 I-0.01650 J0
G1 Z[-0.10000+11*0.00800]
G2 I-0.01650 J0
G1 Z[-0.10000+10*0.00800]
G2 I-0.01650 J0
G1 Z[-0.10000+9*0.00800]
G2 I-0.01650 J0
G1 Z[-0.10000+8*0.00800]
G2 I-0.01650 J0
G1 Z[-0.10000+7*0.00800]
G2 I-0.01650 J0
G1 Z[-0.10000+6*0.00800]
G2 I-0.01650 J0
G1 Z[-0.10000+5*0.00800]
G2 I-0.01650 J0
G1 Z[-0.10000+4*0.00800]
G2 I-0.01650 J0
G1 Z[-0.10000+3*0.00800]
G2 I-0.01650 J0
G1 Z[-0.10000+2*0.00800]
G2 I-0.01650 J0
G1 Z[-0.10000+1*0.00800]
G2 I-0.01650 J0
G0 Z0.02000

G0 X0.85190 Y2.14510
G1 Z[-0.10000+12*0.00800]
G2 I-0.01650 J0
G1 Z[-0.10000+11*0.00800]
G2 I-0.01650 J0
G1 Z[-0.10000+10*0.00800]
G2 I-0.01650 J0
G1 Z[-0.10000+9*0.00800]
G2 I-0.01650 J0
G1 Z[-0.10000+8*0.00800]
G2 I-0.01650 J0
G1 Z[-0.10000+7*0.00800]
G2 I-0.01650 J0
G1 Z[-0.10000+6*0.00800]
G2 I-0.01650 J0
G1 Z[-0.10000+5*0.00800]
G2 I-0.01650 J0
G1 Z[-0.10000+4*0.00800]
G2 I-0.01650 J0
G1 Z[-0.10000+3*0.00800]
G2 I-0.01650 J0
G1 Z[-0.10000+2*0.00800]
G2 I-0.01650 J0
G1 Z[-0.10000+1*0.00800]
G2 I-0.01650 J0
G0 Z0.02000

G0 X0.23190 Y2.14510
G1 Z[-0.10000+12*0.00800]
G2 I-0.01650 J0
G1 Z[-0.10000+11*0.00800]
G2 I-0.01650 J0
G1 Z[-0.10000+10*0.00800]
G2 I-0.01650 J0
G1 Z[-0.10000+9*0.00800]
G2 I-0.01650 J0
G1 Z[-0.10000+8*0.00800]
G2 I-0.01650 J0
G1 Z[-0.10000+7*0.00800]
G2 I-0.01650 J0
G1 Z[-0.10000+6*0.00800]
G2 I-0.01650 J0
G1 Z[-0.10000+5*0.00800]
G2 I-0.01650 J0
G1 Z[-0.10000+4*0.00800]
G2 I-0.01650 J0
G1 Z[-0.10000+3*0.00800]
G2 I-0.01650 J0
G1 Z[-0.10000+2*0.00800]
G2 I-0.01650 J0
G1 Z[-0.10000+1*0.00800]
G2 I-0.01650 J0
G0 Z0.02000

G0 X0.23110 Y2.77010
G1 Z[-0.10000+12*0.00800]
G2 I-0.01650 J0
G1 Z[-0.10000+11*0.00800]
G2 I-0.01650 J0
G1 Z[-0.10000+10*0.00800]
G2 I-0.01650 J0
G1 Z[-0.10000+9*0.00800]
G2 I-0.01650 J0
G1 Z[-0.10000+8*0.00800]
G2 I-0.01650 J0
G1 Z[-0.10000+7*0.00800]
G2 I-0.01650 J0
G1 Z[-0.10000+6*0.00800]
G2 I-0.01650 J0
G1 Z[-0.10000+5*0.00800]
G2 I-0.01650 J0
G1 Z[-0.10000+4*0.00800]
G2 I-0.01650 J0
G1 Z[-0.10000+3*0.00800]
G2 I-0.01650 J0
G1 Z[-0.10000+2*0.00800]
G2 I-0.01650 J0
G1 Z[-0.10000+1*0.00800]
G2 I-0.01650 J0
G0 Z0.02000

G0 X0.85110 Y2.77010
G1 Z[-0.10000+12*0.00800]
G2 I-0.01650 J0
G1 Z[-0.10000+11*0.00800]
G2 I-0.01650 J0
G1 Z[-0.10000+10*0.00800]
G2 I-0.01650 J0
G1 Z[-0.10000+9*0.00800]
G2 I-0.01650 J0
G1 Z[-0.10000+8*0.00800]
G2 I-0.01650 J0
G1 Z[-0.10000+7*0.00800]
G2 I-0.01650 J0
G1 Z[-0.10000+6*0.00800]
G2 I-0.01650 J0
G1 Z[-0.10000+5*0.00800]
G2 I-0.01650 J0
G1 Z[-0.10000+4*0.00800]
G2 I-0.01650 J0
G1 Z[-0.10000+3*0.00800]
G2 I-0.01650 J0
G1 Z[-0.10000+2*0.00800]
G2 I-0.01650 J0
G1 Z[-0.10000+1*0.00800]
G2 I-0.01650 J0
G0 Z0.02000

G0 X0.10400 Y0.90000
G1 Z[-0.10000+12*0.00800]
G2 I-0.00400 J0
G1 Z[-0.10000+11*0.00800]
G2 I-0.00400 J0
G1 Z[-0.10000+10*0.00800]
G2 I-0.00400 J0
G1 Z[-0.10000+9*0.00800]
G2 I-0.00400 J0
G1 Z[-0.10000+8*0.00800]
G2 I-0.00400 J0
G1 Z[-0.10000+7*0.00800]
G2 I-0.00400 J0
G1 Z[-0.10000+6*0.00800]
G2 I-0.00400 J0
G1 Z[-0.10000+5*0.00800]
G2 I-0.00400 J0
G1 Z[-0.10000+4*0.00800]
G2 I-0.00400 J0
G1 Z[-0.10000+3*0.00800]
G2 I-0.00400 J0
G1 Z[-0.10000+2*0.00800]
G2 I-0.00400 J0
G1 Z[-0.10000+1*0.00800]
G2 I-0.00400 J0
G0 Z0.02000

G0 X0.10400 Y1.00000
G1 Z[-0.10000+12*0.00800]
G2 I-0.00400 J0
G1 Z[-0.10000+11*0.00800]
G2 I-0.00400 J0
G1 Z[-0.10000+10*0.00800]
G2 I-0.00400 J0
G1 Z[-0.10000+9*0.00800]
G2 I-0.00400 J0
G1 Z[-0.10000+8*0.00800]
G2 I-0.00400 J0
G1 Z[-0.10000+7*0.00800]
G2 I-0.00400 J0
G1 Z[-0.10000+6*0.00800]
G2 I-0.00400 J0
G1 Z[-0.10000+5*0.00800]
G2 I-0.00400 J0
G1 Z[-0.10000+4*0.00800]
G2 I-0.00400 J0
G1 Z[-0.10000+3*0.00800]
G2 I-0.00400 J0
G1 Z[-0.10000+2*0.00800]
G2 I-0.00400 J0
G1 Z[-0.10000+1*0.00800]
G2 I-0.00400 J0
G0 Z0.02000

G0 X0.10400 Y1.10000
G1 Z[-0.10000+12*0.00800]
G2 I-0.00400 J0
G1 Z[-0.10000+11*0.00800]
G2 I-0.00400 J0
G1 Z[-0.10000+10*0.00800]
G2 I-0.00400 J0
G1 Z[-0.10000+9*0.00800]
G2 I-0.00400 J0
G1 Z[-0.10000+8*0.00800]
G2 I-0.00400 J0
G1 Z[-0.10000+7*0.00800]
G2 I-0.00400 J0
G1 Z[-0.10000+6*0.00800]
G2 I-0.00400 J0
G1 Z[-0.10000+5*0.00800]
G2 I-0.00400 J0
G1 Z[-0.10000+4*0.00800]
G2 I-0.00400 J0
G1 Z[-0.10000+3*0.00800]
G2 I-0.00400 J0
G1 Z[-0.10000+2*0.00800]
G2 I-0.00400 J0
G1 Z[-0.10000+1*0.00800]
G2 I-0.00400 J0
G0 Z0.02000

G0 X0.10400 Y1.20000
G1 Z[-0.10000+12*0.00800]
G2 I-0.00400 J0
G1 Z[-0.10000+11*0.00800]
G2 I-0.00400 J0
G1 Z[-0.10000+10*0.00800]
G2 I-0.00400 J0
G1 Z[-0.10000+9*0.00800]
G2 I-0.00400 J0
G1 Z[-0.10000+8*0.00800]
G2 I-0.00400 J0
G1 Z[-0.10000+7*0.00800]
G2 I-0.00400 J0
G1 Z[-0.10000+6*0.00800]
G2 I-0.00400 J0
G1 Z[-0.10000+5*0.00800]
G2 I-0.00400 J0
G1 Z[-0.10000+4*0.00800]
G2 I-0.00400 J0
G1 Z[-0.10000+3*0.00800]
G2 I-0.00400 J0
G1 Z[-0.10000+2*0.00800]
G2 I-0.00400 J0
G1 Z[-0.10000+1*0.00800]
G2 I-0.00400 J0
G0 Z0.02000

G0 X0.10400 Y1.30000
G1 Z[-0.10000+12*0.00800]
G2 I-0.00400 J0
G1 Z[-0.10000+11*0.00800]
G2 I-0.00400 J0
G1 Z[-0.10000+10*0.00800]
G2 I-0.00400 J0
G1 Z[-0.10000+9*0.00800]
G2 I-0.00400 J0
G1 Z[-0.10000+8*0.00800]
G2 I-0.00400 J0
G1 Z[-0.10000+7*0.00800]
G2 I-0.00400 J0
G1 Z[-0.10000+6*0.00800]
G2 I-0.00400 J0
G1 Z[-0.10000+5*0.00800]
G2 I-0.00400 J0
G1 Z[-0.10000+4*0.00800]
G2 I-0.00400 J0
G1 Z[-0.10000+3*0.00800]
G2 I-0.00400 J0
G1 Z[-0.10000+2*0.00800]
G2 I-0.00400 J0
G1 Z[-0.10000+1*0.00800]
G2 I-0.00400 J0
G0 Z0.02000

G0 X0.10400 Y1.40000
G1 Z[-0.10000+12*0.00800]
G2 I-0.00400 J0
G1 Z[-0.10000+11*0.00800]
G2 I-0.00400 J0
G1 Z[-0.10000+10*0.00800]
G2 I-0.00400 J0
G1 Z[-0.10000+9*0.00800]
G2 I-0.00400 J0
G1 Z[-0.10000+8*0.00800]
G2 I-0.00400 J0
G1 Z[-0.10000+7*0.00800]
G2 I-0.00400 J0
G1 Z[-0.10000+6*0.00800]
G2 I-0.00400 J0
G1 Z[-0.10000+5*0.00800]
G2 I-0.00400 J0
G1 Z[-0.10000+4*0.00800]
G2 I-0.00400 J0
G1 Z[-0.10000+3*0.00800]
G2 I-0.00400 J0
G1 Z[-0.10000+2*0.00800]
G2 I-0.00400 J0
G1 Z[-0.10000+1*0.00800]
G2 I-0.00400 J0
G0 Z0.02000

G0 X0.10400 Y1.50000
G1 Z[-0.10000+12*0.00800]
G2 I-0.00400 J0
G1 Z[-0.10000+11*0.00800]
G2 I-0.00400 J0
G1 Z[-0.10000+10*0.00800]
G2 I-0.00400 J0
G1 Z[-0.10000+9*0.00800]
G2 I-0.00400 J0
G1 Z[-0.10000+8*0.00800]
G2 I-0.00400 J0
G1 Z[-0.10000+7*0.00800]
G2 I-0.00400 J0
G1 Z[-0.10000+6*0.00800]
G2 I-0.00400 J0
G1 Z[-0.10000+5*0.00800]
G2 I-0.00400 J0
G1 Z[-0.10000+4*0.00800]
G2 I-0.00400 J0
G1 Z[-0.10000+3*0.00800]
G2 I-0.00400 J0
G1 Z[-0.10000+2*0.00800]
G2 I-0.00400 J0
G1 Z[-0.10000+1*0.00800]
G2 I-0.00400 J0
G0 Z0.02000

G0 X0.10400 Y1.60000
G1 Z[-0.10000+12*0.00800]
G2 I-0.00400 J0
G1 Z[-0.10000+11*0.00800]
G2 I-0.00400 J0
G1 Z[-0.10000+10*0.00800]
G2 I-0.00400 J0
G1 Z[-0.10000+9*0.00800]
G2 I-0.00400 J0
G1 Z[-0.10000+8*0.00800]
G2 I-0.00400 J0
G1 Z[-0.10000+7*0.00800]
G2 I-0.00400 J0
G1 Z[-0.10000+6*0.00800]
G2 I-0.00400 J0
G1 Z[-0.10000+5*0.00800]
G2 I-0.00400 J0
G1 Z[-0.10000+4*0.00800]
G2 I-0.00400 J0
G1 Z[-0.10000+3*0.00800]
G2 I-0.00400 J0
G1 Z[-0.10000+2*0.00800]
G2 I-0.00400 J0
G1 Z[-0.10000+1*0.00800]
G2 I-0.00400 J0
G0 Z0.02000

G0 X0.10400 Y1.70000
G1 Z[-0.10000+12*0.00800]
G2 I-0.00400 J0
G1 Z[-0.10000+11*0.00800]
G2 I-0.00400 J0
G1 Z[-0.10000+10*0.00800]
G2 I-0.00400 J0
G1 Z[-0.10000+9*0.00800]
G2 I-0.00400 J0
G1 Z[-0.10000+8*0.00800]
G2 I-0.00400 J0
G1 Z[-0.10000+7*0.00800]
G2 I-0.00400 J0
G1 Z[-0.10000+6*0.00800]
G2 I-0.00400 J0
G1 Z[-0.10000+5*0.00800]
G2 I-0.00400 J0
G1 Z[-0.10000+4*0.00800]
G2 I-0.00400 J0
G1 Z[-0.10000+3*0.00800]
G2 I-0.00400 J0
G1 Z[-0.10000+2*0.00800]
G2 I-0.00400 J0
G1 Z[-0.10000+1*0.00800]
G2 I-0.00400 J0
G0 Z0.02000

G0 X0.10400 Y1.80000
G1 Z[-0.10000+12*0.00800]
G2 I-0.00400 J0
G1 Z[-0.10000+11*0.00800]
G2 I-0.00400 J0
G1 Z[-0.10000+10*0.00800]
G2 I-0.00400 J0
G1 Z[-0.10000+9*0.00800]
G2 I-0.00400 J0
G1 Z[-0.10000+8*0.00800]
G2 I-0.00400 J0
G1 Z[-0.10000+7*0.00800]
G2 I-0.00400 J0
G1 Z[-0.10000+6*0.00800]
G2 I-0.00400 J0
G1 Z[-0.10000+5*0.00800]
G2 I-0.00400 J0
G1 Z[-0.10000+4*0.00800]
G2 I-0.00400 J0
G1 Z[-0.10000+3*0.00800]
G2 I-0.00400 J0
G1 Z[-0.10000+2*0.00800]
G2 I-0.00400 J0
G1 Z[-0.10000+1*0.00800]
G2 I-0.00400 J0
G0 Z0.02000

G0 X0.10400 Y1.90000
G1 Z[-0.10000+12*0.00800]
G2 I-0.00400 J0
G1 Z[-0.10000+11*0.00800]
G2 I-0.00400 J0
G1 Z[-0.10000+10*0.00800]
G2 I-0.00400 J0
G1 Z[-0.10000+9*0.00800]
G2 I-0.00400 J0
G1 Z[-0.10000+8*0.00800]
G2 I-0.00400 J0
G1 Z[-0.10000+7*0.00800]
G2 I-0.00400 J0
G1 Z[-0.10000+6*0.00800]
G2 I-0.00400 J0
G1 Z[-0.10000+5*0.00800]
G2 I-0.00400 J0
G1 Z[-0.10000+4*0.00800]
G2 I-0.00400 J0
G1 Z[-0.10000+3*0.00800]
G2 I-0.00400 J0
G1 Z[-0.10000+2*0.00800]
G2 I-0.00400 J0
G1 Z[-0.10000+1*0.00800]
G2 I-0.00400 J0
G0 Z0.02000

G0 X0.10400 Y2.00000
G1 Z[-0.10000+12*0.00800]
G2 I-0.00400 J0
G1 Z[-0.10000+11*0.00800]
G2 I-0.00400 J0
G1 Z[-0.10000+10*0.00800]
G2 I-0.00400 J0
G1 Z[-0.10000+9*0.00800]
G2 I-0.00400 J0
G1 Z[-0.10000+8*0.00800]
G2 I-0.00400 J0
G1 Z[-0.10000+7*0.00800]
G2 I-0.00400 J0
G1 Z[-0.10000+6*0.00800]
G2 I-0.00400 J0
G1 Z[-0.10000+5*0.00800]
G2 I-0.00400 J0
G1 Z[-0.10000+4*0.00800]
G2 I-0.00400 J0
G1 Z[-0.10000+3*0.00800]
G2 I-0.00400 J0
G1 Z[-0.10000+2*0.00800]
G2 I-0.00400 J0
G1 Z[-0.10000+1*0.00800]
G2 I-0.00400 J0
G0 Z0.02000

G0 X0.95400 Y2.00000
G1 Z[-0.10000+12*0.00800]
G2 I-0.00400 J0
G1 Z[-0.10000+11*0.00800]
G2 I-0.00400 J0
G1 Z[-0.10000+10*0.00800]
G2 I-0.00400 J0
G1 Z[-0.10000+9*0.00800]
G2 I-0.00400 J0
G1 Z[-0.10000+8*0.00800]
G2 I-0.00400 J0
G1 Z[-0.10000+7*0.00800]
G2 I-0.00400 J0
G1 Z[-0.10000+6*0.00800]
G2 I-0.00400 J0
G1 Z[-0.10000+5*0.00800]
G2 I-0.00400 J0
G1 Z[-0.10000+4*0.00800]
G2 I-0.00400 J0
G1 Z[-0.10000+3*0.00800]
G2 I-0.00400 J0
G1 Z[-0.10000+2*0.00800]
G2 I-0.00400 J0
G1 Z[-0.10000+1*0.00800]
G2 I-0.00400 J0
G0 Z0.02000

G0 X0.95400 Y1.90000
G1 Z[-0.10000+12*0.00800]
G2 I-0.00400 J0
G1 Z[-0.10000+11*0.00800]
G2 I-0.00400 J0
G1 Z[-0.10000+10*0.00800]
G2 I-0.00400 J0
G1 Z[-0.10000+9*0.00800]
G2 I-0.00400 J0
G1 Z[-0.10000+8*0.00800]
G2 I-0.00400 J0
G1 Z[-0.10000+7*0.00800]
G2 I-0.00400 J0
G1 Z[-0.10000+6*0.00800]
G2 I-0.00400 J0
G1 Z[-0.10000+5*0.00800]
G2 I-0.00400 J0
G1 Z[-0.10000+4*0.00800]
G2 I-0.00400 J0
G1 Z[-0.10000+3*0.00800]
G2 I-0.00400 J0
G1 Z[-0.10000+2*0.00800]
G2 I-0.00400 J0
G1 Z[-0.10000+1*0.00800]
G2 I-0.00400 J0
G0 Z0.02000

G0 X0.95400 Y1.80000
G1 Z[-0.10000+12*0.00800]
G2 I-0.00400 J0
G1 Z[-0.10000+11*0.00800]
G2 I-0.00400 J0
G1 Z[-0.10000+10*0.00800]
G2 I-0.00400 J0
G1 Z[-0.10000+9*0.00800]
G2 I-0.00400 J0
G1 Z[-0.10000+8*0.00800]
G2 I-0.00400 J0
G1 Z[-0.10000+7*0.00800]
G2 I-0.00400 J0
G1 Z[-0.10000+6*0.00800]
G2 I-0.00400 J0
G1 Z[-0.10000+5*0.00800]
G2 I-0.00400 J0
G1 Z[-0.10000+4*0.00800]
G2 I-0.00400 J0
G1 Z[-0.10000+3*0.00800]
G2 I-0.00400 J0
G1 Z[-0.10000+2*0.00800]
G2 I-0.00400 J0
G1 Z[-0.10000+1*0.00800]
G2 I-0.00400 J0
G0 Z0.02000

G0 X0.95400 Y1.70000
G1 Z[-0.10000+12*0.00800]
G2 I-0.00400 J0
G1 Z[-0.10000+11*0.00800]
G2 I-0.00400 J0
G1 Z[-0.10000+10*0.00800]
G2 I-0.00400 J0
G1 Z[-0.10000+9*0.00800]
G2 I-0.00400 J0
G1 Z[-0.10000+8*0.00800]
G2 I-0.00400 J0
G1 Z[-0.10000+7*0.00800]
G2 I-0.00400 J0
G1 Z[-0.10000+6*0.00800]
G2 I-0.00400 J0
G1 Z[-0.10000+5*0.00800]
G2 I-0.00400 J0
G1 Z[-0.10000+4*0.00800]
G2 I-0.00400 J0
G1 Z[-0.10000+3*0.00800]
G2 I-0.00400 J0
G1 Z[-0.10000+2*0.00800]
G2 I-0.00400 J0
G1 Z[-0.10000+1*0.00800]
G2 I-0.00400 J0
G0 Z0.02000

G0 X0.95400 Y1.60000
G1 Z[-0.10000+12*0.00800]
G2 I-0.00400 J0
G1 Z[-0.10000+11*0.00800]
G2 I-0.00400 J0
G1 Z[-0.10000+10*0.00800]
G2 I-0.00400 J0
G1 Z[-0.10000+9*0.00800]
G2 I-0.00400 J0
G1 Z[-0.10000+8*0.00800]
G2 I-0.00400 J0
G1 Z[-0.10000+7*0.00800]
G2 I-0.00400 J0
G1 Z[-0.10000+6*0.00800]
G2 I-0.00400 J0
G1 Z[-0.10000+5*0.00800]
G2 I-0.00400 J0
G1 Z[-0.10000+4*0.00800]
G2 I-0.00400 J0
G1 Z[-0.10000+3*0.00800]
G2 I-0.00400 J0
G1 Z[-0.10000+2*0.00800]
G2 I-0.00400 J0
G1 Z[-0.10000+1*0.00800]
G2 I-0.00400 J0
G0 Z0.02000

G0 X0.95400 Y1.50000
G1 Z[-0.10000+12*0.00800]
G2 I-0.00400 J0
G1 Z[-0.10000+11*0.00800]
G2 I-0.00400 J0
G1 Z[-0.10000+10*0.00800]
G2 I-0.00400 J0
G1 Z[-0.10000+9*0.00800]
G2 I-0.00400 J0
G1 Z[-0.10000+8*0.00800]
G2 I-0.00400 J0
G1 Z[-0.10000+7*0.00800]
G2 I-0.00400 J0
G1 Z[-0.10000+6*0.00800]
G2 I-0.00400 J0
G1 Z[-0.10000+5*0.00800]
G2 I-0.00400 J0
G1 Z[-0.10000+4*0.00800]
G2 I-0.00400 J0
G1 Z[-0.10000+3*0.00800]
G2 I-0.00400 J0
G1 Z[-0.10000+2*0.00800]
G2 I-0.00400 J0
G1 Z[-0.10000+1*0.00800]
G2 I-0.00400 J0
G0 Z0.02000

G0 X0.95400 Y1.40000
G1 Z[-0.10000+12*0.00800]
G2 I-0.00400 J0
G1 Z[-0.10000+11*0.00800]
G2 I-0.00400 J0
G1 Z[-0.10000+10*0.00800]
G2 I-0.00400 J0
G1 Z[-0.10000+9*0.00800]
G2 I-0.00400 J0
G1 Z[-0.10000+8*0.00800]
G2 I-0.00400 J0
G1 Z[-0.10000+7*0.00800]
G2 I-0.00400 J0
G1 Z[-0.10000+6*0.00800]
G2 I-0.00400 J0
G1 Z[-0.10000+5*0.00800]
G2 I-0.00400 J0
G1 Z[-0.10000+4*0.00800]
G2 I-0.00400 J0
G1 Z[-0.10000+3*0.00800]
G2 I-0.00400 J0
G1 Z[-0.10000+2*0.00800]
G2 I-0.00400 J0
G1 Z[-0.10000+1*0.00800]
G2 I-0.00400 J0
G0 Z0.02000

G0 X0.95400 Y1.30000
G1 Z[-0.10000+12*0.00800]
G2 I-0.00400 J0
G1 Z[-0.10000+11*0.00800]
G2 I-0.00400 J0
G1 Z[-0.10000+10*0.00800]
G2 I-0.00400 J0
G1 Z[-0.10000+9*0.00800]
G2 I-0.00400 J0
G1 Z[-0.10000+8*0.00800]
G2 I-0.00400 J0
G1 Z[-0.10000+7*0.00800]
G2 I-0.00400 J0
G1 Z[-0.10000+6*0.00800]
G2 I-0.00400 J0
G1 Z[-0.10000+5*0.00800]
G2 I-0.00400 J0
G1 Z[-0.10000+4*0.00800]
G2 I-0.00400 J0
G1 Z[-0.10000+3*0.00800]
G2 I-0.00400 J0
G1 Z[-0.10000+2*0.00800]
G2 I-0.00400 J0
G1 Z[-0.10000+1*0.00800]
G2 I-0.00400 J0
G0 Z0.02000

G0 X0.95400 Y1.20000
G1 Z[-0.10000+12*0.00800]
G2 I-0.00400 J0
G1 Z[-0.10000+11*0.00800]
G2 I-0.00400 J0
G1 Z[-0.10000+10*0.00800]
G2 I-0.00400 J0
G1 Z[-0.10000+9*0.00800]
G2 I-0.00400 J0
G1 Z[-0.10000+8*0.00800]
G2 I-0.00400 J0
G1 Z[-0.10000+7*0.00800]
G2 I-0.00400 J0
G1 Z[-0.10000+6*0.00800]
G2 I-0.00400 J0
G1 Z[-0.10000+5*0.00800]
G2 I-0.00400 J0
G1 Z[-0.10000+4*0.00800]
G2 I-0.00400 J0
G1 Z[-0.10000+3*0.00800]
G2 I-0.00400 J0
G1 Z[-0.10000+2*0.00800]
G2 I-0.00400 J0
G1 Z[-0.10000+1*0.00800]
G2 I-0.00400 J0
G0 Z0.02000

G0 X0.95400 Y1.10000
G1 Z[-0.10000+12*0.00800]
G2 I-0.00400 J0
G1 Z[-0.10000+11*0.00800]
G2 I-0.00400 J0
G1 Z[-0.10000+10*0.00800]
G2 I-0.00400 J0
G1 Z[-0.10000+9*0.00800]
G2 I-0.00400 J0
G1 Z[-0.10000+8*0.00800]
G2 I-0.00400 J0
G1 Z[-0.10000+7*0.00800]
G2 I-0.00400 J0
G1 Z[-0.10000+6*0.00800]
G2 I-0.00400 J0
G1 Z[-0.10000+5*0.00800]
G2 I-0.00400 J0
G1 Z[-0.10000+4*0.00800]
G2 I-0.00400 J0
G1 Z[-0.10000+3*0.00800]
G2 I-0.00400 J0
G1 Z[-0.10000+2*0.00800]
G2 I-0.00400 J0
G1 Z[-0.10000+1*0.00800]
G2 I-0.00400 J0
G0 Z0.02000

G0 X0.95400 Y1.00000
G1 Z[-0.10000+12*0.00800]
G2 I-0.00400 J0
G1 Z[-0.10000+11*0.00800]
G2 I-0.00400 J0
G1 Z[-0.10000+10*0.00800]
G2 I-0.00400 J0
G1 Z[-0.10000+9*0.00800]
G2 I-0.00400 J0
G1 Z[-0.10000+8*0.00800]
G2 I-0.00400 J0
G1 Z[-0.10000+7*0.00800]
G2 I-0.00400 J0
G1 Z[-0.10000+6*0.00800]
G2 I-0.00400 J0
G1 Z[-0.10000+5*0.00800]
G2 I-0.00400 J0
G1 Z[-0.10000+4*0.00800]
G2 I-0.00400 J0
G1 Z[-0.10000+3*0.00800]
G2 I-0.00400 J0
G1 Z[-0.10000+2*0.00800]
G2 I-0.00400 J0
G1 Z[-0.10000+1*0.00800]
G2 I-0.00400 J0
G0 Z0.02000

G0 X0.95400 Y0.90000
G1 Z[-0.10000+12*0.00800]
G2 I-0.00400 J0
G1 Z[-0.10000+11*0.00800]
G2 I-0.00400 J0
G1 Z[-0.10000+10*0.00800]
G2 I-0.00400 J0
G1 Z[-0.10000+9*0.00800]
G2 I-0.00400 J0
G1 Z[-0.10000+8*0.00800]
G2 I-0.00400 J0
G1 Z[-0.10000+7*0.00800]
G2 I-0.00400 J0
G1 Z[-0.10000+6*0.00800]
G2 I-0.00400 J0
G1 Z[-0.10000+5*0.00800]
G2 I-0.00400 J0
G1 Z[-0.10000+4*0.00800]
G2 I-0.00400 J0
G1 Z[-0.10000+3*0.00800]
G2 I-0.00400 J0
G1 Z[-0.10000+2*0.00800]
G2 I-0.00400 J0
G1 Z[-0.10000+1*0.00800]
G2 I-0.00400 J0
G0 Z0.02000

G00 Z0.02000 ( All done -- retract )
M5      (Spindle off.)
M9      (Coolant off.)
M2      (Program end.)

