( pcb2gcode 1.2.2 )
( Software-independent Gcode )
      
G94 ( Inches per minute feed rate. )
G20 ( Units == INCHES. )

G90 ( Absolute coordinates. )
S10000 ( RPM spindle speed. )
G64 P0.00200 ( set maximum deviation from commanded toolpath )
F1.75000 ( Feedrate. )

F1.75000 ( Feedrate. )
M3 ( Spindle on clockwise. )
G04 P0 ( dwell for no time -- G64 should not smooth over this point )
G00 Z0.02000 ( retract )

G00 X1.00600 Y2.97000 ( rapid move to begin. )
G01 Z-0.01500 F0.87500 ( plunge. )
G04 P0 ( dwell for no time -- G64 should not smooth over this point )
F1.75000
X1.00600 Y2.97000
X1.00600 Y2.32800
X1.00700 Y2.32800
X1.00700 Y2.32700
X1.00800 Y2.32700
X1.00800 Y2.32600
X1.00900 Y2.32600
X1.00900 Y2.32500
X1.01000 Y2.32500
X1.01000 Y2.32400
X1.01100 Y2.32400
X1.01100 Y2.32300
X1.01200 Y2.32300
X1.01200 Y2.32200
X1.01300 Y2.32200
X1.01300 Y2.32100
X1.01400 Y2.32100
X1.01400 Y2.32000
X1.01500 Y2.32000
X1.01500 Y2.31900
X1.01600 Y2.31900
X1.01600 Y2.31800
X1.01700 Y2.31800
X1.01700 Y2.31700
X1.01800 Y2.31700
X1.01800 Y2.31600
X1.01900 Y2.31600
X1.01900 Y2.31500
X1.02000 Y2.31500
X1.02000 Y2.31400
X1.02100 Y2.31400
X1.02100 Y2.31300
X1.02200 Y2.31300
X1.02200 Y2.31200
X1.02300 Y2.31200
X1.02300 Y2.31100
X1.02400 Y2.31100
X1.02400 Y2.31000
X1.02500 Y2.31000
X1.02500 Y2.30900
X1.02600 Y2.30900
X1.02600 Y2.30800
X1.02700 Y2.30800
X1.02700 Y2.30700
X1.02800 Y2.30700
X1.02800 Y2.30600
X1.02900 Y2.30600
X1.02900 Y2.30500
X1.03000 Y2.30500
X1.03000 Y2.30400
X1.03100 Y2.30400
X1.03100 Y2.30300
X1.03200 Y2.30300
X1.03200 Y2.30200
X1.03300 Y2.30200
X1.03300 Y2.30100
X1.03400 Y2.30100
X1.03400 Y2.30000
X1.03500 Y2.30000
X1.03500 Y2.29900
X1.03600 Y2.29900
X1.03600 Y2.29800
X1.03700 Y2.29800
X1.03700 Y2.29700
X1.03800 Y2.29700
X1.03800 Y2.29600
X1.03900 Y2.29600
X1.03900 Y2.29500
X1.04000 Y2.29500
X1.04000 Y2.29400
X1.04100 Y2.29400
X1.04100 Y2.29300
X1.04200 Y2.29300
X1.04200 Y2.29200
X1.04300 Y2.29200
X1.04300 Y2.29100
X1.04400 Y2.29100
X1.04400 Y2.29000
X1.04500 Y2.29000
X1.04500 Y2.28900
X1.04600 Y2.28900
X1.04600 Y2.28800
X1.04700 Y2.28800
X1.04700 Y2.28700
X1.04800 Y2.28700
X1.04800 Y2.28600
X1.04900 Y2.28600
X1.04900 Y2.28500
X1.05000 Y2.28500
X1.05000 Y2.28400
X1.05100 Y2.28400
X1.05100 Y2.28300
X1.05200 Y2.28300
X1.05200 Y2.28200
X1.05300 Y2.28200
X1.05300 Y2.28100
X1.05400 Y2.28100
X1.05400 Y2.28000
X1.05500 Y2.28000
X1.05500 Y2.27900
X1.05600 Y2.27900
X1.05600 Y2.27800
X1.05700 Y2.27800
X1.05700 Y2.27700
X1.05800 Y2.27700
X1.05800 Y2.27600
X1.05900 Y2.27600
X1.05900 Y2.27500
X1.06000 Y2.27500
X1.06000 Y2.27400
X1.06100 Y2.27400
X1.06100 Y2.27300
X1.06200 Y2.27300
X1.06200 Y2.27200
X1.06300 Y2.27200
X1.06300 Y2.27100
X1.06400 Y2.27100
X1.06400 Y2.27000
X1.06500 Y2.27000
X1.06500 Y2.26900
X1.06600 Y2.26900
X1.06600 Y2.26800
X1.06700 Y2.26800
X1.06700 Y2.26700
X1.06800 Y2.26700
X1.06800 Y2.26600
X1.06900 Y2.26600
X1.06900 Y2.26500
X1.07000 Y2.26500
X1.07000 Y2.26400
X1.07100 Y2.26400
X1.07100 Y2.26300
X1.07200 Y2.26300
X1.07200 Y2.26200
X1.07300 Y2.26200
X1.07300 Y2.26100
X1.07400 Y2.26100
X1.07400 Y2.26000
X1.07500 Y2.26000
X1.07500 Y2.25900
X1.07600 Y2.25900
X1.07600 Y2.25800
X1.07700 Y2.25800
X1.07700 Y2.25700
X1.07800 Y2.25700
X1.07800 Y2.25600
X1.07900 Y2.25600
X1.07900 Y2.25500
X1.08000 Y2.25500
X1.08000 Y2.25400
X1.08100 Y2.25400
X1.08100 Y2.25300
X1.08200 Y2.25300
X1.08200 Y2.25200
X1.08300 Y2.25200
X1.08300 Y2.25100
X1.08400 Y2.25100
X1.08400 Y2.25000
X1.08500 Y2.25000
X1.08500 Y2.24900
X1.08600 Y2.24900
X1.08600 Y2.24800
X1.08700 Y2.24800
X1.08700 Y2.24700
X1.08800 Y2.24700
X1.08800 Y2.24600
X1.08900 Y2.24600
X1.08900 Y2.24500
X1.09000 Y2.24500
X1.09000 Y2.24400
X1.09100 Y2.24400
X1.09100 Y2.24300
X1.09200 Y2.24300
X1.09200 Y2.24200
X1.09300 Y2.24200
X1.09300 Y2.24100
X1.09400 Y2.24100
X1.09400 Y2.24000
X1.09500 Y2.24000
X1.09500 Y2.23900
X1.09600 Y2.23900
X1.09600 Y2.23800
X1.09700 Y2.23800
X1.09700 Y2.23700
X1.09800 Y2.23700
X1.09800 Y2.23600
X1.09900 Y2.23600
X1.09900 Y2.23500
X1.10000 Y2.23500
X1.10000 Y2.23400
X1.10100 Y2.23400
X1.10100 Y2.23300
X1.10200 Y2.23300
X1.10200 Y2.23200
X1.10300 Y2.23200
X1.10300 Y2.23100
X1.10400 Y2.23100
X1.10400 Y2.23000
X1.10500 Y2.23000
X1.10500 Y2.22900
X1.10600 Y2.22900
X1.10600 Y2.22800
X1.10700 Y2.22800
X1.10700 Y2.22700
X1.10800 Y2.22700
X1.10800 Y2.22600
X1.10900 Y2.22600
X1.10900 Y2.22500
X1.11000 Y2.22500
X1.11000 Y2.22400
X1.11100 Y2.22400
X1.11100 Y2.22300
X1.11200 Y2.22300
X1.11200 Y2.22200
X1.11300 Y2.22200
X1.11300 Y2.22100
X1.11400 Y2.22100
X1.11400 Y2.22000
X1.11500 Y2.22000
X1.11500 Y2.21900
X1.11600 Y2.21900
X1.11600 Y2.21800
X1.11700 Y2.21800
X1.11700 Y2.21700
X1.11800 Y2.21700
X1.11800 Y2.21600
X1.11900 Y2.21600
X1.11900 Y2.21500
X1.12000 Y2.21500
X1.12000 Y2.21400
X1.12100 Y2.21400
X1.12100 Y2.21300
X1.12200 Y2.21300
X1.12200 Y2.21200
X1.12300 Y2.21200
X1.12300 Y2.21100
X1.12400 Y2.21100
X1.12400 Y2.21000
X1.12500 Y2.21000
X1.12500 Y2.20900
X1.12600 Y2.20900
X1.12600 Y2.20800
X1.12700 Y2.20800
X1.12700 Y2.20700
X1.12800 Y2.20700
X1.12800 Y2.20600
X1.12900 Y2.20600
X1.12900 Y2.20500
X1.13000 Y2.20500
X1.13000 Y2.20400
X1.13100 Y2.20400
X1.13100 Y2.20300
X1.13200 Y2.20300
X1.13200 Y2.20200
X1.13300 Y2.20200
X1.13300 Y2.20100
X1.13400 Y2.20100
X1.13400 Y2.20000
X1.13500 Y2.20000
X1.13500 Y2.19900
X1.13600 Y2.19900
X1.13600 Y2.19800
X1.13700 Y2.19800
X1.13700 Y2.19700
X1.13800 Y2.19700
X1.13800 Y2.19600
X1.13900 Y2.19600
X1.13900 Y2.19500
X1.14000 Y2.19500
X1.14000 Y2.19400
X1.14100 Y2.19400
X1.14100 Y2.19300
X1.14200 Y2.19300
X1.14200 Y2.19200
X1.14300 Y2.19200
X1.14300 Y2.19100
X1.14400 Y2.19100
X1.14400 Y2.19000
X1.14500 Y2.19000
X1.14500 Y2.18900
X1.14600 Y2.18900
X1.14600 Y2.18800
X1.14700 Y2.18800
X1.14700 Y2.18700
X1.14800 Y2.18700
X1.14800 Y2.18600
X1.14900 Y2.18600
X1.14900 Y2.18500
X1.15000 Y2.18500
X1.15000 Y2.18400
X1.15100 Y2.18400
X1.15100 Y2.18300
X1.15200 Y2.18300
X1.15200 Y2.18200
X1.15300 Y2.18200
X1.15300 Y2.18100
X1.15400 Y2.18100
X1.15400 Y2.18000
X1.15500 Y2.18000
X1.15500 Y2.17800
X1.15600 Y2.17800
X1.15600 Y0.72300
X1.15500 Y0.72300
X1.15500 Y0.72100
X1.15400 Y0.72100
X1.15400 Y0.72000
X1.15300 Y0.72000
X1.15300 Y0.71900
X1.15200 Y0.71900
X1.15200 Y0.71800
X1.15100 Y0.71800
X1.15100 Y0.71700
X1.15000 Y0.71700
X1.15000 Y0.71600
X1.14900 Y0.71600
X1.14900 Y0.71500
X1.14800 Y0.71500
X1.14800 Y0.71400
X1.14700 Y0.71400
X1.14700 Y0.71300
X1.14600 Y0.71300
X1.14600 Y0.71200
X1.14500 Y0.71200
X1.14500 Y0.71100
X1.14400 Y0.71100
X1.14400 Y0.71000
X1.14300 Y0.71000
X1.14300 Y0.70900
X1.14200 Y0.70900
X1.14200 Y0.70800
X1.14100 Y0.70800
X1.14100 Y0.70700
X1.14000 Y0.70700
X1.14000 Y0.70600
X1.13900 Y0.70600
X1.13900 Y0.70500
X1.13800 Y0.70500
X1.13800 Y0.70400
X1.13700 Y0.70400
X1.13700 Y0.70300
X1.13600 Y0.70300
X1.13600 Y0.70200
X1.13500 Y0.70200
X1.13500 Y0.70100
X1.13400 Y0.70100
X1.13400 Y0.70000
X1.13300 Y0.70000
X1.13300 Y0.69900
X1.13200 Y0.69900
X1.13200 Y0.69800
X1.13100 Y0.69800
X1.13100 Y0.69700
X1.13000 Y0.69700
X1.13000 Y0.69600
X1.12900 Y0.69600
X1.12900 Y0.69500
X1.12800 Y0.69500
X1.12800 Y0.69400
X1.12700 Y0.69400
X1.12700 Y0.69300
X1.12600 Y0.69300
X1.12600 Y0.69200
X1.12500 Y0.69200
X1.12500 Y0.69100
X1.12400 Y0.69100
X1.12400 Y0.69000
X1.12300 Y0.69000
X1.12300 Y0.68900
X1.12200 Y0.68900
X1.12200 Y0.68800
X1.12100 Y0.68800
X1.12100 Y0.68700
X1.12000 Y0.68700
X1.12000 Y0.68600
X1.11900 Y0.68600
X1.11900 Y0.68500
X1.11800 Y0.68500
X1.11800 Y0.68400
X1.11700 Y0.68400
X1.11700 Y0.68300
X1.11600 Y0.68300
X1.11600 Y0.68200
X1.11500 Y0.68200
X1.11500 Y0.68100
X1.11400 Y0.68100
X1.11400 Y0.68000
X1.11300 Y0.68000
X1.11300 Y0.67900
X1.11200 Y0.67900
X1.11200 Y0.67800
X1.11100 Y0.67800
X1.11100 Y0.67700
X1.11000 Y0.67700
X1.11000 Y0.67600
X1.10900 Y0.67600
X1.10900 Y0.67500
X1.10800 Y0.67500
X1.10800 Y0.67400
X1.10700 Y0.67400
X1.10700 Y0.67300
X1.10600 Y0.67300
X1.10600 Y0.67200
X1.10500 Y0.67200
X1.10500 Y0.67100
X1.10400 Y0.67100
X1.10400 Y0.67000
X1.10300 Y0.67000
X1.10300 Y0.66900
X1.10200 Y0.66900
X1.10200 Y0.66800
X1.10100 Y0.66800
X1.10100 Y0.66700
X1.10000 Y0.66700
X1.10000 Y0.66600
X1.09900 Y0.66600
X1.09900 Y0.66500
X1.09800 Y0.66500
X1.09800 Y0.66400
X1.09700 Y0.66400
X1.09700 Y0.66300
X1.09600 Y0.66300
X1.09600 Y0.66200
X1.09500 Y0.66200
X1.09500 Y0.66100
X1.09400 Y0.66100
X1.09400 Y0.66000
X1.09300 Y0.66000
X1.09300 Y0.65900
X1.09200 Y0.65900
X1.09200 Y0.65800
X1.09100 Y0.65800
X1.09100 Y0.65700
X1.09000 Y0.65700
X1.09000 Y0.65600
X1.08900 Y0.65600
X1.08900 Y0.65500
X1.08800 Y0.65500
X1.08800 Y0.65400
X1.08700 Y0.65400
X1.08700 Y0.65300
X1.08600 Y0.65300
X1.08600 Y0.65200
X1.08500 Y0.65200
X1.08500 Y0.65100
X1.08400 Y0.65100
X1.08400 Y0.65000
X1.08300 Y0.65000
X1.08300 Y0.64900
X1.08200 Y0.64900
X1.08200 Y0.64800
X1.08100 Y0.64800
X1.08100 Y0.64700
X1.08000 Y0.64700
X1.08000 Y0.64600
X1.07900 Y0.64600
X1.07900 Y0.64500
X1.07800 Y0.64500
X1.07800 Y0.64400
X1.07700 Y0.64400
X1.07700 Y0.64300
X1.07600 Y0.64300
X1.07600 Y0.64200
X1.07500 Y0.64200
X1.07500 Y0.64100
X1.07400 Y0.64100
X1.07400 Y0.64000
X1.07300 Y0.64000
X1.07300 Y0.63900
X1.07200 Y0.63900
X1.07200 Y0.63800
X1.07100 Y0.63800
X1.07100 Y0.63700
X1.07000 Y0.63700
X1.07000 Y0.63600
X1.06900 Y0.63600
X1.06900 Y0.63500
X1.06800 Y0.63500
X1.06800 Y0.63400
X1.06700 Y0.63400
X1.06700 Y0.63300
X1.06600 Y0.63300
X1.06600 Y0.63200
X1.06500 Y0.63200
X1.06500 Y0.63100
X1.06400 Y0.63100
X1.06400 Y0.63000
X1.06300 Y0.63000
X1.06300 Y0.62900
X1.06200 Y0.62900
X1.06200 Y0.62800
X1.06100 Y0.62800
X1.06100 Y0.62700
X1.06000 Y0.62700
X1.06000 Y0.62600
X1.05900 Y0.62600
X1.05900 Y0.62500
X1.05800 Y0.62500
X1.05800 Y0.62400
X1.05700 Y0.62400
X1.05700 Y0.62300
X1.05600 Y0.62300
X1.05600 Y0.62200
X1.05500 Y0.62200
X1.05500 Y0.62100
X1.05400 Y0.62100
X1.05400 Y0.62000
X1.05300 Y0.62000
X1.05300 Y0.61900
X1.05200 Y0.61900
X1.05200 Y0.61800
X1.05100 Y0.61800
X1.05100 Y0.61700
X1.05000 Y0.61700
X1.05000 Y0.61600
X1.04900 Y0.61600
X1.04900 Y0.61500
X1.04800 Y0.61500
X1.04800 Y0.61400
X1.04700 Y0.61400
X1.04700 Y0.61300
X1.04600 Y0.61300
X1.04600 Y0.61200
X1.04500 Y0.61200
X1.04500 Y0.61100
X1.04400 Y0.61100
X1.04400 Y0.61000
X1.04300 Y0.61000
X1.04300 Y0.60900
X1.04200 Y0.60900
X1.04200 Y0.60800
X1.04100 Y0.60800
X1.04100 Y0.60700
X1.04000 Y0.60700
X1.04000 Y0.60600
X1.03900 Y0.60600
X1.03900 Y0.60500
X1.03800 Y0.60500
X1.03800 Y0.60400
X1.03700 Y0.60400
X1.03700 Y0.60300
X1.03600 Y0.60300
X1.03600 Y0.60200
X1.03500 Y0.60200
X1.03500 Y0.60100
X1.03400 Y0.60100
X1.03400 Y0.60000
X1.03300 Y0.60000
X1.03300 Y0.59900
X1.03200 Y0.59900
X1.03200 Y0.59800
X1.03100 Y0.59800
X1.03100 Y0.59700
X1.03000 Y0.59700
X1.03000 Y0.59600
X1.02900 Y0.59600
X1.02900 Y0.59500
X1.02800 Y0.59500
X1.02800 Y0.59400
X1.02700 Y0.59400
X1.02700 Y0.59300
X1.02600 Y0.59300
X1.02600 Y0.59200
X1.02500 Y0.59200
X1.02500 Y0.59100
X1.02400 Y0.59100
X1.02400 Y0.59000
X1.02300 Y0.59000
X1.02300 Y0.58900
X1.02200 Y0.58900
X1.02200 Y0.58800
X1.02100 Y0.58800
X1.02100 Y0.58700
X1.02000 Y0.58700
X1.02000 Y0.58600
X1.01900 Y0.58600
X1.01900 Y0.58500
X1.01800 Y0.58500
X1.01800 Y0.58400
X1.01700 Y0.58400
X1.01700 Y0.58300
X1.01600 Y0.58300
X1.01600 Y0.58200
X1.01500 Y0.58200
X1.01500 Y0.58100
X1.01400 Y0.58100
X1.01400 Y0.58000
X1.01300 Y0.58000
X1.01300 Y0.57900
X1.01200 Y0.57900
X1.01200 Y0.57800
X1.01100 Y0.57800
X1.01100 Y0.57700
X1.01000 Y0.57700
X1.01000 Y0.57600
X1.00900 Y0.57600
X1.00900 Y0.57500
X1.00800 Y0.57500
X1.00800 Y0.57400
X1.00700 Y0.57400
X1.00700 Y0.57300
X1.00600 Y0.57300
X1.00600 Y-0.06700
X1.00500 Y-0.06700
X1.00500 Y-0.06800
X1.00400 Y-0.06800
X1.00400 Y-0.06900
X1.00300 Y-0.06900
X1.00300 Y-0.07000
X0.04800 Y-0.07000
X0.04800 Y-0.06900
X0.04700 Y-0.06900
X0.04700 Y-0.06800
X0.04600 Y-0.06800
X0.04600 Y-0.06700
X0.04500 Y-0.06700
X0.04500 Y0.57300
X0.04400 Y0.57300
X0.04400 Y0.57400
X0.04300 Y0.57400
X0.04300 Y0.57500
X0.04200 Y0.57500
X0.04200 Y0.57600
X0.04100 Y0.57600
X0.04100 Y0.57700
X0.04000 Y0.57700
X0.04000 Y0.57800
X0.03900 Y0.57800
X0.03900 Y0.57900
X0.03800 Y0.57900
X0.03800 Y0.58000
X0.03700 Y0.58000
X0.03700 Y0.58100
X0.03600 Y0.58100
X0.03600 Y0.58200
X0.03500 Y0.58200
X0.03500 Y0.58300
X0.03400 Y0.58300
X0.03400 Y0.58400
X0.03300 Y0.58400
X0.03300 Y0.58500
X0.03200 Y0.58500
X0.03200 Y0.58600
X0.03100 Y0.58600
X0.03100 Y0.58700
X0.03000 Y0.58700
X0.03000 Y0.58800
X0.02900 Y0.58800
X0.02900 Y0.58900
X0.02800 Y0.58900
X0.02800 Y0.59000
X0.02700 Y0.59000
X0.02700 Y0.59100
X0.02600 Y0.59100
X0.02600 Y0.59200
X0.02500 Y0.59200
X0.02500 Y0.59300
X0.02400 Y0.59300
X0.02400 Y0.59400
X0.02300 Y0.59400
X0.02300 Y0.59500
X0.02200 Y0.59500
X0.02200 Y0.59600
X0.02100 Y0.59600
X0.02100 Y0.59700
X0.02000 Y0.59700
X0.02000 Y0.59800
X0.01900 Y0.59800
X0.01900 Y0.59900
X0.01800 Y0.59900
X0.01800 Y0.60000
X0.01700 Y0.60000
X0.01700 Y0.60100
X0.01600 Y0.60100
X0.01600 Y0.60200
X0.01500 Y0.60200
X0.01500 Y0.60300
X0.01400 Y0.60300
X0.01400 Y0.60400
X0.01300 Y0.60400
X0.01300 Y0.60500
X0.01200 Y0.60500
X0.01200 Y0.60600
X0.01100 Y0.60600
X0.01100 Y0.60700
X0.01000 Y0.60700
X0.01000 Y0.60800
X0.00900 Y0.60800
X0.00900 Y0.60900
X0.00800 Y0.60900
X0.00800 Y0.61000
X0.00700 Y0.61000
X0.00700 Y0.61100
X0.00600 Y0.61100
X0.00600 Y0.61200
X0.00500 Y0.61200
X0.00500 Y0.61300
X0.00400 Y0.61300
X0.00400 Y0.61400
X0.00300 Y0.61400
X0.00300 Y0.61500
X0.00200 Y0.61500
X0.00200 Y0.61600
X0.00100 Y0.61600
X0.00100 Y0.61700
X0.00000 Y0.61700
X0.00000 Y0.61800
X-0.00100 Y0.61800
X-0.00100 Y0.61900
X-0.00200 Y0.61900
X-0.00200 Y0.62000
X-0.00300 Y0.62000
X-0.00300 Y0.62100
X-0.00400 Y0.62100
X-0.00400 Y0.62200
X-0.00500 Y0.62200
X-0.00500 Y0.62300
X-0.00600 Y0.62300
X-0.00600 Y0.62400
X-0.00700 Y0.62400
X-0.00700 Y0.62500
X-0.00800 Y0.62500
X-0.00800 Y0.62600
X-0.00900 Y0.62600
X-0.00900 Y0.62700
X-0.01000 Y0.62700
X-0.01000 Y0.62800
X-0.01100 Y0.62800
X-0.01100 Y0.62900
X-0.01200 Y0.62900
X-0.01200 Y0.63000
X-0.01300 Y0.63000
X-0.01300 Y0.63100
X-0.01400 Y0.63100
X-0.01400 Y0.63200
X-0.01500 Y0.63200
X-0.01500 Y0.63300
X-0.01600 Y0.63300
X-0.01600 Y0.63400
X-0.01700 Y0.63400
X-0.01700 Y0.63500
X-0.01800 Y0.63500
X-0.01800 Y0.63600
X-0.01900 Y0.63600
X-0.01900 Y0.63700
X-0.02000 Y0.63700
X-0.02000 Y0.63800
X-0.02100 Y0.63800
X-0.02100 Y0.63900
X-0.02200 Y0.63900
X-0.02200 Y0.64000
X-0.02300 Y0.64000
X-0.02300 Y0.64100
X-0.02400 Y0.64100
X-0.02400 Y0.64200
X-0.02500 Y0.64200
X-0.02500 Y0.64300
X-0.02600 Y0.64300
X-0.02600 Y0.64400
X-0.02700 Y0.64400
X-0.02700 Y0.64500
X-0.02800 Y0.64500
X-0.02800 Y0.64600
X-0.02900 Y0.64600
X-0.02900 Y0.64700
X-0.03000 Y0.64700
X-0.03000 Y0.64800
X-0.03100 Y0.64800
X-0.03100 Y0.64900
X-0.03200 Y0.64900
X-0.03200 Y0.65000
X-0.03300 Y0.65000
X-0.03300 Y0.65100
X-0.03400 Y0.65100
X-0.03400 Y0.65200
X-0.03500 Y0.65200
X-0.03500 Y0.65300
X-0.03600 Y0.65300
X-0.03600 Y0.65400
X-0.03700 Y0.65400
X-0.03700 Y0.65500
X-0.03800 Y0.65500
X-0.03800 Y0.65600
X-0.03900 Y0.65600
X-0.03900 Y0.65700
X-0.04000 Y0.65700
X-0.04000 Y0.65800
X-0.04100 Y0.65800
X-0.04100 Y0.65900
X-0.04200 Y0.65900
X-0.04200 Y0.66000
X-0.04300 Y0.66000
X-0.04300 Y0.66100
X-0.04400 Y0.66100
X-0.04400 Y0.66200
X-0.04500 Y0.66200
X-0.04500 Y0.66300
X-0.04600 Y0.66300
X-0.04600 Y0.66400
X-0.04700 Y0.66400
X-0.04700 Y0.66500
X-0.04800 Y0.66500
X-0.04800 Y0.66600
X-0.04900 Y0.66600
X-0.04900 Y0.66700
X-0.05000 Y0.66700
X-0.05000 Y0.66800
X-0.05100 Y0.66800
X-0.05100 Y0.66900
X-0.05200 Y0.66900
X-0.05200 Y0.67000
X-0.05300 Y0.67000
X-0.05300 Y0.67100
X-0.05400 Y0.67100
X-0.05400 Y0.67200
X-0.05500 Y0.67200
X-0.05500 Y0.67300
X-0.05600 Y0.67300
X-0.05600 Y0.67400
X-0.05700 Y0.67400
X-0.05700 Y0.67500
X-0.05800 Y0.67500
X-0.05800 Y0.67600
X-0.05900 Y0.67600
X-0.05900 Y0.67700
X-0.06000 Y0.67700
X-0.06000 Y0.67800
X-0.06100 Y0.67800
X-0.06100 Y0.67900
X-0.06200 Y0.67900
X-0.06200 Y0.68000
X-0.06300 Y0.68000
X-0.06300 Y0.68100
X-0.06400 Y0.68100
X-0.06400 Y0.68200
X-0.06500 Y0.68200
X-0.06500 Y0.68300
X-0.06600 Y0.68300
X-0.06600 Y0.68400
X-0.06700 Y0.68400
X-0.06700 Y0.68500
X-0.06800 Y0.68500
X-0.06800 Y0.68600
X-0.06900 Y0.68600
X-0.06900 Y0.68700
X-0.07000 Y0.68700
X-0.07000 Y0.68800
X-0.07100 Y0.68800
X-0.07100 Y0.68900
X-0.07200 Y0.68900
X-0.07200 Y0.69000
X-0.07300 Y0.69000
X-0.07300 Y0.69100
X-0.07400 Y0.69100
X-0.07400 Y0.69200
X-0.07500 Y0.69200
X-0.07500 Y0.69300
X-0.07600 Y0.69300
X-0.07600 Y0.69400
X-0.07700 Y0.69400
X-0.07700 Y0.69500
X-0.07800 Y0.69500
X-0.07800 Y0.69600
X-0.07900 Y0.69600
X-0.07900 Y0.69700
X-0.08000 Y0.69700
X-0.08000 Y0.69800
X-0.08100 Y0.69800
X-0.08100 Y0.69900
X-0.08200 Y0.69900
X-0.08200 Y0.70000
X-0.08300 Y0.70000
X-0.08300 Y0.70100
X-0.08400 Y0.70100
X-0.08400 Y0.70200
X-0.08500 Y0.70200
X-0.08500 Y0.70300
X-0.08600 Y0.70300
X-0.08600 Y0.70400
X-0.08700 Y0.70400
X-0.08700 Y0.70500
X-0.08800 Y0.70500
X-0.08800 Y0.70600
X-0.08900 Y0.70600
X-0.08900 Y0.70700
X-0.09000 Y0.70700
X-0.09000 Y0.70800
X-0.09100 Y0.70800
X-0.09100 Y0.70900
X-0.09200 Y0.70900
X-0.09200 Y0.71000
X-0.09300 Y0.71000
X-0.09300 Y0.71100
X-0.09400 Y0.71100
X-0.09400 Y0.71200
X-0.09500 Y0.71200
X-0.09500 Y0.71300
X-0.09600 Y0.71300
X-0.09600 Y0.71400
X-0.09700 Y0.71400
X-0.09700 Y0.71500
X-0.09800 Y0.71500
X-0.09800 Y0.71600
X-0.09900 Y0.71600
X-0.09900 Y0.71700
X-0.10000 Y0.71700
X-0.10000 Y0.71800
X-0.10100 Y0.71800
X-0.10100 Y0.71900
X-0.10200 Y0.71900
X-0.10200 Y0.72000
X-0.10300 Y0.72000
X-0.10300 Y0.72100
X-0.10400 Y0.72100
X-0.10400 Y0.72300
X-0.10500 Y0.72300
X-0.10500 Y2.17800
X-0.10400 Y2.17800
X-0.10400 Y2.18000
X-0.10300 Y2.18000
X-0.10300 Y2.18100
X-0.10200 Y2.18100
X-0.10200 Y2.18200
X-0.10100 Y2.18200
X-0.10100 Y2.18300
X-0.10000 Y2.18300
X-0.10000 Y2.18400
X-0.09900 Y2.18400
X-0.09900 Y2.18500
X-0.09800 Y2.18500
X-0.09800 Y2.18600
X-0.09700 Y2.18600
X-0.09700 Y2.18700
X-0.09600 Y2.18700
X-0.09600 Y2.18800
X-0.09500 Y2.18800
X-0.09500 Y2.18900
X-0.09400 Y2.18900
X-0.09400 Y2.19000
X-0.09300 Y2.19000
X-0.09300 Y2.19100
X-0.09200 Y2.19100
X-0.09200 Y2.19200
X-0.09100 Y2.19200
X-0.09100 Y2.19300
X-0.09000 Y2.19300
X-0.09000 Y2.19400
X-0.08900 Y2.19400
X-0.08900 Y2.19500
X-0.08800 Y2.19500
X-0.08800 Y2.19600
X-0.08700 Y2.19600
X-0.08700 Y2.19700
X-0.08600 Y2.19700
X-0.08600 Y2.19800
X-0.08500 Y2.19800
X-0.08500 Y2.19900
X-0.08400 Y2.19900
X-0.08400 Y2.20000
X-0.08300 Y2.20000
X-0.08300 Y2.20100
X-0.08200 Y2.20100
X-0.08200 Y2.20200
X-0.08100 Y2.20200
X-0.08100 Y2.20300
X-0.08000 Y2.20300
X-0.08000 Y2.20400
X-0.07900 Y2.20400
X-0.07900 Y2.20500
X-0.07800 Y2.20500
X-0.07800 Y2.20600
X-0.07700 Y2.20600
X-0.07700 Y2.20700
X-0.07600 Y2.20700
X-0.07600 Y2.20800
X-0.07500 Y2.20800
X-0.07500 Y2.20900
X-0.07400 Y2.20900
X-0.07400 Y2.21000
X-0.07300 Y2.21000
X-0.07300 Y2.21100
X-0.07200 Y2.21100
X-0.07200 Y2.21200
X-0.07100 Y2.21200
X-0.07100 Y2.21300
X-0.07000 Y2.21300
X-0.07000 Y2.21400
X-0.06900 Y2.21400
X-0.06900 Y2.21500
X-0.06800 Y2.21500
X-0.06800 Y2.21600
X-0.06700 Y2.21600
X-0.06700 Y2.21700
X-0.06600 Y2.21700
X-0.06600 Y2.21800
X-0.06500 Y2.21800
X-0.06500 Y2.21900
X-0.06400 Y2.21900
X-0.06400 Y2.22000
X-0.06300 Y2.22000
X-0.06300 Y2.22100
X-0.06200 Y2.22100
X-0.06200 Y2.22200
X-0.06100 Y2.22200
X-0.06100 Y2.22300
X-0.06000 Y2.22300
X-0.06000 Y2.22400
X-0.05900 Y2.22400
X-0.05900 Y2.22500
X-0.05800 Y2.22500
X-0.05800 Y2.22600
X-0.05700 Y2.22600
X-0.05700 Y2.22700
X-0.05600 Y2.22700
X-0.05600 Y2.22800
X-0.05500 Y2.22800
X-0.05500 Y2.22900
X-0.05400 Y2.22900
X-0.05400 Y2.23000
X-0.05300 Y2.23000
X-0.05300 Y2.23100
X-0.05200 Y2.23100
X-0.05200 Y2.23200
X-0.05100 Y2.23200
X-0.05100 Y2.23300
X-0.05000 Y2.23300
X-0.05000 Y2.23400
X-0.04900 Y2.23400
X-0.04900 Y2.23500
X-0.04800 Y2.23500
X-0.04800 Y2.23600
X-0.04700 Y2.23600
X-0.04700 Y2.23700
X-0.04600 Y2.23700
X-0.04600 Y2.23800
X-0.04500 Y2.23800
X-0.04500 Y2.23900
X-0.04400 Y2.23900
X-0.04400 Y2.24000
X-0.04300 Y2.24000
X-0.04300 Y2.24100
X-0.04200 Y2.24100
X-0.04200 Y2.24200
X-0.04100 Y2.24200
X-0.04100 Y2.24300
X-0.04000 Y2.24300
X-0.04000 Y2.24400
X-0.03900 Y2.24400
X-0.03900 Y2.24500
X-0.03800 Y2.24500
X-0.03800 Y2.24600
X-0.03700 Y2.24600
X-0.03700 Y2.24700
X-0.03600 Y2.24700
X-0.03600 Y2.24800
X-0.03500 Y2.24800
X-0.03500 Y2.24900
X-0.03400 Y2.24900
X-0.03400 Y2.25000
X-0.03300 Y2.25000
X-0.03300 Y2.25100
X-0.03200 Y2.25100
X-0.03200 Y2.25200
X-0.03100 Y2.25200
X-0.03100 Y2.25300
X-0.03000 Y2.25300
X-0.03000 Y2.25400
X-0.02900 Y2.25400
X-0.02900 Y2.25500
X-0.02800 Y2.25500
X-0.02800 Y2.25600
X-0.02700 Y2.25600
X-0.02700 Y2.25700
X-0.02600 Y2.25700
X-0.02600 Y2.25800
X-0.02500 Y2.25800
X-0.02500 Y2.25900
X-0.02400 Y2.25900
X-0.02400 Y2.26000
X-0.02300 Y2.26000
X-0.02300 Y2.26100
X-0.02200 Y2.26100
X-0.02200 Y2.26200
X-0.02100 Y2.26200
X-0.02100 Y2.26300
X-0.02000 Y2.26300
X-0.02000 Y2.26400
X-0.01900 Y2.26400
X-0.01900 Y2.26500
X-0.01800 Y2.26500
X-0.01800 Y2.26600
X-0.01700 Y2.26600
X-0.01700 Y2.26700
X-0.01600 Y2.26700
X-0.01600 Y2.26800
X-0.01500 Y2.26800
X-0.01500 Y2.26900
X-0.01400 Y2.26900
X-0.01400 Y2.27000
X-0.01300 Y2.27000
X-0.01300 Y2.27100
X-0.01200 Y2.27100
X-0.01200 Y2.27200
X-0.01100 Y2.27200
X-0.01100 Y2.27300
X-0.01000 Y2.27300
X-0.01000 Y2.27400
X-0.00900 Y2.27400
X-0.00900 Y2.27500
X-0.00800 Y2.27500
X-0.00800 Y2.27600
X-0.00700 Y2.27600
X-0.00700 Y2.27700
X-0.00600 Y2.27700
X-0.00600 Y2.27800
X-0.00500 Y2.27800
X-0.00500 Y2.27900
X-0.00400 Y2.27900
X-0.00400 Y2.28000
X-0.00300 Y2.28000
X-0.00300 Y2.28100
X-0.00200 Y2.28100
X-0.00200 Y2.28200
X-0.00100 Y2.28200
X-0.00100 Y2.28300
X0.00000 Y2.28300
X0.00000 Y2.28400
X0.00100 Y2.28400
X0.00100 Y2.28500
X0.00200 Y2.28500
X0.00200 Y2.28600
X0.00300 Y2.28600
X0.00300 Y2.28700
X0.00400 Y2.28700
X0.00400 Y2.28800
X0.00500 Y2.28800
X0.00500 Y2.28900
X0.00600 Y2.28900
X0.00600 Y2.29000
X0.00700 Y2.29000
X0.00700 Y2.29100
X0.00800 Y2.29100
X0.00800 Y2.29200
X0.00900 Y2.29200
X0.00900 Y2.29300
X0.01000 Y2.29300
X0.01000 Y2.29400
X0.01100 Y2.29400
X0.01100 Y2.29500
X0.01200 Y2.29500
X0.01200 Y2.29600
X0.01300 Y2.29600
X0.01300 Y2.29700
X0.01400 Y2.29700
X0.01400 Y2.29800
X0.01500 Y2.29800
X0.01500 Y2.29900
X0.01600 Y2.29900
X0.01600 Y2.30000
X0.01700 Y2.30000
X0.01700 Y2.30100
X0.01800 Y2.30100
X0.01800 Y2.30200
X0.01900 Y2.30200
X0.01900 Y2.30300
X0.02000 Y2.30300
X0.02000 Y2.30400
X0.02100 Y2.30400
X0.02100 Y2.30500
X0.02200 Y2.30500
X0.02200 Y2.30600
X0.02300 Y2.30600
X0.02300 Y2.30700
X0.02400 Y2.30700
X0.02400 Y2.30800
X0.02500 Y2.30800
X0.02500 Y2.30900
X0.02600 Y2.30900
X0.02600 Y2.31000
X0.02700 Y2.31000
X0.02700 Y2.31100
X0.02800 Y2.31100
X0.02800 Y2.31200
X0.02900 Y2.31200
X0.02900 Y2.31300
X0.03000 Y2.31300
X0.03000 Y2.31400
X0.03100 Y2.31400
X0.03100 Y2.31500
X0.03200 Y2.31500
X0.03200 Y2.31600
X0.03300 Y2.31600
X0.03300 Y2.31700
X0.03400 Y2.31700
X0.03400 Y2.31800
X0.03500 Y2.31800
X0.03500 Y2.31900
X0.03600 Y2.31900
X0.03600 Y2.32000
X0.03700 Y2.32000
X0.03700 Y2.32100
X0.03800 Y2.32100
X0.03800 Y2.32200
X0.03900 Y2.32200
X0.03900 Y2.32300
X0.04000 Y2.32300
X0.04000 Y2.32400
X0.04100 Y2.32400
X0.04100 Y2.32500
X0.04200 Y2.32500
X0.04200 Y2.32600
X0.04300 Y2.32600
X0.04300 Y2.32700
X0.04400 Y2.32700
X0.04400 Y2.32800
X0.04500 Y2.32800
X0.04500 Y3.06800
X0.04600 Y3.06800
X0.04600 Y3.06900
X0.04700 Y3.06900
X0.04700 Y3.07000
X0.04800 Y3.07000
X0.04800 Y3.07100
X1.00300 Y3.07100
X1.00300 Y3.07000
X1.00400 Y3.07000
X1.00400 Y3.06900
X1.00500 Y3.06900
X1.00500 Y3.06800
X1.00600 Y3.06800
X1.00600 Y2.97000
G01 Z-0.05000 F0.87500 ( plunge. )
G04 P0 ( dwell for no time -- G64 should not smooth over this point )
F1.75000
X1.00600 Y2.97000
X1.00600 Y2.32800
X1.00700 Y2.32800
X1.00700 Y2.32700
X1.00800 Y2.32700
X1.00800 Y2.32600
X1.00900 Y2.32600
X1.00900 Y2.32500
X1.01000 Y2.32500
X1.01000 Y2.32400
X1.01100 Y2.32400
X1.01100 Y2.32300
X1.01200 Y2.32300
X1.01200 Y2.32200
X1.01300 Y2.32200
X1.01300 Y2.32100
X1.01400 Y2.32100
X1.01400 Y2.32000
X1.01500 Y2.32000
X1.01500 Y2.31900
X1.01600 Y2.31900
X1.01600 Y2.31800
X1.01700 Y2.31800
X1.01700 Y2.31700
X1.01800 Y2.31700
X1.01800 Y2.31600
X1.01900 Y2.31600
X1.01900 Y2.31500
X1.02000 Y2.31500
X1.02000 Y2.31400
X1.02100 Y2.31400
X1.02100 Y2.31300
X1.02200 Y2.31300
X1.02200 Y2.31200
X1.02300 Y2.31200
X1.02300 Y2.31100
X1.02400 Y2.31100
X1.02400 Y2.31000
X1.02500 Y2.31000
X1.02500 Y2.30900
X1.02600 Y2.30900
X1.02600 Y2.30800
X1.02700 Y2.30800
X1.02700 Y2.30700
X1.02800 Y2.30700
X1.02800 Y2.30600
X1.02900 Y2.30600
X1.02900 Y2.30500
X1.03000 Y2.30500
X1.03000 Y2.30400
X1.03100 Y2.30400
X1.03100 Y2.30300
X1.03200 Y2.30300
X1.03200 Y2.30200
X1.03300 Y2.30200
X1.03300 Y2.30100
X1.03400 Y2.30100
X1.03400 Y2.30000
X1.03500 Y2.30000
X1.03500 Y2.29900
X1.03600 Y2.29900
X1.03600 Y2.29800
X1.03700 Y2.29800
X1.03700 Y2.29700
X1.03800 Y2.29700
X1.03800 Y2.29600
X1.03900 Y2.29600
X1.03900 Y2.29500
X1.04000 Y2.29500
X1.04000 Y2.29400
X1.04100 Y2.29400
X1.04100 Y2.29300
X1.04200 Y2.29300
X1.04200 Y2.29200
X1.04300 Y2.29200
X1.04300 Y2.29100
X1.04400 Y2.29100
X1.04400 Y2.29000
X1.04500 Y2.29000
X1.04500 Y2.28900
X1.04600 Y2.28900
X1.04600 Y2.28800
X1.04700 Y2.28800
X1.04700 Y2.28700
X1.04800 Y2.28700
X1.04800 Y2.28600
X1.04900 Y2.28600
X1.04900 Y2.28500
X1.05000 Y2.28500
X1.05000 Y2.28400
X1.05100 Y2.28400
X1.05100 Y2.28300
X1.05200 Y2.28300
X1.05200 Y2.28200
X1.05300 Y2.28200
X1.05300 Y2.28100
X1.05400 Y2.28100
X1.05400 Y2.28000
X1.05500 Y2.28000
X1.05500 Y2.27900
X1.05600 Y2.27900
X1.05600 Y2.27800
X1.05700 Y2.27800
X1.05700 Y2.27700
X1.05800 Y2.27700
X1.05800 Y2.27600
X1.05900 Y2.27600
X1.05900 Y2.27500
X1.06000 Y2.27500
X1.06000 Y2.27400
X1.06100 Y2.27400
X1.06100 Y2.27300
X1.06200 Y2.27300
X1.06200 Y2.27200
X1.06300 Y2.27200
X1.06300 Y2.27100
X1.06400 Y2.27100
X1.06400 Y2.27000
X1.06500 Y2.27000
X1.06500 Y2.26900
X1.06600 Y2.26900
X1.06600 Y2.26800
X1.06700 Y2.26800
X1.06700 Y2.26700
X1.06800 Y2.26700
X1.06800 Y2.26600
X1.06900 Y2.26600
X1.06900 Y2.26500
X1.07000 Y2.26500
X1.07000 Y2.26400
X1.07100 Y2.26400
X1.07100 Y2.26300
X1.07200 Y2.26300
X1.07200 Y2.26200
X1.07300 Y2.26200
X1.07300 Y2.26100
X1.07400 Y2.26100
X1.07400 Y2.26000
X1.07500 Y2.26000
X1.07500 Y2.25900
X1.07600 Y2.25900
X1.07600 Y2.25800
X1.07700 Y2.25800
X1.07700 Y2.25700
X1.07800 Y2.25700
X1.07800 Y2.25600
X1.07900 Y2.25600
X1.07900 Y2.25500
X1.08000 Y2.25500
X1.08000 Y2.25400
X1.08100 Y2.25400
X1.08100 Y2.25300
X1.08200 Y2.25300
X1.08200 Y2.25200
X1.08300 Y2.25200
X1.08300 Y2.25100
X1.08400 Y2.25100
X1.08400 Y2.25000
X1.08500 Y2.25000
X1.08500 Y2.24900
X1.08600 Y2.24900
X1.08600 Y2.24800
X1.08700 Y2.24800
X1.08700 Y2.24700
X1.08800 Y2.24700
X1.08800 Y2.24600
X1.08900 Y2.24600
X1.08900 Y2.24500
X1.09000 Y2.24500
X1.09000 Y2.24400
X1.09100 Y2.24400
X1.09100 Y2.24300
X1.09200 Y2.24300
X1.09200 Y2.24200
X1.09300 Y2.24200
X1.09300 Y2.24100
X1.09400 Y2.24100
X1.09400 Y2.24000
X1.09500 Y2.24000
X1.09500 Y2.23900
X1.09600 Y2.23900
X1.09600 Y2.23800
X1.09700 Y2.23800
X1.09700 Y2.23700
X1.09800 Y2.23700
X1.09800 Y2.23600
X1.09900 Y2.23600
X1.09900 Y2.23500
X1.10000 Y2.23500
X1.10000 Y2.23400
X1.10100 Y2.23400
X1.10100 Y2.23300
X1.10200 Y2.23300
X1.10200 Y2.23200
X1.10300 Y2.23200
X1.10300 Y2.23100
X1.10400 Y2.23100
X1.10400 Y2.23000
X1.10500 Y2.23000
X1.10500 Y2.22900
X1.10600 Y2.22900
X1.10600 Y2.22800
X1.10700 Y2.22800
X1.10700 Y2.22700
X1.10800 Y2.22700
X1.10800 Y2.22600
X1.10900 Y2.22600
X1.10900 Y2.22500
X1.11000 Y2.22500
X1.11000 Y2.22400
X1.11100 Y2.22400
X1.11100 Y2.22300
X1.11200 Y2.22300
X1.11200 Y2.22200
X1.11300 Y2.22200
X1.11300 Y2.22100
X1.11400 Y2.22100
X1.11400 Y2.22000
X1.11500 Y2.22000
X1.11500 Y2.21900
X1.11600 Y2.21900
X1.11600 Y2.21800
X1.11700 Y2.21800
X1.11700 Y2.21700
X1.11800 Y2.21700
X1.11800 Y2.21600
X1.11900 Y2.21600
X1.11900 Y2.21500
X1.12000 Y2.21500
X1.12000 Y2.21400
X1.12100 Y2.21400
X1.12100 Y2.21300
X1.12200 Y2.21300
X1.12200 Y2.21200
X1.12300 Y2.21200
X1.12300 Y2.21100
X1.12400 Y2.21100
X1.12400 Y2.21000
X1.12500 Y2.21000
X1.12500 Y2.20900
X1.12600 Y2.20900
X1.12600 Y2.20800
X1.12700 Y2.20800
X1.12700 Y2.20700
X1.12800 Y2.20700
X1.12800 Y2.20600
X1.12900 Y2.20600
X1.12900 Y2.20500
X1.13000 Y2.20500
X1.13000 Y2.20400
X1.13100 Y2.20400
X1.13100 Y2.20300
X1.13200 Y2.20300
X1.13200 Y2.20200
X1.13300 Y2.20200
X1.13300 Y2.20100
X1.13400 Y2.20100
X1.13400 Y2.20000
X1.13500 Y2.20000
X1.13500 Y2.19900
X1.13600 Y2.19900
X1.13600 Y2.19800
X1.13700 Y2.19800
X1.13700 Y2.19700
X1.13800 Y2.19700
X1.13800 Y2.19600
X1.13900 Y2.19600
X1.13900 Y2.19500
X1.14000 Y2.19500
X1.14000 Y2.19400
X1.14100 Y2.19400
X1.14100 Y2.19300
X1.14200 Y2.19300
X1.14200 Y2.19200
X1.14300 Y2.19200
X1.14300 Y2.19100
X1.14400 Y2.19100
X1.14400 Y2.19000
X1.14500 Y2.19000
X1.14500 Y2.18900
X1.14600 Y2.18900
X1.14600 Y2.18800
X1.14700 Y2.18800
X1.14700 Y2.18700
X1.14800 Y2.18700
X1.14800 Y2.18600
X1.14900 Y2.18600
X1.14900 Y2.18500
X1.15000 Y2.18500
X1.15000 Y2.18400
X1.15100 Y2.18400
X1.15100 Y2.18300
X1.15200 Y2.18300
X1.15200 Y2.18200
X1.15300 Y2.18200
X1.15300 Y2.18100
X1.15400 Y2.18100
X1.15400 Y2.18000
X1.15500 Y2.18000
X1.15500 Y2.17800
X1.15600 Y2.17800
X1.15600 Y0.72300
X1.15500 Y0.72300
X1.15500 Y0.72100
X1.15400 Y0.72100
X1.15400 Y0.72000
X1.15300 Y0.72000
X1.15300 Y0.71900
X1.15200 Y0.71900
X1.15200 Y0.71800
X1.15100 Y0.71800
X1.15100 Y0.71700
X1.15000 Y0.71700
X1.15000 Y0.71600
X1.14900 Y0.71600
X1.14900 Y0.71500
X1.14800 Y0.71500
X1.14800 Y0.71400
X1.14700 Y0.71400
X1.14700 Y0.71300
X1.14600 Y0.71300
X1.14600 Y0.71200
X1.14500 Y0.71200
X1.14500 Y0.71100
X1.14400 Y0.71100
X1.14400 Y0.71000
X1.14300 Y0.71000
X1.14300 Y0.70900
X1.14200 Y0.70900
X1.14200 Y0.70800
X1.14100 Y0.70800
X1.14100 Y0.70700
X1.14000 Y0.70700
X1.14000 Y0.70600
X1.13900 Y0.70600
X1.13900 Y0.70500
X1.13800 Y0.70500
X1.13800 Y0.70400
X1.13700 Y0.70400
X1.13700 Y0.70300
X1.13600 Y0.70300
X1.13600 Y0.70200
X1.13500 Y0.70200
X1.13500 Y0.70100
X1.13400 Y0.70100
X1.13400 Y0.70000
X1.13300 Y0.70000
X1.13300 Y0.69900
X1.13200 Y0.69900
X1.13200 Y0.69800
X1.13100 Y0.69800
X1.13100 Y0.69700
X1.13000 Y0.69700
X1.13000 Y0.69600
X1.12900 Y0.69600
X1.12900 Y0.69500
X1.12800 Y0.69500
X1.12800 Y0.69400
X1.12700 Y0.69400
X1.12700 Y0.69300
X1.12600 Y0.69300
X1.12600 Y0.69200
X1.12500 Y0.69200
X1.12500 Y0.69100
X1.12400 Y0.69100
X1.12400 Y0.69000
X1.12300 Y0.69000
X1.12300 Y0.68900
X1.12200 Y0.68900
X1.12200 Y0.68800
X1.12100 Y0.68800
X1.12100 Y0.68700
X1.12000 Y0.68700
X1.12000 Y0.68600
X1.11900 Y0.68600
X1.11900 Y0.68500
X1.11800 Y0.68500
X1.11800 Y0.68400
X1.11700 Y0.68400
X1.11700 Y0.68300
X1.11600 Y0.68300
X1.11600 Y0.68200
X1.11500 Y0.68200
X1.11500 Y0.68100
X1.11400 Y0.68100
X1.11400 Y0.68000
X1.11300 Y0.68000
X1.11300 Y0.67900
X1.11200 Y0.67900
X1.11200 Y0.67800
X1.11100 Y0.67800
X1.11100 Y0.67700
X1.11000 Y0.67700
X1.11000 Y0.67600
X1.10900 Y0.67600
X1.10900 Y0.67500
X1.10800 Y0.67500
X1.10800 Y0.67400
X1.10700 Y0.67400
X1.10700 Y0.67300
X1.10600 Y0.67300
X1.10600 Y0.67200
X1.10500 Y0.67200
X1.10500 Y0.67100
X1.10400 Y0.67100
X1.10400 Y0.67000
X1.10300 Y0.67000
X1.10300 Y0.66900
X1.10200 Y0.66900
X1.10200 Y0.66800
X1.10100 Y0.66800
X1.10100 Y0.66700
X1.10000 Y0.66700
X1.10000 Y0.66600
X1.09900 Y0.66600
X1.09900 Y0.66500
X1.09800 Y0.66500
X1.09800 Y0.66400
X1.09700 Y0.66400
X1.09700 Y0.66300
X1.09600 Y0.66300
X1.09600 Y0.66200
X1.09500 Y0.66200
X1.09500 Y0.66100
X1.09400 Y0.66100
X1.09400 Y0.66000
X1.09300 Y0.66000
X1.09300 Y0.65900
X1.09200 Y0.65900
X1.09200 Y0.65800
X1.09100 Y0.65800
X1.09100 Y0.65700
X1.09000 Y0.65700
X1.09000 Y0.65600
X1.08900 Y0.65600
X1.08900 Y0.65500
X1.08800 Y0.65500
X1.08800 Y0.65400
X1.08700 Y0.65400
X1.08700 Y0.65300
X1.08600 Y0.65300
X1.08600 Y0.65200
X1.08500 Y0.65200
X1.08500 Y0.65100
X1.08400 Y0.65100
X1.08400 Y0.65000
X1.08300 Y0.65000
X1.08300 Y0.64900
X1.08200 Y0.64900
X1.08200 Y0.64800
X1.08100 Y0.64800
X1.08100 Y0.64700
X1.08000 Y0.64700
X1.08000 Y0.64600
X1.07900 Y0.64600
X1.07900 Y0.64500
X1.07800 Y0.64500
X1.07800 Y0.64400
X1.07700 Y0.64400
X1.07700 Y0.64300
X1.07600 Y0.64300
X1.07600 Y0.64200
X1.07500 Y0.64200
X1.07500 Y0.64100
X1.07400 Y0.64100
X1.07400 Y0.64000
X1.07300 Y0.64000
X1.07300 Y0.63900
X1.07200 Y0.63900
X1.07200 Y0.63800
X1.07100 Y0.63800
X1.07100 Y0.63700
X1.07000 Y0.63700
X1.07000 Y0.63600
X1.06900 Y0.63600
X1.06900 Y0.63500
X1.06800 Y0.63500
X1.06800 Y0.63400
X1.06700 Y0.63400
X1.06700 Y0.63300
X1.06600 Y0.63300
X1.06600 Y0.63200
X1.06500 Y0.63200
X1.06500 Y0.63100
X1.06400 Y0.63100
X1.06400 Y0.63000
X1.06300 Y0.63000
X1.06300 Y0.62900
X1.06200 Y0.62900
X1.06200 Y0.62800
X1.06100 Y0.62800
X1.06100 Y0.62700
X1.06000 Y0.62700
X1.06000 Y0.62600
X1.05900 Y0.62600
X1.05900 Y0.62500
X1.05800 Y0.62500
X1.05800 Y0.62400
X1.05700 Y0.62400
X1.05700 Y0.62300
X1.05600 Y0.62300
X1.05600 Y0.62200
X1.05500 Y0.62200
X1.05500 Y0.62100
X1.05400 Y0.62100
X1.05400 Y0.62000
X1.05300 Y0.62000
X1.05300 Y0.61900
X1.05200 Y0.61900
X1.05200 Y0.61800
X1.05100 Y0.61800
X1.05100 Y0.61700
X1.05000 Y0.61700
X1.05000 Y0.61600
X1.04900 Y0.61600
X1.04900 Y0.61500
X1.04800 Y0.61500
X1.04800 Y0.61400
X1.04700 Y0.61400
X1.04700 Y0.61300
X1.04600 Y0.61300
X1.04600 Y0.61200
X1.04500 Y0.61200
X1.04500 Y0.61100
X1.04400 Y0.61100
X1.04400 Y0.61000
X1.04300 Y0.61000
X1.04300 Y0.60900
X1.04200 Y0.60900
X1.04200 Y0.60800
X1.04100 Y0.60800
X1.04100 Y0.60700
X1.04000 Y0.60700
X1.04000 Y0.60600
X1.03900 Y0.60600
X1.03900 Y0.60500
X1.03800 Y0.60500
X1.03800 Y0.60400
X1.03700 Y0.60400
X1.03700 Y0.60300
X1.03600 Y0.60300
X1.03600 Y0.60200
X1.03500 Y0.60200
X1.03500 Y0.60100
X1.03400 Y0.60100
X1.03400 Y0.60000
X1.03300 Y0.60000
X1.03300 Y0.59900
X1.03200 Y0.59900
X1.03200 Y0.59800
X1.03100 Y0.59800
X1.03100 Y0.59700
X1.03000 Y0.59700
X1.03000 Y0.59600
X1.02900 Y0.59600
X1.02900 Y0.59500
X1.02800 Y0.59500
X1.02800 Y0.59400
X1.02700 Y0.59400
X1.02700 Y0.59300
X1.02600 Y0.59300
X1.02600 Y0.59200
X1.02500 Y0.59200
X1.02500 Y0.59100
X1.02400 Y0.59100
X1.02400 Y0.59000
X1.02300 Y0.59000
X1.02300 Y0.58900
X1.02200 Y0.58900
X1.02200 Y0.58800
X1.02100 Y0.58800
X1.02100 Y0.58700
X1.02000 Y0.58700
X1.02000 Y0.58600
X1.01900 Y0.58600
X1.01900 Y0.58500
X1.01800 Y0.58500
X1.01800 Y0.58400
X1.01700 Y0.58400
X1.01700 Y0.58300
X1.01600 Y0.58300
X1.01600 Y0.58200
X1.01500 Y0.58200
X1.01500 Y0.58100
X1.01400 Y0.58100
X1.01400 Y0.58000
X1.01300 Y0.58000
X1.01300 Y0.57900
X1.01200 Y0.57900
X1.01200 Y0.57800
X1.01100 Y0.57800
X1.01100 Y0.57700
X1.01000 Y0.57700
X1.01000 Y0.57600
X1.00900 Y0.57600
X1.00900 Y0.57500
X1.00800 Y0.57500
X1.00800 Y0.57400
X1.00700 Y0.57400
X1.00700 Y0.57300
X1.00600 Y0.57300
X1.00600 Y-0.06700
X1.00500 Y-0.06700
X1.00500 Y-0.06800
X1.00400 Y-0.06800
X1.00400 Y-0.06900
X1.00300 Y-0.06900
X1.00300 Y-0.07000
X0.04800 Y-0.07000
X0.04800 Y-0.06900
X0.04700 Y-0.06900
X0.04700 Y-0.06800
X0.04600 Y-0.06800
X0.04600 Y-0.06700
X0.04500 Y-0.06700
X0.04500 Y0.57300
X0.04400 Y0.57300
X0.04400 Y0.57400
X0.04300 Y0.57400
X0.04300 Y0.57500
X0.04200 Y0.57500
X0.04200 Y0.57600
X0.04100 Y0.57600
X0.04100 Y0.57700
X0.04000 Y0.57700
X0.04000 Y0.57800
X0.03900 Y0.57800
X0.03900 Y0.57900
X0.03800 Y0.57900
X0.03800 Y0.58000
X0.03700 Y0.58000
X0.03700 Y0.58100
X0.03600 Y0.58100
X0.03600 Y0.58200
X0.03500 Y0.58200
X0.03500 Y0.58300
X0.03400 Y0.58300
X0.03400 Y0.58400
X0.03300 Y0.58400
X0.03300 Y0.58500
X0.03200 Y0.58500
X0.03200 Y0.58600
X0.03100 Y0.58600
X0.03100 Y0.58700
X0.03000 Y0.58700
X0.03000 Y0.58800
X0.02900 Y0.58800
X0.02900 Y0.58900
X0.02800 Y0.58900
X0.02800 Y0.59000
X0.02700 Y0.59000
X0.02700 Y0.59100
X0.02600 Y0.59100
X0.02600 Y0.59200
X0.02500 Y0.59200
X0.02500 Y0.59300
X0.02400 Y0.59300
X0.02400 Y0.59400
X0.02300 Y0.59400
X0.02300 Y0.59500
X0.02200 Y0.59500
X0.02200 Y0.59600
X0.02100 Y0.59600
X0.02100 Y0.59700
X0.02000 Y0.59700
X0.02000 Y0.59800
X0.01900 Y0.59800
X0.01900 Y0.59900
X0.01800 Y0.59900
X0.01800 Y0.60000
X0.01700 Y0.60000
X0.01700 Y0.60100
X0.01600 Y0.60100
X0.01600 Y0.60200
X0.01500 Y0.60200
X0.01500 Y0.60300
X0.01400 Y0.60300
X0.01400 Y0.60400
X0.01300 Y0.60400
X0.01300 Y0.60500
X0.01200 Y0.60500
X0.01200 Y0.60600
X0.01100 Y0.60600
X0.01100 Y0.60700
X0.01000 Y0.60700
X0.01000 Y0.60800
X0.00900 Y0.60800
X0.00900 Y0.60900
X0.00800 Y0.60900
X0.00800 Y0.61000
X0.00700 Y0.61000
X0.00700 Y0.61100
X0.00600 Y0.61100
X0.00600 Y0.61200
X0.00500 Y0.61200
X0.00500 Y0.61300
X0.00400 Y0.61300
X0.00400 Y0.61400
X0.00300 Y0.61400
X0.00300 Y0.61500
X0.00200 Y0.61500
X0.00200 Y0.61600
X0.00100 Y0.61600
X0.00100 Y0.61700
X0.00000 Y0.61700
X0.00000 Y0.61800
X-0.00100 Y0.61800
X-0.00100 Y0.61900
X-0.00200 Y0.61900
X-0.00200 Y0.62000
X-0.00300 Y0.62000
X-0.00300 Y0.62100
X-0.00400 Y0.62100
X-0.00400 Y0.62200
X-0.00500 Y0.62200
X-0.00500 Y0.62300
X-0.00600 Y0.62300
X-0.00600 Y0.62400
X-0.00700 Y0.62400
X-0.00700 Y0.62500
X-0.00800 Y0.62500
X-0.00800 Y0.62600
X-0.00900 Y0.62600
X-0.00900 Y0.62700
X-0.01000 Y0.62700
X-0.01000 Y0.62800
X-0.01100 Y0.62800
X-0.01100 Y0.62900
X-0.01200 Y0.62900
X-0.01200 Y0.63000
X-0.01300 Y0.63000
X-0.01300 Y0.63100
X-0.01400 Y0.63100
X-0.01400 Y0.63200
X-0.01500 Y0.63200
X-0.01500 Y0.63300
X-0.01600 Y0.63300
X-0.01600 Y0.63400
X-0.01700 Y0.63400
X-0.01700 Y0.63500
X-0.01800 Y0.63500
X-0.01800 Y0.63600
X-0.01900 Y0.63600
X-0.01900 Y0.63700
X-0.02000 Y0.63700
X-0.02000 Y0.63800
X-0.02100 Y0.63800
X-0.02100 Y0.63900
X-0.02200 Y0.63900
X-0.02200 Y0.64000
X-0.02300 Y0.64000
X-0.02300 Y0.64100
X-0.02400 Y0.64100
X-0.02400 Y0.64200
X-0.02500 Y0.64200
X-0.02500 Y0.64300
X-0.02600 Y0.64300
X-0.02600 Y0.64400
X-0.02700 Y0.64400
X-0.02700 Y0.64500
X-0.02800 Y0.64500
X-0.02800 Y0.64600
X-0.02900 Y0.64600
X-0.02900 Y0.64700
X-0.03000 Y0.64700
X-0.03000 Y0.64800
X-0.03100 Y0.64800
X-0.03100 Y0.64900
X-0.03200 Y0.64900
X-0.03200 Y0.65000
X-0.03300 Y0.65000
X-0.03300 Y0.65100
X-0.03400 Y0.65100
X-0.03400 Y0.65200
X-0.03500 Y0.65200
X-0.03500 Y0.65300
X-0.03600 Y0.65300
X-0.03600 Y0.65400
X-0.03700 Y0.65400
X-0.03700 Y0.65500
X-0.03800 Y0.65500
X-0.03800 Y0.65600
X-0.03900 Y0.65600
X-0.03900 Y0.65700
X-0.04000 Y0.65700
X-0.04000 Y0.65800
X-0.04100 Y0.65800
X-0.04100 Y0.65900
X-0.04200 Y0.65900
X-0.04200 Y0.66000
X-0.04300 Y0.66000
X-0.04300 Y0.66100
X-0.04400 Y0.66100
X-0.04400 Y0.66200
X-0.04500 Y0.66200
X-0.04500 Y0.66300
X-0.04600 Y0.66300
X-0.04600 Y0.66400
X-0.04700 Y0.66400
X-0.04700 Y0.66500
X-0.04800 Y0.66500
X-0.04800 Y0.66600
X-0.04900 Y0.66600
X-0.04900 Y0.66700
X-0.05000 Y0.66700
X-0.05000 Y0.66800
X-0.05100 Y0.66800
X-0.05100 Y0.66900
X-0.05200 Y0.66900
X-0.05200 Y0.67000
X-0.05300 Y0.67000
X-0.05300 Y0.67100
X-0.05400 Y0.67100
X-0.05400 Y0.67200
X-0.05500 Y0.67200
X-0.05500 Y0.67300
X-0.05600 Y0.67300
X-0.05600 Y0.67400
X-0.05700 Y0.67400
X-0.05700 Y0.67500
X-0.05800 Y0.67500
X-0.05800 Y0.67600
X-0.05900 Y0.67600
X-0.05900 Y0.67700
X-0.06000 Y0.67700
X-0.06000 Y0.67800
X-0.06100 Y0.67800
X-0.06100 Y0.67900
X-0.06200 Y0.67900
X-0.06200 Y0.68000
X-0.06300 Y0.68000
X-0.06300 Y0.68100
X-0.06400 Y0.68100
X-0.06400 Y0.68200
X-0.06500 Y0.68200
X-0.06500 Y0.68300
X-0.06600 Y0.68300
X-0.06600 Y0.68400
X-0.06700 Y0.68400
X-0.06700 Y0.68500
X-0.06800 Y0.68500
X-0.06800 Y0.68600
X-0.06900 Y0.68600
X-0.06900 Y0.68700
X-0.07000 Y0.68700
X-0.07000 Y0.68800
X-0.07100 Y0.68800
X-0.07100 Y0.68900
X-0.07200 Y0.68900
X-0.07200 Y0.69000
X-0.07300 Y0.69000
X-0.07300 Y0.69100
X-0.07400 Y0.69100
X-0.07400 Y0.69200
X-0.07500 Y0.69200
X-0.07500 Y0.69300
X-0.07600 Y0.69300
X-0.07600 Y0.69400
X-0.07700 Y0.69400
X-0.07700 Y0.69500
X-0.07800 Y0.69500
X-0.07800 Y0.69600
X-0.07900 Y0.69600
X-0.07900 Y0.69700
X-0.08000 Y0.69700
X-0.08000 Y0.69800
X-0.08100 Y0.69800
X-0.08100 Y0.69900
X-0.08200 Y0.69900
X-0.08200 Y0.70000
X-0.08300 Y0.70000
X-0.08300 Y0.70100
X-0.08400 Y0.70100
X-0.08400 Y0.70200
X-0.08500 Y0.70200
X-0.08500 Y0.70300
X-0.08600 Y0.70300
X-0.08600 Y0.70400
X-0.08700 Y0.70400
X-0.08700 Y0.70500
X-0.08800 Y0.70500
X-0.08800 Y0.70600
X-0.08900 Y0.70600
X-0.08900 Y0.70700
X-0.09000 Y0.70700
X-0.09000 Y0.70800
X-0.09100 Y0.70800
X-0.09100 Y0.70900
X-0.09200 Y0.70900
X-0.09200 Y0.71000
X-0.09300 Y0.71000
X-0.09300 Y0.71100
X-0.09400 Y0.71100
X-0.09400 Y0.71200
X-0.09500 Y0.71200
X-0.09500 Y0.71300
X-0.09600 Y0.71300
X-0.09600 Y0.71400
X-0.09700 Y0.71400
X-0.09700 Y0.71500
X-0.09800 Y0.71500
X-0.09800 Y0.71600
X-0.09900 Y0.71600
X-0.09900 Y0.71700
X-0.10000 Y0.71700
X-0.10000 Y0.71800
X-0.10100 Y0.71800
X-0.10100 Y0.71900
X-0.10200 Y0.71900
X-0.10200 Y0.72000
X-0.10300 Y0.72000
X-0.10300 Y0.72100
X-0.10400 Y0.72100
X-0.10400 Y0.72300
X-0.10500 Y0.72300
X-0.10500 Y2.17800
X-0.10400 Y2.17800
X-0.10400 Y2.18000
X-0.10300 Y2.18000
X-0.10300 Y2.18100
X-0.10200 Y2.18100
X-0.10200 Y2.18200
X-0.10100 Y2.18200
X-0.10100 Y2.18300
X-0.10000 Y2.18300
X-0.10000 Y2.18400
X-0.09900 Y2.18400
X-0.09900 Y2.18500
X-0.09800 Y2.18500
X-0.09800 Y2.18600
X-0.09700 Y2.18600
X-0.09700 Y2.18700
X-0.09600 Y2.18700
X-0.09600 Y2.18800
X-0.09500 Y2.18800
X-0.09500 Y2.18900
X-0.09400 Y2.18900
X-0.09400 Y2.19000
X-0.09300 Y2.19000
X-0.09300 Y2.19100
X-0.09200 Y2.19100
X-0.09200 Y2.19200
X-0.09100 Y2.19200
X-0.09100 Y2.19300
X-0.09000 Y2.19300
X-0.09000 Y2.19400
X-0.08900 Y2.19400
X-0.08900 Y2.19500
X-0.08800 Y2.19500
X-0.08800 Y2.19600
X-0.08700 Y2.19600
X-0.08700 Y2.19700
X-0.08600 Y2.19700
X-0.08600 Y2.19800
X-0.08500 Y2.19800
X-0.08500 Y2.19900
X-0.08400 Y2.19900
X-0.08400 Y2.20000
X-0.08300 Y2.20000
X-0.08300 Y2.20100
X-0.08200 Y2.20100
X-0.08200 Y2.20200
X-0.08100 Y2.20200
X-0.08100 Y2.20300
X-0.08000 Y2.20300
X-0.08000 Y2.20400
X-0.07900 Y2.20400
X-0.07900 Y2.20500
X-0.07800 Y2.20500
X-0.07800 Y2.20600
X-0.07700 Y2.20600
X-0.07700 Y2.20700
X-0.07600 Y2.20700
X-0.07600 Y2.20800
X-0.07500 Y2.20800
X-0.07500 Y2.20900
X-0.07400 Y2.20900
X-0.07400 Y2.21000
X-0.07300 Y2.21000
X-0.07300 Y2.21100
X-0.07200 Y2.21100
X-0.07200 Y2.21200
X-0.07100 Y2.21200
X-0.07100 Y2.21300
X-0.07000 Y2.21300
X-0.07000 Y2.21400
X-0.06900 Y2.21400
X-0.06900 Y2.21500
X-0.06800 Y2.21500
X-0.06800 Y2.21600
X-0.06700 Y2.21600
X-0.06700 Y2.21700
X-0.06600 Y2.21700
X-0.06600 Y2.21800
X-0.06500 Y2.21800
X-0.06500 Y2.21900
X-0.06400 Y2.21900
X-0.06400 Y2.22000
X-0.06300 Y2.22000
X-0.06300 Y2.22100
X-0.06200 Y2.22100
X-0.06200 Y2.22200
X-0.06100 Y2.22200
X-0.06100 Y2.22300
X-0.06000 Y2.22300
X-0.06000 Y2.22400
X-0.05900 Y2.22400
X-0.05900 Y2.22500
X-0.05800 Y2.22500
X-0.05800 Y2.22600
X-0.05700 Y2.22600
X-0.05700 Y2.22700
X-0.05600 Y2.22700
X-0.05600 Y2.22800
X-0.05500 Y2.22800
X-0.05500 Y2.22900
X-0.05400 Y2.22900
X-0.05400 Y2.23000
X-0.05300 Y2.23000
X-0.05300 Y2.23100
X-0.05200 Y2.23100
X-0.05200 Y2.23200
X-0.05100 Y2.23200
X-0.05100 Y2.23300
X-0.05000 Y2.23300
X-0.05000 Y2.23400
X-0.04900 Y2.23400
X-0.04900 Y2.23500
X-0.04800 Y2.23500
X-0.04800 Y2.23600
X-0.04700 Y2.23600
X-0.04700 Y2.23700
X-0.04600 Y2.23700
X-0.04600 Y2.23800
X-0.04500 Y2.23800
X-0.04500 Y2.23900
X-0.04400 Y2.23900
X-0.04400 Y2.24000
X-0.04300 Y2.24000
X-0.04300 Y2.24100
X-0.04200 Y2.24100
X-0.04200 Y2.24200
X-0.04100 Y2.24200
X-0.04100 Y2.24300
X-0.04000 Y2.24300
X-0.04000 Y2.24400
X-0.03900 Y2.24400
X-0.03900 Y2.24500
X-0.03800 Y2.24500
X-0.03800 Y2.24600
X-0.03700 Y2.24600
X-0.03700 Y2.24700
X-0.03600 Y2.24700
X-0.03600 Y2.24800
X-0.03500 Y2.24800
X-0.03500 Y2.24900
X-0.03400 Y2.24900
X-0.03400 Y2.25000
X-0.03300 Y2.25000
X-0.03300 Y2.25100
X-0.03200 Y2.25100
X-0.03200 Y2.25200
X-0.03100 Y2.25200
X-0.03100 Y2.25300
X-0.03000 Y2.25300
X-0.03000 Y2.25400
X-0.02900 Y2.25400
X-0.02900 Y2.25500
X-0.02800 Y2.25500
X-0.02800 Y2.25600
X-0.02700 Y2.25600
X-0.02700 Y2.25700
X-0.02600 Y2.25700
X-0.02600 Y2.25800
X-0.02500 Y2.25800
X-0.02500 Y2.25900
X-0.02400 Y2.25900
X-0.02400 Y2.26000
X-0.02300 Y2.26000
X-0.02300 Y2.26100
X-0.02200 Y2.26100
X-0.02200 Y2.26200
X-0.02100 Y2.26200
X-0.02100 Y2.26300
X-0.02000 Y2.26300
X-0.02000 Y2.26400
X-0.01900 Y2.26400
X-0.01900 Y2.26500
X-0.01800 Y2.26500
X-0.01800 Y2.26600
X-0.01700 Y2.26600
X-0.01700 Y2.26700
X-0.01600 Y2.26700
X-0.01600 Y2.26800
X-0.01500 Y2.26800
X-0.01500 Y2.26900
X-0.01400 Y2.26900
X-0.01400 Y2.27000
X-0.01300 Y2.27000
X-0.01300 Y2.27100
X-0.01200 Y2.27100
X-0.01200 Y2.27200
X-0.01100 Y2.27200
X-0.01100 Y2.27300
X-0.01000 Y2.27300
X-0.01000 Y2.27400
X-0.00900 Y2.27400
X-0.00900 Y2.27500
X-0.00800 Y2.27500
X-0.00800 Y2.27600
X-0.00700 Y2.27600
X-0.00700 Y2.27700
X-0.00600 Y2.27700
X-0.00600 Y2.27800
X-0.00500 Y2.27800
X-0.00500 Y2.27900
X-0.00400 Y2.27900
X-0.00400 Y2.28000
X-0.00300 Y2.28000
X-0.00300 Y2.28100
X-0.00200 Y2.28100
X-0.00200 Y2.28200
X-0.00100 Y2.28200
X-0.00100 Y2.28300
X0.00000 Y2.28300
X0.00000 Y2.28400
X0.00100 Y2.28400
X0.00100 Y2.28500
X0.00200 Y2.28500
X0.00200 Y2.28600
X0.00300 Y2.28600
X0.00300 Y2.28700
X0.00400 Y2.28700
X0.00400 Y2.28800
X0.00500 Y2.28800
X0.00500 Y2.28900
X0.00600 Y2.28900
X0.00600 Y2.29000
X0.00700 Y2.29000
X0.00700 Y2.29100
X0.00800 Y2.29100
X0.00800 Y2.29200
X0.00900 Y2.29200
X0.00900 Y2.29300
X0.01000 Y2.29300
X0.01000 Y2.29400
X0.01100 Y2.29400
X0.01100 Y2.29500
X0.01200 Y2.29500
X0.01200 Y2.29600
X0.01300 Y2.29600
X0.01300 Y2.29700
X0.01400 Y2.29700
X0.01400 Y2.29800
X0.01500 Y2.29800
X0.01500 Y2.29900
X0.01600 Y2.29900
X0.01600 Y2.30000
X0.01700 Y2.30000
X0.01700 Y2.30100
X0.01800 Y2.30100
X0.01800 Y2.30200
X0.01900 Y2.30200
X0.01900 Y2.30300
X0.02000 Y2.30300
X0.02000 Y2.30400
X0.02100 Y2.30400
X0.02100 Y2.30500
X0.02200 Y2.30500
X0.02200 Y2.30600
X0.02300 Y2.30600
X0.02300 Y2.30700
X0.02400 Y2.30700
X0.02400 Y2.30800
X0.02500 Y2.30800
X0.02500 Y2.30900
X0.02600 Y2.30900
X0.02600 Y2.31000
X0.02700 Y2.31000
X0.02700 Y2.31100
X0.02800 Y2.31100
X0.02800 Y2.31200
X0.02900 Y2.31200
X0.02900 Y2.31300
X0.03000 Y2.31300
X0.03000 Y2.31400
X0.03100 Y2.31400
X0.03100 Y2.31500
X0.03200 Y2.31500
X0.03200 Y2.31600
X0.03300 Y2.31600
X0.03300 Y2.31700
X0.03400 Y2.31700
X0.03400 Y2.31800
X0.03500 Y2.31800
X0.03500 Y2.31900
X0.03600 Y2.31900
X0.03600 Y2.32000
X0.03700 Y2.32000
X0.03700 Y2.32100
X0.03800 Y2.32100
X0.03800 Y2.32200
X0.03900 Y2.32200
X0.03900 Y2.32300
X0.04000 Y2.32300
X0.04000 Y2.32400
X0.04100 Y2.32400
X0.04100 Y2.32500
X0.04200 Y2.32500
X0.04200 Y2.32600
X0.04300 Y2.32600
X0.04300 Y2.32700
X0.04400 Y2.32700
X0.04400 Y2.32800
X0.04500 Y2.32800
X0.04500 Y3.06800
X0.04600 Y3.06800
X0.04600 Y3.06900
X0.04700 Y3.06900
X0.04700 Y3.07000
X0.04800 Y3.07000
X0.04800 Y3.07100
X1.00300 Y3.07100
X1.00300 Y3.07000
X1.00400 Y3.07000
X1.00400 Y3.06900
X1.00500 Y3.06900
X1.00500 Y3.06800
X1.00600 Y3.06800
X1.00600 Y2.97000
G01 Z-0.08500 F0.87500 ( plunge. )
G04 P0 ( dwell for no time -- G64 should not smooth over this point )
F1.75000
X1.00600 Y2.97000
X1.00600 Y2.32800
X1.00700 Y2.32800
X1.00700 Y2.32700
X1.00800 Y2.32700
X1.00800 Y2.32600
X1.00900 Y2.32600
X1.00900 Y2.32500
X1.01000 Y2.32500
X1.01000 Y2.32400
X1.01100 Y2.32400
X1.01100 Y2.32300
X1.01200 Y2.32300
X1.01200 Y2.32200
X1.01300 Y2.32200
X1.01300 Y2.32100
X1.01400 Y2.32100
X1.01400 Y2.32000
X1.01500 Y2.32000
X1.01500 Y2.31900
X1.01600 Y2.31900
X1.01600 Y2.31800
X1.01700 Y2.31800
X1.01700 Y2.31700
X1.01800 Y2.31700
X1.01800 Y2.31600
X1.01900 Y2.31600
X1.01900 Y2.31500
X1.02000 Y2.31500
X1.02000 Y2.31400
X1.02100 Y2.31400
X1.02100 Y2.31300
X1.02200 Y2.31300
X1.02200 Y2.31200
X1.02300 Y2.31200
X1.02300 Y2.31100
X1.02400 Y2.31100
X1.02400 Y2.31000
X1.02500 Y2.31000
X1.02500 Y2.30900
X1.02600 Y2.30900
X1.02600 Y2.30800
X1.02700 Y2.30800
X1.02700 Y2.30700
X1.02800 Y2.30700
X1.02800 Y2.30600
X1.02900 Y2.30600
X1.02900 Y2.30500
X1.03000 Y2.30500
X1.03000 Y2.30400
X1.03100 Y2.30400
X1.03100 Y2.30300
X1.03200 Y2.30300
X1.03200 Y2.30200
X1.03300 Y2.30200
X1.03300 Y2.30100
X1.03400 Y2.30100
X1.03400 Y2.30000
X1.03500 Y2.30000
X1.03500 Y2.29900
X1.03600 Y2.29900
X1.03600 Y2.29800
X1.03700 Y2.29800
X1.03700 Y2.29700
X1.03800 Y2.29700
X1.03800 Y2.29600
X1.03900 Y2.29600
X1.03900 Y2.29500
X1.04000 Y2.29500
X1.04000 Y2.29400
X1.04100 Y2.29400
X1.04100 Y2.29300
X1.04200 Y2.29300
X1.04200 Y2.29200
X1.04300 Y2.29200
X1.04300 Y2.29100
X1.04400 Y2.29100
X1.04400 Y2.29000
X1.04500 Y2.29000
X1.04500 Y2.28900
X1.04600 Y2.28900
X1.04600 Y2.28800
X1.04700 Y2.28800
X1.04700 Y2.28700
X1.04800 Y2.28700
X1.04800 Y2.28600
X1.04900 Y2.28600
X1.04900 Y2.28500
X1.05000 Y2.28500
X1.05000 Y2.28400
X1.05100 Y2.28400
X1.05100 Y2.28300
X1.05200 Y2.28300
X1.05200 Y2.28200
X1.05300 Y2.28200
X1.05300 Y2.28100
X1.05400 Y2.28100
X1.05400 Y2.28000
X1.05500 Y2.28000
X1.05500 Y2.27900
X1.05600 Y2.27900
X1.05600 Y2.27800
X1.05700 Y2.27800
X1.05700 Y2.27700
X1.05800 Y2.27700
X1.05800 Y2.27600
X1.05900 Y2.27600
X1.05900 Y2.27500
X1.06000 Y2.27500
X1.06000 Y2.27400
X1.06100 Y2.27400
X1.06100 Y2.27300
X1.06200 Y2.27300
X1.06200 Y2.27200
X1.06300 Y2.27200
X1.06300 Y2.27100
X1.06400 Y2.27100
X1.06400 Y2.27000
X1.06500 Y2.27000
X1.06500 Y2.26900
X1.06600 Y2.26900
X1.06600 Y2.26800
X1.06700 Y2.26800
X1.06700 Y2.26700
X1.06800 Y2.26700
X1.06800 Y2.26600
X1.06900 Y2.26600
X1.06900 Y2.26500
X1.07000 Y2.26500
X1.07000 Y2.26400
X1.07100 Y2.26400
X1.07100 Y2.26300
X1.07200 Y2.26300
X1.07200 Y2.26200
X1.07300 Y2.26200
X1.07300 Y2.26100
X1.07400 Y2.26100
X1.07400 Y2.26000
X1.07500 Y2.26000
X1.07500 Y2.25900
X1.07600 Y2.25900
X1.07600 Y2.25800
X1.07700 Y2.25800
X1.07700 Y2.25700
X1.07800 Y2.25700
X1.07800 Y2.25600
X1.07900 Y2.25600
X1.07900 Y2.25500
X1.08000 Y2.25500
X1.08000 Y2.25400
X1.08100 Y2.25400
X1.08100 Y2.25300
X1.08200 Y2.25300
X1.08200 Y2.25200
X1.08300 Y2.25200
X1.08300 Y2.25100
X1.08400 Y2.25100
X1.08400 Y2.25000
X1.08500 Y2.25000
X1.08500 Y2.24900
X1.08600 Y2.24900
X1.08600 Y2.24800
X1.08700 Y2.24800
X1.08700 Y2.24700
X1.08800 Y2.24700
X1.08800 Y2.24600
X1.08900 Y2.24600
X1.08900 Y2.24500
X1.09000 Y2.24500
X1.09000 Y2.24400
X1.09100 Y2.24400
X1.09100 Y2.24300
X1.09200 Y2.24300
X1.09200 Y2.24200
X1.09300 Y2.24200
X1.09300 Y2.24100
X1.09400 Y2.24100
X1.09400 Y2.24000
X1.09500 Y2.24000
X1.09500 Y2.23900
X1.09600 Y2.23900
X1.09600 Y2.23800
X1.09700 Y2.23800
X1.09700 Y2.23700
X1.09800 Y2.23700
X1.09800 Y2.23600
X1.09900 Y2.23600
X1.09900 Y2.23500
X1.10000 Y2.23500
X1.10000 Y2.23400
X1.10100 Y2.23400
X1.10100 Y2.23300
X1.10200 Y2.23300
X1.10200 Y2.23200
X1.10300 Y2.23200
X1.10300 Y2.23100
X1.10400 Y2.23100
X1.10400 Y2.23000
X1.10500 Y2.23000
X1.10500 Y2.22900
X1.10600 Y2.22900
X1.10600 Y2.22800
X1.10700 Y2.22800
X1.10700 Y2.22700
X1.10800 Y2.22700
X1.10800 Y2.22600
X1.10900 Y2.22600
X1.10900 Y2.22500
X1.11000 Y2.22500
X1.11000 Y2.22400
X1.11100 Y2.22400
X1.11100 Y2.22300
X1.11200 Y2.22300
X1.11200 Y2.22200
X1.11300 Y2.22200
X1.11300 Y2.22100
X1.11400 Y2.22100
X1.11400 Y2.22000
X1.11500 Y2.22000
X1.11500 Y2.21900
X1.11600 Y2.21900
X1.11600 Y2.21800
X1.11700 Y2.21800
X1.11700 Y2.21700
X1.11800 Y2.21700
X1.11800 Y2.21600
X1.11900 Y2.21600
X1.11900 Y2.21500
X1.12000 Y2.21500
X1.12000 Y2.21400
X1.12100 Y2.21400
X1.12100 Y2.21300
X1.12200 Y2.21300
X1.12200 Y2.21200
X1.12300 Y2.21200
X1.12300 Y2.21100
X1.12400 Y2.21100
X1.12400 Y2.21000
X1.12500 Y2.21000
X1.12500 Y2.20900
X1.12600 Y2.20900
X1.12600 Y2.20800
X1.12700 Y2.20800
X1.12700 Y2.20700
X1.12800 Y2.20700
X1.12800 Y2.20600
X1.12900 Y2.20600
X1.12900 Y2.20500
X1.13000 Y2.20500
X1.13000 Y2.20400
X1.13100 Y2.20400
X1.13100 Y2.20300
X1.13200 Y2.20300
X1.13200 Y2.20200
X1.13300 Y2.20200
X1.13300 Y2.20100
X1.13400 Y2.20100
X1.13400 Y2.20000
X1.13500 Y2.20000
X1.13500 Y2.19900
X1.13600 Y2.19900
X1.13600 Y2.19800
X1.13700 Y2.19800
X1.13700 Y2.19700
X1.13800 Y2.19700
X1.13800 Y2.19600
X1.13900 Y2.19600
X1.13900 Y2.19500
X1.14000 Y2.19500
X1.14000 Y2.19400
X1.14100 Y2.19400
X1.14100 Y2.19300
X1.14200 Y2.19300
X1.14200 Y2.19200
X1.14300 Y2.19200
X1.14300 Y2.19100
X1.14400 Y2.19100
X1.14400 Y2.19000
X1.14500 Y2.19000
X1.14500 Y2.18900
X1.14600 Y2.18900
X1.14600 Y2.18800
X1.14700 Y2.18800
X1.14700 Y2.18700
X1.14800 Y2.18700
X1.14800 Y2.18600
X1.14900 Y2.18600
X1.14900 Y2.18500
X1.15000 Y2.18500
X1.15000 Y2.18400
X1.15100 Y2.18400
X1.15100 Y2.18300
X1.15200 Y2.18300
X1.15200 Y2.18200
X1.15300 Y2.18200
X1.15300 Y2.18100
X1.15400 Y2.18100
X1.15400 Y2.18000
X1.15500 Y2.18000
X1.15500 Y2.17800
X1.15600 Y2.17800
X1.15600 Y0.72300
X1.15500 Y0.72300
X1.15500 Y0.72100
X1.15400 Y0.72100
X1.15400 Y0.72000
X1.15300 Y0.72000
X1.15300 Y0.71900
X1.15200 Y0.71900
X1.15200 Y0.71800
X1.15100 Y0.71800
X1.15100 Y0.71700
X1.15000 Y0.71700
X1.15000 Y0.71600
X1.14900 Y0.71600
X1.14900 Y0.71500
X1.14800 Y0.71500
X1.14800 Y0.71400
X1.14700 Y0.71400
X1.14700 Y0.71300
X1.14600 Y0.71300
X1.14600 Y0.71200
X1.14500 Y0.71200
X1.14500 Y0.71100
X1.14400 Y0.71100
X1.14400 Y0.71000
X1.14300 Y0.71000
X1.14300 Y0.70900
X1.14200 Y0.70900
X1.14200 Y0.70800
X1.14100 Y0.70800
X1.14100 Y0.70700
X1.14000 Y0.70700
X1.14000 Y0.70600
X1.13900 Y0.70600
X1.13900 Y0.70500
X1.13800 Y0.70500
X1.13800 Y0.70400
X1.13700 Y0.70400
X1.13700 Y0.70300
X1.13600 Y0.70300
X1.13600 Y0.70200
X1.13500 Y0.70200
X1.13500 Y0.70100
X1.13400 Y0.70100
X1.13400 Y0.70000
X1.13300 Y0.70000
X1.13300 Y0.69900
X1.13200 Y0.69900
X1.13200 Y0.69800
X1.13100 Y0.69800
X1.13100 Y0.69700
X1.13000 Y0.69700
X1.13000 Y0.69600
X1.12900 Y0.69600
X1.12900 Y0.69500
X1.12800 Y0.69500
X1.12800 Y0.69400
X1.12700 Y0.69400
X1.12700 Y0.69300
X1.12600 Y0.69300
X1.12600 Y0.69200
X1.12500 Y0.69200
X1.12500 Y0.69100
X1.12400 Y0.69100
X1.12400 Y0.69000
X1.12300 Y0.69000
X1.12300 Y0.68900
X1.12200 Y0.68900
X1.12200 Y0.68800
X1.12100 Y0.68800
X1.12100 Y0.68700
X1.12000 Y0.68700
X1.12000 Y0.68600
X1.11900 Y0.68600
X1.11900 Y0.68500
X1.11800 Y0.68500
X1.11800 Y0.68400
X1.11700 Y0.68400
X1.11700 Y0.68300
X1.11600 Y0.68300
X1.11600 Y0.68200
X1.11500 Y0.68200
X1.11500 Y0.68100
X1.11400 Y0.68100
X1.11400 Y0.68000
X1.11300 Y0.68000
X1.11300 Y0.67900
X1.11200 Y0.67900
X1.11200 Y0.67800
X1.11100 Y0.67800
X1.11100 Y0.67700
X1.11000 Y0.67700
X1.11000 Y0.67600
X1.10900 Y0.67600
X1.10900 Y0.67500
X1.10800 Y0.67500
X1.10800 Y0.67400
X1.10700 Y0.67400
X1.10700 Y0.67300
X1.10600 Y0.67300
X1.10600 Y0.67200
X1.10500 Y0.67200
X1.10500 Y0.67100
X1.10400 Y0.67100
X1.10400 Y0.67000
X1.10300 Y0.67000
X1.10300 Y0.66900
X1.10200 Y0.66900
X1.10200 Y0.66800
X1.10100 Y0.66800
X1.10100 Y0.66700
X1.10000 Y0.66700
X1.10000 Y0.66600
X1.09900 Y0.66600
X1.09900 Y0.66500
X1.09800 Y0.66500
X1.09800 Y0.66400
X1.09700 Y0.66400
X1.09700 Y0.66300
X1.09600 Y0.66300
X1.09600 Y0.66200
X1.09500 Y0.66200
X1.09500 Y0.66100
X1.09400 Y0.66100
X1.09400 Y0.66000
X1.09300 Y0.66000
X1.09300 Y0.65900
X1.09200 Y0.65900
X1.09200 Y0.65800
X1.09100 Y0.65800
X1.09100 Y0.65700
X1.09000 Y0.65700
X1.09000 Y0.65600
X1.08900 Y0.65600
X1.08900 Y0.65500
X1.08800 Y0.65500
X1.08800 Y0.65400
X1.08700 Y0.65400
X1.08700 Y0.65300
X1.08600 Y0.65300
X1.08600 Y0.65200
X1.08500 Y0.65200
X1.08500 Y0.65100
X1.08400 Y0.65100
X1.08400 Y0.65000
X1.08300 Y0.65000
X1.08300 Y0.64900
X1.08200 Y0.64900
X1.08200 Y0.64800
X1.08100 Y0.64800
X1.08100 Y0.64700
X1.08000 Y0.64700
X1.08000 Y0.64600
X1.07900 Y0.64600
X1.07900 Y0.64500
X1.07800 Y0.64500
X1.07800 Y0.64400
X1.07700 Y0.64400
X1.07700 Y0.64300
X1.07600 Y0.64300
X1.07600 Y0.64200
X1.07500 Y0.64200
X1.07500 Y0.64100
X1.07400 Y0.64100
X1.07400 Y0.64000
X1.07300 Y0.64000
X1.07300 Y0.63900
X1.07200 Y0.63900
X1.07200 Y0.63800
X1.07100 Y0.63800
X1.07100 Y0.63700
X1.07000 Y0.63700
X1.07000 Y0.63600
X1.06900 Y0.63600
X1.06900 Y0.63500
X1.06800 Y0.63500
X1.06800 Y0.63400
X1.06700 Y0.63400
X1.06700 Y0.63300
X1.06600 Y0.63300
X1.06600 Y0.63200
X1.06500 Y0.63200
X1.06500 Y0.63100
X1.06400 Y0.63100
X1.06400 Y0.63000
X1.06300 Y0.63000
X1.06300 Y0.62900
X1.06200 Y0.62900
X1.06200 Y0.62800
X1.06100 Y0.62800
X1.06100 Y0.62700
X1.06000 Y0.62700
X1.06000 Y0.62600
X1.05900 Y0.62600
X1.05900 Y0.62500
X1.05800 Y0.62500
X1.05800 Y0.62400
X1.05700 Y0.62400
X1.05700 Y0.62300
X1.05600 Y0.62300
X1.05600 Y0.62200
X1.05500 Y0.62200
X1.05500 Y0.62100
X1.05400 Y0.62100
X1.05400 Y0.62000
X1.05300 Y0.62000
X1.05300 Y0.61900
X1.05200 Y0.61900
X1.05200 Y0.61800
X1.05100 Y0.61800
X1.05100 Y0.61700
X1.05000 Y0.61700
X1.05000 Y0.61600
X1.04900 Y0.61600
X1.04900 Y0.61500
X1.04800 Y0.61500
X1.04800 Y0.61400
X1.04700 Y0.61400
X1.04700 Y0.61300
X1.04600 Y0.61300
X1.04600 Y0.61200
X1.04500 Y0.61200
X1.04500 Y0.61100
X1.04400 Y0.61100
X1.04400 Y0.61000
X1.04300 Y0.61000
X1.04300 Y0.60900
X1.04200 Y0.60900
X1.04200 Y0.60800
X1.04100 Y0.60800
X1.04100 Y0.60700
X1.04000 Y0.60700
X1.04000 Y0.60600
X1.03900 Y0.60600
X1.03900 Y0.60500
X1.03800 Y0.60500
X1.03800 Y0.60400
X1.03700 Y0.60400
X1.03700 Y0.60300
X1.03600 Y0.60300
X1.03600 Y0.60200
X1.03500 Y0.60200
X1.03500 Y0.60100
X1.03400 Y0.60100
X1.03400 Y0.60000
X1.03300 Y0.60000
X1.03300 Y0.59900
X1.03200 Y0.59900
X1.03200 Y0.59800
X1.03100 Y0.59800
X1.03100 Y0.59700
X1.03000 Y0.59700
X1.03000 Y0.59600
X1.02900 Y0.59600
X1.02900 Y0.59500
X1.02800 Y0.59500
X1.02800 Y0.59400
X1.02700 Y0.59400
X1.02700 Y0.59300
X1.02600 Y0.59300
X1.02600 Y0.59200
X1.02500 Y0.59200
X1.02500 Y0.59100
X1.02400 Y0.59100
X1.02400 Y0.59000
X1.02300 Y0.59000
X1.02300 Y0.58900
X1.02200 Y0.58900
X1.02200 Y0.58800
X1.02100 Y0.58800
X1.02100 Y0.58700
X1.02000 Y0.58700
X1.02000 Y0.58600
X1.01900 Y0.58600
X1.01900 Y0.58500
X1.01800 Y0.58500
X1.01800 Y0.58400
X1.01700 Y0.58400
X1.01700 Y0.58300
X1.01600 Y0.58300
X1.01600 Y0.58200
X1.01500 Y0.58200
X1.01500 Y0.58100
X1.01400 Y0.58100
X1.01400 Y0.58000
X1.01300 Y0.58000
X1.01300 Y0.57900
X1.01200 Y0.57900
X1.01200 Y0.57800
X1.01100 Y0.57800
X1.01100 Y0.57700
X1.01000 Y0.57700
X1.01000 Y0.57600
X1.00900 Y0.57600
X1.00900 Y0.57500
X1.00800 Y0.57500
X1.00800 Y0.57400
X1.00700 Y0.57400
X1.00700 Y0.57300
X1.00600 Y0.57300
X1.00600 Y-0.06700
X1.00500 Y-0.06700
X1.00500 Y-0.06800
X1.00400 Y-0.06800
X1.00400 Y-0.06900
X1.00300 Y-0.06900
X1.00300 Y-0.07000
X0.04800 Y-0.07000
X0.04800 Y-0.06900
X0.04700 Y-0.06900
X0.04700 Y-0.06800
X0.04600 Y-0.06800
X0.04600 Y-0.06700
X0.04500 Y-0.06700
X0.04500 Y0.57300
X0.04400 Y0.57300
X0.04400 Y0.57400
X0.04300 Y0.57400
X0.04300 Y0.57500
X0.04200 Y0.57500
X0.04200 Y0.57600
X0.04100 Y0.57600
X0.04100 Y0.57700
X0.04000 Y0.57700
X0.04000 Y0.57800
X0.03900 Y0.57800
X0.03900 Y0.57900
X0.03800 Y0.57900
X0.03800 Y0.58000
X0.03700 Y0.58000
X0.03700 Y0.58100
X0.03600 Y0.58100
X0.03600 Y0.58200
X0.03500 Y0.58200
X0.03500 Y0.58300
X0.03400 Y0.58300
X0.03400 Y0.58400
X0.03300 Y0.58400
X0.03300 Y0.58500
X0.03200 Y0.58500
X0.03200 Y0.58600
X0.03100 Y0.58600
X0.03100 Y0.58700
X0.03000 Y0.58700
X0.03000 Y0.58800
X0.02900 Y0.58800
X0.02900 Y0.58900
X0.02800 Y0.58900
X0.02800 Y0.59000
X0.02700 Y0.59000
X0.02700 Y0.59100
X0.02600 Y0.59100
X0.02600 Y0.59200
X0.02500 Y0.59200
X0.02500 Y0.59300
X0.02400 Y0.59300
X0.02400 Y0.59400
X0.02300 Y0.59400
X0.02300 Y0.59500
X0.02200 Y0.59500
X0.02200 Y0.59600
X0.02100 Y0.59600
X0.02100 Y0.59700
X0.02000 Y0.59700
X0.02000 Y0.59800
X0.01900 Y0.59800
X0.01900 Y0.59900
X0.01800 Y0.59900
X0.01800 Y0.60000
X0.01700 Y0.60000
X0.01700 Y0.60100
X0.01600 Y0.60100
X0.01600 Y0.60200
X0.01500 Y0.60200
X0.01500 Y0.60300
X0.01400 Y0.60300
X0.01400 Y0.60400
X0.01300 Y0.60400
X0.01300 Y0.60500
X0.01200 Y0.60500
X0.01200 Y0.60600
X0.01100 Y0.60600
X0.01100 Y0.60700
X0.01000 Y0.60700
X0.01000 Y0.60800
X0.00900 Y0.60800
X0.00900 Y0.60900
X0.00800 Y0.60900
X0.00800 Y0.61000
X0.00700 Y0.61000
X0.00700 Y0.61100
X0.00600 Y0.61100
X0.00600 Y0.61200
X0.00500 Y0.61200
X0.00500 Y0.61300
X0.00400 Y0.61300
X0.00400 Y0.61400
X0.00300 Y0.61400
X0.00300 Y0.61500
X0.00200 Y0.61500
X0.00200 Y0.61600
X0.00100 Y0.61600
X0.00100 Y0.61700
X0.00000 Y0.61700
X0.00000 Y0.61800
X-0.00100 Y0.61800
X-0.00100 Y0.61900
X-0.00200 Y0.61900
X-0.00200 Y0.62000
X-0.00300 Y0.62000
X-0.00300 Y0.62100
X-0.00400 Y0.62100
X-0.00400 Y0.62200
X-0.00500 Y0.62200
X-0.00500 Y0.62300
X-0.00600 Y0.62300
X-0.00600 Y0.62400
X-0.00700 Y0.62400
X-0.00700 Y0.62500
X-0.00800 Y0.62500
X-0.00800 Y0.62600
X-0.00900 Y0.62600
X-0.00900 Y0.62700
X-0.01000 Y0.62700
X-0.01000 Y0.62800
X-0.01100 Y0.62800
X-0.01100 Y0.62900
X-0.01200 Y0.62900
X-0.01200 Y0.63000
X-0.01300 Y0.63000
X-0.01300 Y0.63100
X-0.01400 Y0.63100
X-0.01400 Y0.63200
X-0.01500 Y0.63200
X-0.01500 Y0.63300
X-0.01600 Y0.63300
X-0.01600 Y0.63400
X-0.01700 Y0.63400
X-0.01700 Y0.63500
X-0.01800 Y0.63500
X-0.01800 Y0.63600
X-0.01900 Y0.63600
X-0.01900 Y0.63700
X-0.02000 Y0.63700
X-0.02000 Y0.63800
X-0.02100 Y0.63800
X-0.02100 Y0.63900
X-0.02200 Y0.63900
X-0.02200 Y0.64000
X-0.02300 Y0.64000
X-0.02300 Y0.64100
X-0.02400 Y0.64100
X-0.02400 Y0.64200
X-0.02500 Y0.64200
X-0.02500 Y0.64300
X-0.02600 Y0.64300
X-0.02600 Y0.64400
X-0.02700 Y0.64400
X-0.02700 Y0.64500
X-0.02800 Y0.64500
X-0.02800 Y0.64600
X-0.02900 Y0.64600
X-0.02900 Y0.64700
X-0.03000 Y0.64700
X-0.03000 Y0.64800
X-0.03100 Y0.64800
X-0.03100 Y0.64900
X-0.03200 Y0.64900
X-0.03200 Y0.65000
X-0.03300 Y0.65000
X-0.03300 Y0.65100
X-0.03400 Y0.65100
X-0.03400 Y0.65200
X-0.03500 Y0.65200
X-0.03500 Y0.65300
X-0.03600 Y0.65300
X-0.03600 Y0.65400
X-0.03700 Y0.65400
X-0.03700 Y0.65500
X-0.03800 Y0.65500
X-0.03800 Y0.65600
X-0.03900 Y0.65600
X-0.03900 Y0.65700
X-0.04000 Y0.65700
X-0.04000 Y0.65800
X-0.04100 Y0.65800
X-0.04100 Y0.65900
X-0.04200 Y0.65900
X-0.04200 Y0.66000
X-0.04300 Y0.66000
X-0.04300 Y0.66100
X-0.04400 Y0.66100
X-0.04400 Y0.66200
X-0.04500 Y0.66200
X-0.04500 Y0.66300
X-0.04600 Y0.66300
X-0.04600 Y0.66400
X-0.04700 Y0.66400
X-0.04700 Y0.66500
X-0.04800 Y0.66500
X-0.04800 Y0.66600
X-0.04900 Y0.66600
X-0.04900 Y0.66700
X-0.05000 Y0.66700
X-0.05000 Y0.66800
X-0.05100 Y0.66800
X-0.05100 Y0.66900
X-0.05200 Y0.66900
X-0.05200 Y0.67000
X-0.05300 Y0.67000
X-0.05300 Y0.67100
X-0.05400 Y0.67100
X-0.05400 Y0.67200
X-0.05500 Y0.67200
X-0.05500 Y0.67300
X-0.05600 Y0.67300
X-0.05600 Y0.67400
X-0.05700 Y0.67400
X-0.05700 Y0.67500
X-0.05800 Y0.67500
X-0.05800 Y0.67600
X-0.05900 Y0.67600
X-0.05900 Y0.67700
X-0.06000 Y0.67700
X-0.06000 Y0.67800
X-0.06100 Y0.67800
X-0.06100 Y0.67900
X-0.06200 Y0.67900
X-0.06200 Y0.68000
X-0.06300 Y0.68000
X-0.06300 Y0.68100
X-0.06400 Y0.68100
X-0.06400 Y0.68200
X-0.06500 Y0.68200
X-0.06500 Y0.68300
X-0.06600 Y0.68300
X-0.06600 Y0.68400
X-0.06700 Y0.68400
X-0.06700 Y0.68500
X-0.06800 Y0.68500
X-0.06800 Y0.68600
X-0.06900 Y0.68600
X-0.06900 Y0.68700
X-0.07000 Y0.68700
X-0.07000 Y0.68800
X-0.07100 Y0.68800
X-0.07100 Y0.68900
X-0.07200 Y0.68900
X-0.07200 Y0.69000
X-0.07300 Y0.69000
X-0.07300 Y0.69100
X-0.07400 Y0.69100
X-0.07400 Y0.69200
X-0.07500 Y0.69200
X-0.07500 Y0.69300
X-0.07600 Y0.69300
X-0.07600 Y0.69400
X-0.07700 Y0.69400
X-0.07700 Y0.69500
X-0.07800 Y0.69500
X-0.07800 Y0.69600
X-0.07900 Y0.69600
X-0.07900 Y0.69700
X-0.08000 Y0.69700
X-0.08000 Y0.69800
X-0.08100 Y0.69800
X-0.08100 Y0.69900
X-0.08200 Y0.69900
X-0.08200 Y0.70000
X-0.08300 Y0.70000
X-0.08300 Y0.70100
X-0.08400 Y0.70100
X-0.08400 Y0.70200
X-0.08500 Y0.70200
X-0.08500 Y0.70300
X-0.08600 Y0.70300
X-0.08600 Y0.70400
X-0.08700 Y0.70400
X-0.08700 Y0.70500
X-0.08800 Y0.70500
X-0.08800 Y0.70600
X-0.08900 Y0.70600
X-0.08900 Y0.70700
X-0.09000 Y0.70700
X-0.09000 Y0.70800
X-0.09100 Y0.70800
X-0.09100 Y0.70900
X-0.09200 Y0.70900
X-0.09200 Y0.71000
X-0.09300 Y0.71000
X-0.09300 Y0.71100
X-0.09400 Y0.71100
X-0.09400 Y0.71200
X-0.09500 Y0.71200
X-0.09500 Y0.71300
X-0.09600 Y0.71300
X-0.09600 Y0.71400
X-0.09700 Y0.71400
X-0.09700 Y0.71500
X-0.09800 Y0.71500
X-0.09800 Y0.71600
X-0.09900 Y0.71600
X-0.09900 Y0.71700
X-0.10000 Y0.71700
X-0.10000 Y0.71800
X-0.10100 Y0.71800
X-0.10100 Y0.71900
X-0.10200 Y0.71900
X-0.10200 Y0.72000
X-0.10300 Y0.72000
X-0.10300 Y0.72100
X-0.10400 Y0.72100
X-0.10400 Y0.72300
X-0.10500 Y0.72300
X-0.10500 Y2.17800
X-0.10400 Y2.17800
X-0.10400 Y2.18000
X-0.10300 Y2.18000
X-0.10300 Y2.18100
X-0.10200 Y2.18100
X-0.10200 Y2.18200
X-0.10100 Y2.18200
X-0.10100 Y2.18300
X-0.10000 Y2.18300
X-0.10000 Y2.18400
X-0.09900 Y2.18400
X-0.09900 Y2.18500
X-0.09800 Y2.18500
X-0.09800 Y2.18600
X-0.09700 Y2.18600
X-0.09700 Y2.18700
X-0.09600 Y2.18700
X-0.09600 Y2.18800
X-0.09500 Y2.18800
X-0.09500 Y2.18900
X-0.09400 Y2.18900
X-0.09400 Y2.19000
X-0.09300 Y2.19000
X-0.09300 Y2.19100
X-0.09200 Y2.19100
X-0.09200 Y2.19200
X-0.09100 Y2.19200
X-0.09100 Y2.19300
X-0.09000 Y2.19300
X-0.09000 Y2.19400
X-0.08900 Y2.19400
X-0.08900 Y2.19500
X-0.08800 Y2.19500
X-0.08800 Y2.19600
X-0.08700 Y2.19600
X-0.08700 Y2.19700
X-0.08600 Y2.19700
X-0.08600 Y2.19800
X-0.08500 Y2.19800
X-0.08500 Y2.19900
X-0.08400 Y2.19900
X-0.08400 Y2.20000
X-0.08300 Y2.20000
X-0.08300 Y2.20100
X-0.08200 Y2.20100
X-0.08200 Y2.20200
X-0.08100 Y2.20200
X-0.08100 Y2.20300
X-0.08000 Y2.20300
X-0.08000 Y2.20400
X-0.07900 Y2.20400
X-0.07900 Y2.20500
X-0.07800 Y2.20500
X-0.07800 Y2.20600
X-0.07700 Y2.20600
X-0.07700 Y2.20700
X-0.07600 Y2.20700
X-0.07600 Y2.20800
X-0.07500 Y2.20800
X-0.07500 Y2.20900
X-0.07400 Y2.20900
X-0.07400 Y2.21000
X-0.07300 Y2.21000
X-0.07300 Y2.21100
X-0.07200 Y2.21100
X-0.07200 Y2.21200
X-0.07100 Y2.21200
X-0.07100 Y2.21300
X-0.07000 Y2.21300
X-0.07000 Y2.21400
X-0.06900 Y2.21400
X-0.06900 Y2.21500
X-0.06800 Y2.21500
X-0.06800 Y2.21600
X-0.06700 Y2.21600
X-0.06700 Y2.21700
X-0.06600 Y2.21700
X-0.06600 Y2.21800
X-0.06500 Y2.21800
X-0.06500 Y2.21900
X-0.06400 Y2.21900
X-0.06400 Y2.22000
X-0.06300 Y2.22000
X-0.06300 Y2.22100
X-0.06200 Y2.22100
X-0.06200 Y2.22200
X-0.06100 Y2.22200
X-0.06100 Y2.22300
X-0.06000 Y2.22300
X-0.06000 Y2.22400
X-0.05900 Y2.22400
X-0.05900 Y2.22500
X-0.05800 Y2.22500
X-0.05800 Y2.22600
X-0.05700 Y2.22600
X-0.05700 Y2.22700
X-0.05600 Y2.22700
X-0.05600 Y2.22800
X-0.05500 Y2.22800
X-0.05500 Y2.22900
X-0.05400 Y2.22900
X-0.05400 Y2.23000
X-0.05300 Y2.23000
X-0.05300 Y2.23100
X-0.05200 Y2.23100
X-0.05200 Y2.23200
X-0.05100 Y2.23200
X-0.05100 Y2.23300
X-0.05000 Y2.23300
X-0.05000 Y2.23400
X-0.04900 Y2.23400
X-0.04900 Y2.23500
X-0.04800 Y2.23500
X-0.04800 Y2.23600
X-0.04700 Y2.23600
X-0.04700 Y2.23700
X-0.04600 Y2.23700
X-0.04600 Y2.23800
X-0.04500 Y2.23800
X-0.04500 Y2.23900
X-0.04400 Y2.23900
X-0.04400 Y2.24000
X-0.04300 Y2.24000
X-0.04300 Y2.24100
X-0.04200 Y2.24100
X-0.04200 Y2.24200
X-0.04100 Y2.24200
X-0.04100 Y2.24300
X-0.04000 Y2.24300
X-0.04000 Y2.24400
X-0.03900 Y2.24400
X-0.03900 Y2.24500
X-0.03800 Y2.24500
X-0.03800 Y2.24600
X-0.03700 Y2.24600
X-0.03700 Y2.24700
X-0.03600 Y2.24700
X-0.03600 Y2.24800
X-0.03500 Y2.24800
X-0.03500 Y2.24900
X-0.03400 Y2.24900
X-0.03400 Y2.25000
X-0.03300 Y2.25000
X-0.03300 Y2.25100
X-0.03200 Y2.25100
X-0.03200 Y2.25200
X-0.03100 Y2.25200
X-0.03100 Y2.25300
X-0.03000 Y2.25300
X-0.03000 Y2.25400
X-0.02900 Y2.25400
X-0.02900 Y2.25500
X-0.02800 Y2.25500
X-0.02800 Y2.25600
X-0.02700 Y2.25600
X-0.02700 Y2.25700
X-0.02600 Y2.25700
X-0.02600 Y2.25800
X-0.02500 Y2.25800
X-0.02500 Y2.25900
X-0.02400 Y2.25900
X-0.02400 Y2.26000
X-0.02300 Y2.26000
X-0.02300 Y2.26100
X-0.02200 Y2.26100
X-0.02200 Y2.26200
X-0.02100 Y2.26200
X-0.02100 Y2.26300
X-0.02000 Y2.26300
X-0.02000 Y2.26400
X-0.01900 Y2.26400
X-0.01900 Y2.26500
X-0.01800 Y2.26500
X-0.01800 Y2.26600
X-0.01700 Y2.26600
X-0.01700 Y2.26700
X-0.01600 Y2.26700
X-0.01600 Y2.26800
X-0.01500 Y2.26800
X-0.01500 Y2.26900
X-0.01400 Y2.26900
X-0.01400 Y2.27000
X-0.01300 Y2.27000
X-0.01300 Y2.27100
X-0.01200 Y2.27100
X-0.01200 Y2.27200
X-0.01100 Y2.27200
X-0.01100 Y2.27300
X-0.01000 Y2.27300
X-0.01000 Y2.27400
X-0.00900 Y2.27400
X-0.00900 Y2.27500
X-0.00800 Y2.27500
X-0.00800 Y2.27600
X-0.00700 Y2.27600
X-0.00700 Y2.27700
X-0.00600 Y2.27700
X-0.00600 Y2.27800
X-0.00500 Y2.27800
X-0.00500 Y2.27900
X-0.00400 Y2.27900
X-0.00400 Y2.28000
X-0.00300 Y2.28000
X-0.00300 Y2.28100
X-0.00200 Y2.28100
X-0.00200 Y2.28200
X-0.00100 Y2.28200
X-0.00100 Y2.28300
X0.00000 Y2.28300
X0.00000 Y2.28400
X0.00100 Y2.28400
X0.00100 Y2.28500
X0.00200 Y2.28500
X0.00200 Y2.28600
X0.00300 Y2.28600
X0.00300 Y2.28700
X0.00400 Y2.28700
X0.00400 Y2.28800
X0.00500 Y2.28800
X0.00500 Y2.28900
X0.00600 Y2.28900
X0.00600 Y2.29000
X0.00700 Y2.29000
X0.00700 Y2.29100
X0.00800 Y2.29100
X0.00800 Y2.29200
X0.00900 Y2.29200
X0.00900 Y2.29300
X0.01000 Y2.29300
X0.01000 Y2.29400
X0.01100 Y2.29400
X0.01100 Y2.29500
X0.01200 Y2.29500
X0.01200 Y2.29600
X0.01300 Y2.29600
X0.01300 Y2.29700
X0.01400 Y2.29700
X0.01400 Y2.29800
X0.01500 Y2.29800
X0.01500 Y2.29900
X0.01600 Y2.29900
X0.01600 Y2.30000
X0.01700 Y2.30000
X0.01700 Y2.30100
X0.01800 Y2.30100
X0.01800 Y2.30200
X0.01900 Y2.30200
X0.01900 Y2.30300
X0.02000 Y2.30300
X0.02000 Y2.30400
X0.02100 Y2.30400
X0.02100 Y2.30500
X0.02200 Y2.30500
X0.02200 Y2.30600
X0.02300 Y2.30600
X0.02300 Y2.30700
X0.02400 Y2.30700
X0.02400 Y2.30800
X0.02500 Y2.30800
X0.02500 Y2.30900
X0.02600 Y2.30900
X0.02600 Y2.31000
X0.02700 Y2.31000
X0.02700 Y2.31100
X0.02800 Y2.31100
X0.02800 Y2.31200
X0.02900 Y2.31200
X0.02900 Y2.31300
X0.03000 Y2.31300
X0.03000 Y2.31400
X0.03100 Y2.31400
X0.03100 Y2.31500
X0.03200 Y2.31500
X0.03200 Y2.31600
X0.03300 Y2.31600
X0.03300 Y2.31700
X0.03400 Y2.31700
X0.03400 Y2.31800
X0.03500 Y2.31800
X0.03500 Y2.31900
X0.03600 Y2.31900
X0.03600 Y2.32000
X0.03700 Y2.32000
X0.03700 Y2.32100
X0.03800 Y2.32100
X0.03800 Y2.32200
X0.03900 Y2.32200
X0.03900 Y2.32300
X0.04000 Y2.32300
X0.04000 Y2.32400
X0.04100 Y2.32400
X0.04100 Y2.32500
X0.04200 Y2.32500
X0.04200 Y2.32600
X0.04300 Y2.32600
X0.04300 Y2.32700
X0.04400 Y2.32700
X0.04400 Y2.32800
X0.04500 Y2.32800
X0.04500 Y3.06800
X0.04600 Y3.06800
X0.04600 Y3.06900
X0.04700 Y3.06900
X0.04700 Y3.07000
X0.04800 Y3.07000
X0.04800 Y3.07100
X1.00300 Y3.07100
X1.00300 Y3.07000
X1.00400 Y3.07000
X1.00400 Y3.06900
X1.00500 Y3.06900
X1.00500 Y3.06800
X1.00600 Y3.06800
X1.00600 Y2.97000

G04 P0 ( dwell for no time -- G64 should not smooth over this point )
G00 Z0.02000 ( retract )

M5 ( Spindle off. )
M9 ( Coolant off. )
M2 ( Program end. )

