( pcb2gcode 1.2.2 )
( Software-independent Gcode )
      




S10000 ( RPM spindle speed. )
G64 P0.00200 ( set maximum deviation from commanded toolpath )
F2000.00000 ( Feedrate. )

F2000.00000 ( Feedrate. )
M3 ( Spindle on clockwise. )
G04 P0 ( dwell for no time -- G64 should not smooth over this point )
G00 Z0.25000 ( retract )

G00 X0.11397 Y1.74800 ( rapid move to begin. )
F1000.00000
G01 Z0.00000
G04 P0 ( dwell for no time -- G64 should not smooth over this point )
F2000.00000
X0.11397 Y1.74800
X0.11397 Y1.35400
X0.19397 Y1.35400
X0.19397 Y1.74900
X0.11397 Y1.74900
X0.11397 Y1.74800
G04 P0 ( dwell for no time -- G64 should not smooth over this point )
G00 Z0.25000 ( retract )

G00 X0.33797 Y1.74800 ( rapid move to begin. )
F1000.00000
G01 Z0.00000
G04 P0 ( dwell for no time -- G64 should not smooth over this point )
F2000.00000
X0.33797 Y1.74800
X0.33797 Y1.35400
X0.41797 Y1.35400
X0.41797 Y1.74900
X0.33797 Y1.74900
X0.33797 Y1.74800
G04 P0 ( dwell for no time -- G64 should not smooth over this point )
G00 Z0.25000 ( retract )

G00 X0.43897 Y1.74800 ( rapid move to begin. )
F1000.00000
G01 Z0.00000
G04 P0 ( dwell for no time -- G64 should not smooth over this point )
F2000.00000
X0.43897 Y1.74800
X0.43897 Y1.35400
X0.51897 Y1.35400
X0.51897 Y1.74900
X0.43897 Y1.74900
X0.43897 Y1.74800
G04 P0 ( dwell for no time -- G64 should not smooth over this point )
G00 Z0.25000 ( retract )

G00 X0.66297 Y1.74800 ( rapid move to begin. )
F1000.00000
G01 Z0.00000
G04 P0 ( dwell for no time -- G64 should not smooth over this point )
F2000.00000
X0.66297 Y1.74800
X0.66297 Y1.35400
X0.74297 Y1.35400
X0.74297 Y1.74900
X0.66297 Y1.74900
X0.66297 Y1.74800
G04 P0 ( dwell for no time -- G64 should not smooth over this point )
G00 Z0.25000 ( retract )

G00 X0.83897 Y1.74800 ( rapid move to begin. )
F1000.00000
G01 Z0.00000
G04 P0 ( dwell for no time -- G64 should not smooth over this point )
F2000.00000
X0.83897 Y1.74800
X0.83897 Y1.35400
X0.91897 Y1.35400
X0.91897 Y1.74900
X0.83897 Y1.74900
X0.83897 Y1.74800
G04 P0 ( dwell for no time -- G64 should not smooth over this point )
G00 Z0.25000 ( retract )

G00 X1.06297 Y1.74800 ( rapid move to begin. )
F1000.00000
G01 Z0.00000
G04 P0 ( dwell for no time -- G64 should not smooth over this point )
F2000.00000
X1.06297 Y1.74800
X1.06297 Y1.35400
X1.14297 Y1.35400
X1.14297 Y1.74900
X1.06297 Y1.74900
X1.06297 Y1.74800
G04 P0 ( dwell for no time -- G64 should not smooth over this point )
G00 Z0.25000 ( retract )

G00 X1.16397 Y1.74800 ( rapid move to begin. )
F1000.00000
G01 Z0.00000
G04 P0 ( dwell for no time -- G64 should not smooth over this point )
F2000.00000
X1.16397 Y1.74800
X1.16397 Y1.35400
X1.24397 Y1.35400
X1.24397 Y1.74900
X1.16397 Y1.74900
X1.16397 Y1.74800
G04 P0 ( dwell for no time -- G64 should not smooth over this point )
G00 Z0.25000 ( retract )

G00 X1.38797 Y1.74800 ( rapid move to begin. )
F1000.00000
G01 Z0.00000
G04 P0 ( dwell for no time -- G64 should not smooth over this point )
F2000.00000
X1.38797 Y1.74800
X1.38797 Y1.35400
X1.46797 Y1.35400
X1.46797 Y1.74900
X1.38797 Y1.74900
X1.38797 Y1.74800
G04 P0 ( dwell for no time -- G64 should not smooth over this point )
G00 Z0.25000 ( retract )

G00 X1.56397 Y1.74800 ( rapid move to begin. )
F1000.00000
G01 Z0.00000
G04 P0 ( dwell for no time -- G64 should not smooth over this point )
F2000.00000
X1.56397 Y1.74800
X1.56397 Y1.35400
X1.64397 Y1.35400
X1.64397 Y1.74900
X1.56397 Y1.74900
X1.56397 Y1.74800
G04 P0 ( dwell for no time -- G64 should not smooth over this point )
G00 Z0.25000 ( retract )

G00 X1.78797 Y1.74800 ( rapid move to begin. )
F1000.00000
G01 Z0.00000
G04 P0 ( dwell for no time -- G64 should not smooth over this point )
F2000.00000
X1.78797 Y1.74800
X1.78797 Y1.35400
X1.86797 Y1.35400
X1.86797 Y1.74900
X1.78797 Y1.74900
X1.78797 Y1.74800
G04 P0 ( dwell for no time -- G64 should not smooth over this point )
G00 Z0.25000 ( retract )

G00 X1.88897 Y1.74800 ( rapid move to begin. )
F1000.00000
G01 Z0.00000
G04 P0 ( dwell for no time -- G64 should not smooth over this point )
F2000.00000
X1.88897 Y1.74800
X1.88897 Y1.35400
X1.96897 Y1.35400
X1.96897 Y1.74900
X1.88897 Y1.74900
X1.88897 Y1.74800
G04 P0 ( dwell for no time -- G64 should not smooth over this point )
G00 Z0.25000 ( retract )

G00 X2.11297 Y1.74800 ( rapid move to begin. )
F1000.00000
G01 Z0.00000
G04 P0 ( dwell for no time -- G64 should not smooth over this point )
F2000.00000
X2.11297 Y1.74800
X2.11297 Y1.35400
X2.19297 Y1.35400
X2.19297 Y1.74900
X2.11297 Y1.74900
X2.11297 Y1.74800
G04 P0 ( dwell for no time -- G64 should not smooth over this point )
G00 Z0.25000 ( retract )

G00 X2.28897 Y1.74800 ( rapid move to begin. )
F1000.00000
G01 Z0.00000
G04 P0 ( dwell for no time -- G64 should not smooth over this point )
F2000.00000
X2.28897 Y1.74800
X2.28897 Y1.35400
X2.36897 Y1.35400
X2.36897 Y1.74900
X2.28897 Y1.74900
X2.28897 Y1.74800
G04 P0 ( dwell for no time -- G64 should not smooth over this point )
G00 Z0.25000 ( retract )

G00 X2.51297 Y1.74800 ( rapid move to begin. )
F1000.00000
G01 Z0.00000
G04 P0 ( dwell for no time -- G64 should not smooth over this point )
F2000.00000
X2.51297 Y1.74800
X2.51297 Y1.35400
X2.59297 Y1.35400
X2.59297 Y1.74900
X2.51297 Y1.74900
X2.51297 Y1.74800
G04 P0 ( dwell for no time -- G64 should not smooth over this point )
G00 Z0.25000 ( retract )

G00 X2.61397 Y1.74800 ( rapid move to begin. )
F1000.00000
G01 Z0.00000
G04 P0 ( dwell for no time -- G64 should not smooth over this point )
F2000.00000
X2.61397 Y1.74800
X2.61397 Y1.35400
X2.69397 Y1.35400
X2.69397 Y1.74900
X2.61397 Y1.74900
X2.61397 Y1.74800
G04 P0 ( dwell for no time -- G64 should not smooth over this point )
G00 Z0.25000 ( retract )

G00 X2.83797 Y1.74800 ( rapid move to begin. )
F1000.00000
G01 Z0.00000
G04 P0 ( dwell for no time -- G64 should not smooth over this point )
F2000.00000
X2.83797 Y1.74800
X2.83797 Y1.35400
X2.91797 Y1.35400
X2.91797 Y1.74900
X2.83797 Y1.74900
X2.83797 Y1.74800
G04 P0 ( dwell for no time -- G64 should not smooth over this point )
G00 Z0.25000 ( retract )

G00 X3.01397 Y1.74800 ( rapid move to begin. )
F1000.00000
G01 Z0.00000
G04 P0 ( dwell for no time -- G64 should not smooth over this point )
F2000.00000
X3.01397 Y1.74800
X3.01397 Y1.35400
X3.09397 Y1.35400
X3.09397 Y1.74900
X3.01397 Y1.74900
X3.01397 Y1.74800
G04 P0 ( dwell for no time -- G64 should not smooth over this point )
G00 Z0.25000 ( retract )

G00 X3.23797 Y1.74800 ( rapid move to begin. )
F1000.00000
G01 Z0.00000
G04 P0 ( dwell for no time -- G64 should not smooth over this point )
F2000.00000
X3.23797 Y1.74800
X3.23797 Y1.35400
X3.31797 Y1.35400
X3.31797 Y1.74900
X3.23797 Y1.74900
X3.23797 Y1.74800
G04 P0 ( dwell for no time -- G64 should not smooth over this point )
G00 Z0.25000 ( retract )

G00 X3.33897 Y1.74800 ( rapid move to begin. )
F1000.00000
G01 Z0.00000
G04 P0 ( dwell for no time -- G64 should not smooth over this point )
F2000.00000
X3.33897 Y1.74800
X3.33897 Y1.35400
X3.41897 Y1.35400
X3.41897 Y1.74900
X3.33897 Y1.74900
X3.33897 Y1.74800
G04 P0 ( dwell for no time -- G64 should not smooth over this point )
G00 Z0.25000 ( retract )

G00 X3.56297 Y1.74800 ( rapid move to begin. )
F1000.00000
G01 Z0.00000
G04 P0 ( dwell for no time -- G64 should not smooth over this point )
F2000.00000
X3.56297 Y1.74800
X3.56297 Y1.35400
X3.64297 Y1.35400
X3.64297 Y1.74900
X3.56297 Y1.74900
X3.56297 Y1.74800
G04 P0 ( dwell for no time -- G64 should not smooth over this point )
G00 Z0.25000 ( retract )

G00 X3.73897 Y1.74800 ( rapid move to begin. )
F1000.00000
G01 Z0.00000
G04 P0 ( dwell for no time -- G64 should not smooth over this point )
F2000.00000
X3.73897 Y1.74800
X3.73897 Y1.35400
X3.81897 Y1.35400
X3.81897 Y1.74900
X3.73897 Y1.74900
X3.73897 Y1.74800
G04 P0 ( dwell for no time -- G64 should not smooth over this point )
G00 Z0.25000 ( retract )

G00 X3.96297 Y1.74800 ( rapid move to begin. )
F1000.00000
G01 Z0.00000
G04 P0 ( dwell for no time -- G64 should not smooth over this point )
F2000.00000
X3.96297 Y1.74800
X3.96297 Y1.35400
X4.04297 Y1.35400
X4.04297 Y1.74900
X3.96297 Y1.74900
X3.96297 Y1.74800
G04 P0 ( dwell for no time -- G64 should not smooth over this point )
G00 Z0.25000 ( retract )

G00 X4.06397 Y1.74800 ( rapid move to begin. )
F1000.00000
G01 Z0.00000
G04 P0 ( dwell for no time -- G64 should not smooth over this point )
F2000.00000
X4.06397 Y1.74800
X4.06397 Y1.35400
X4.14397 Y1.35400
X4.14397 Y1.74900
X4.06397 Y1.74900
X4.06397 Y1.74800
G04 P0 ( dwell for no time -- G64 should not smooth over this point )
G00 Z0.25000 ( retract )

G00 X4.28797 Y1.74800 ( rapid move to begin. )
F1000.00000
G01 Z0.00000
G04 P0 ( dwell for no time -- G64 should not smooth over this point )
F2000.00000
X4.28797 Y1.74800
X4.28797 Y1.35400
X4.36797 Y1.35400
X4.36797 Y1.74900
X4.28797 Y1.74900
X4.28797 Y1.74800
G04 P0 ( dwell for no time -- G64 should not smooth over this point )
G00 Z0.25000 ( retract )

G00 X4.23797 Y2.94800 ( rapid move to begin. )
F1000.00000
G01 Z0.00000
G04 P0 ( dwell for no time -- G64 should not smooth over this point )
F2000.00000
X4.23797 Y2.94800
X4.23797 Y2.55400
X4.31697 Y2.55400
X4.31697 Y2.94900
X4.23797 Y2.94900
X4.23797 Y2.94800
G04 P0 ( dwell for no time -- G64 should not smooth over this point )
G00 Z0.25000 ( retract )

G00 X4.01297 Y2.94800 ( rapid move to begin. )
F1000.00000
G01 Z0.00000
G04 P0 ( dwell for no time -- G64 should not smooth over this point )
F2000.00000
X4.01297 Y2.94800
X4.01297 Y2.55400
X4.09297 Y2.55400
X4.09297 Y2.94900
X4.01297 Y2.94900
X4.01297 Y2.94800
G04 P0 ( dwell for no time -- G64 should not smooth over this point )
G00 Z0.25000 ( retract )

G00 X3.91297 Y2.94800 ( rapid move to begin. )
F1000.00000
G01 Z0.00000
G04 P0 ( dwell for no time -- G64 should not smooth over this point )
F2000.00000
X3.91297 Y2.94800
X3.91297 Y2.55400
X3.99197 Y2.55400
X3.99197 Y2.94900
X3.91297 Y2.94900
X3.91297 Y2.94800
G04 P0 ( dwell for no time -- G64 should not smooth over this point )
G00 Z0.25000 ( retract )

G00 X3.68797 Y2.94800 ( rapid move to begin. )
F1000.00000
G01 Z0.00000
G04 P0 ( dwell for no time -- G64 should not smooth over this point )
F2000.00000
X3.68797 Y2.94800
X3.68797 Y2.55400
X3.76797 Y2.55400
X3.76797 Y2.94900
X3.68797 Y2.94900
X3.68797 Y2.94800
G04 P0 ( dwell for no time -- G64 should not smooth over this point )
G00 Z0.25000 ( retract )

G00 X3.51297 Y2.94800 ( rapid move to begin. )
F1000.00000
G01 Z0.00000
G04 P0 ( dwell for no time -- G64 should not smooth over this point )
F2000.00000
X3.51297 Y2.94800
X3.51297 Y2.55400
X3.59197 Y2.55400
X3.59197 Y2.94900
X3.51297 Y2.94900
X3.51297 Y2.94800
G04 P0 ( dwell for no time -- G64 should not smooth over this point )
G00 Z0.25000 ( retract )

G00 X3.28797 Y2.94800 ( rapid move to begin. )
F1000.00000
G01 Z0.00000
G04 P0 ( dwell for no time -- G64 should not smooth over this point )
F2000.00000
X3.28797 Y2.94800
X3.28797 Y2.55400
X3.36797 Y2.55400
X3.36797 Y2.94900
X3.28797 Y2.94900
X3.28797 Y2.94800
G04 P0 ( dwell for no time -- G64 should not smooth over this point )
G00 Z0.25000 ( retract )

G00 X3.18797 Y2.94800 ( rapid move to begin. )
F1000.00000
G01 Z0.00000
G04 P0 ( dwell for no time -- G64 should not smooth over this point )
F2000.00000
X3.18797 Y2.94800
X3.18797 Y2.55400
X3.26697 Y2.55400
X3.26697 Y2.94900
X3.18797 Y2.94900
X3.18797 Y2.94800
G04 P0 ( dwell for no time -- G64 should not smooth over this point )
G00 Z0.25000 ( retract )

G00 X2.96297 Y2.94800 ( rapid move to begin. )
F1000.00000
G01 Z0.00000
G04 P0 ( dwell for no time -- G64 should not smooth over this point )
F2000.00000
X2.96297 Y2.94800
X2.96297 Y2.55400
X3.04297 Y2.55400
X3.04297 Y2.94900
X2.96297 Y2.94900
X2.96297 Y2.94800
G04 P0 ( dwell for no time -- G64 should not smooth over this point )
G00 Z0.25000 ( retract )

G00 X2.78797 Y2.94800 ( rapid move to begin. )
F1000.00000
G01 Z0.00000
G04 P0 ( dwell for no time -- G64 should not smooth over this point )
F2000.00000
X2.78797 Y2.94800
X2.78797 Y2.55400
X2.86697 Y2.55400
X2.86697 Y2.94900
X2.78797 Y2.94900
X2.78797 Y2.94800
G04 P0 ( dwell for no time -- G64 should not smooth over this point )
G00 Z0.25000 ( retract )

G00 X2.56297 Y2.94800 ( rapid move to begin. )
F1000.00000
G01 Z0.00000
G04 P0 ( dwell for no time -- G64 should not smooth over this point )
F2000.00000
X2.56297 Y2.94800
X2.56297 Y2.55400
X2.64297 Y2.55400
X2.64297 Y2.94900
X2.56297 Y2.94900
X2.56297 Y2.94800
G04 P0 ( dwell for no time -- G64 should not smooth over this point )
G00 Z0.25000 ( retract )

G00 X2.46297 Y2.94800 ( rapid move to begin. )
F1000.00000
G01 Z0.00000
G04 P0 ( dwell for no time -- G64 should not smooth over this point )
F2000.00000
X2.46297 Y2.94800
X2.46297 Y2.55400
X2.54197 Y2.55400
X2.54197 Y2.94900
X2.46297 Y2.94900
X2.46297 Y2.94800
G04 P0 ( dwell for no time -- G64 should not smooth over this point )
G00 Z0.25000 ( retract )

G00 X2.23797 Y2.94800 ( rapid move to begin. )
F1000.00000
G01 Z0.00000
G04 P0 ( dwell for no time -- G64 should not smooth over this point )
F2000.00000
X2.23797 Y2.94800
X2.23797 Y2.55400
X2.31797 Y2.55400
X2.31797 Y2.94900
X2.23797 Y2.94900
X2.23797 Y2.94800
G04 P0 ( dwell for no time -- G64 should not smooth over this point )
G00 Z0.25000 ( retract )

G00 X2.06297 Y2.94800 ( rapid move to begin. )
F1000.00000
G01 Z0.00000
G04 P0 ( dwell for no time -- G64 should not smooth over this point )
F2000.00000
X2.06297 Y2.94800
X2.06297 Y2.55400
X2.14197 Y2.55400
X2.14197 Y2.94900
X2.06297 Y2.94900
X2.06297 Y2.94800
G04 P0 ( dwell for no time -- G64 should not smooth over this point )
G00 Z0.25000 ( retract )

G00 X1.83797 Y2.94800 ( rapid move to begin. )
F1000.00000
G01 Z0.00000
G04 P0 ( dwell for no time -- G64 should not smooth over this point )
F2000.00000
X1.83797 Y2.94800
X1.83797 Y2.55400
X1.91797 Y2.55400
X1.91797 Y2.94900
X1.83797 Y2.94900
X1.83797 Y2.94800
G04 P0 ( dwell for no time -- G64 should not smooth over this point )
G00 Z0.25000 ( retract )

G00 X1.73797 Y2.94800 ( rapid move to begin. )
F1000.00000
G01 Z0.00000
G04 P0 ( dwell for no time -- G64 should not smooth over this point )
F2000.00000
X1.73797 Y2.94800
X1.73797 Y2.55400
X1.81697 Y2.55400
X1.81697 Y2.94900
X1.73797 Y2.94900
X1.73797 Y2.94800
G04 P0 ( dwell for no time -- G64 should not smooth over this point )
G00 Z0.25000 ( retract )

G00 X1.51297 Y2.94800 ( rapid move to begin. )
F1000.00000
G01 Z0.00000
G04 P0 ( dwell for no time -- G64 should not smooth over this point )
F2000.00000
X1.51297 Y2.94800
X1.51297 Y2.55400
X1.59297 Y2.55400
X1.59297 Y2.94900
X1.51297 Y2.94900
X1.51297 Y2.94800
G04 P0 ( dwell for no time -- G64 should not smooth over this point )
G00 Z0.25000 ( retract )

G00 X1.33797 Y2.94800 ( rapid move to begin. )
F1000.00000
G01 Z0.00000
G04 P0 ( dwell for no time -- G64 should not smooth over this point )
F2000.00000
X1.33797 Y2.94800
X1.33797 Y2.55400
X1.41697 Y2.55400
X1.41697 Y2.94900
X1.33797 Y2.94900
X1.33797 Y2.94800
G04 P0 ( dwell for no time -- G64 should not smooth over this point )
G00 Z0.25000 ( retract )

G00 X1.11297 Y2.94800 ( rapid move to begin. )
F1000.00000
G01 Z0.00000
G04 P0 ( dwell for no time -- G64 should not smooth over this point )
F2000.00000
X1.11297 Y2.94800
X1.11297 Y2.55400
X1.19297 Y2.55400
X1.19297 Y2.94900
X1.11297 Y2.94900
X1.11297 Y2.94800
G04 P0 ( dwell for no time -- G64 should not smooth over this point )
G00 Z0.25000 ( retract )

G00 X1.01297 Y2.94800 ( rapid move to begin. )
F1000.00000
G01 Z0.00000
G04 P0 ( dwell for no time -- G64 should not smooth over this point )
F2000.00000
X1.01297 Y2.94800
X1.01297 Y2.55400
X1.09197 Y2.55400
X1.09197 Y2.94900
X1.01297 Y2.94900
X1.01297 Y2.94800
G04 P0 ( dwell for no time -- G64 should not smooth over this point )
G00 Z0.25000 ( retract )

G00 X0.78797 Y2.94800 ( rapid move to begin. )
F1000.00000
G01 Z0.00000
G04 P0 ( dwell for no time -- G64 should not smooth over this point )
F2000.00000
X0.78797 Y2.94800
X0.78797 Y2.55400
X0.86797 Y2.55400
X0.86797 Y2.94900
X0.78797 Y2.94900
X0.78797 Y2.94800
G04 P0 ( dwell for no time -- G64 should not smooth over this point )
G00 Z0.25000 ( retract )

G00 X0.61297 Y2.94800 ( rapid move to begin. )
F1000.00000
G01 Z0.00000
G04 P0 ( dwell for no time -- G64 should not smooth over this point )
F2000.00000
X0.61297 Y2.94800
X0.61297 Y2.55400
X0.69197 Y2.55400
X0.69197 Y2.94900
X0.61297 Y2.94900
X0.61297 Y2.94800
G04 P0 ( dwell for no time -- G64 should not smooth over this point )
G00 Z0.25000 ( retract )

G00 X0.38797 Y2.94800 ( rapid move to begin. )
F1000.00000
G01 Z0.00000
G04 P0 ( dwell for no time -- G64 should not smooth over this point )
F2000.00000
X0.38797 Y2.94800
X0.38797 Y2.55400
X0.46797 Y2.55400
X0.46797 Y2.94900
X0.38797 Y2.94900
X0.38797 Y2.94800
G04 P0 ( dwell for no time -- G64 should not smooth over this point )
G00 Z0.25000 ( retract )

G00 X0.28797 Y2.94800 ( rapid move to begin. )
F1000.00000
G01 Z0.00000
G04 P0 ( dwell for no time -- G64 should not smooth over this point )
F2000.00000
X0.28797 Y2.94800
X0.28797 Y2.55400
X0.36697 Y2.55400
X0.36697 Y2.94900
X0.28797 Y2.94900
X0.28797 Y2.94800
G04 P0 ( dwell for no time -- G64 should not smooth over this point )
G00 Z0.25000 ( retract )

G00 X0.06297 Y2.94800 ( rapid move to begin. )
F1000.00000
G01 Z0.00000
G04 P0 ( dwell for no time -- G64 should not smooth over this point )
F2000.00000
X0.06297 Y2.94800
X0.06297 Y2.55400
X0.14297 Y2.55400
X0.14297 Y2.94900
X0.06297 Y2.94900
X0.06297 Y2.94800
G04 P0 ( dwell for no time -- G64 should not smooth over this point )
G00 Z0.25000 ( retract )

G00 X0.57197 Y3.63600 ( rapid move to begin. )
F1000.00000
G01 Z0.00000
G04 P0 ( dwell for no time -- G64 should not smooth over this point )
F2000.00000
X0.57197 Y3.63600
X0.57197 Y3.61600
X0.58497 Y3.61600
X0.58497 Y3.63700
X0.57197 Y3.63700
X0.57197 Y3.63600
G04 P0 ( dwell for no time -- G64 should not smooth over this point )
G00 Z0.25000 ( retract )

G00 X0.60297 Y3.63600 ( rapid move to begin. )
F1000.00000
G01 Z0.00000
G04 P0 ( dwell for no time -- G64 should not smooth over this point )
F2000.00000
X0.60297 Y3.63600
X0.60297 Y3.61600
X0.61597 Y3.61600
X0.61597 Y3.63700
X0.60297 Y3.63700
X0.60297 Y3.63600
G04 P0 ( dwell for no time -- G64 should not smooth over this point )
G00 Z0.25000 ( retract )

G00 X2.02197 Y3.63600 ( rapid move to begin. )
F1000.00000
G01 Z0.00000
G04 P0 ( dwell for no time -- G64 should not smooth over this point )
F2000.00000
X2.02197 Y3.63600
X2.02197 Y3.61600
X2.03497 Y3.61600
X2.03497 Y3.63700
X2.02197 Y3.63700
X2.02197 Y3.63600
G04 P0 ( dwell for no time -- G64 should not smooth over this point )
G00 Z0.25000 ( retract )

G00 X2.05297 Y3.63600 ( rapid move to begin. )
F1000.00000
G01 Z0.00000
G04 P0 ( dwell for no time -- G64 should not smooth over this point )
F2000.00000
X2.05297 Y3.63600
X2.05297 Y3.61600
X2.06597 Y3.61600
X2.06597 Y3.63700
X2.05297 Y3.63700
X2.05297 Y3.63600
G04 P0 ( dwell for no time -- G64 should not smooth over this point )
G00 Z0.25000 ( retract )

G00 X3.47197 Y3.63600 ( rapid move to begin. )
F1000.00000
G01 Z0.00000
G04 P0 ( dwell for no time -- G64 should not smooth over this point )
F2000.00000
X3.47197 Y3.63600
X3.47197 Y3.61600
X3.48497 Y3.61600
X3.48497 Y3.63700
X3.47197 Y3.63700
X3.47197 Y3.63600
G04 P0 ( dwell for no time -- G64 should not smooth over this point )
G00 Z0.25000 ( retract )

G00 X3.50297 Y3.63600 ( rapid move to begin. )
F1000.00000
G01 Z0.00000
G04 P0 ( dwell for no time -- G64 should not smooth over this point )
F2000.00000
X3.50297 Y3.63600
X3.50297 Y3.61600
X3.51597 Y3.61600
X3.51597 Y3.63700
X3.50297 Y3.63700
X3.50297 Y3.63600
G04 P0 ( dwell for no time -- G64 should not smooth over this point )
G00 Z0.25000 ( retract )

G00 X4.06397 Y4.12300 ( rapid move to begin. )
F1000.00000
G01 Z0.00000
G04 P0 ( dwell for no time -- G64 should not smooth over this point )
F2000.00000
X4.06397 Y4.12300
X4.06397 Y3.72900
X4.14397 Y3.72900
X4.14397 Y4.12400
X4.06397 Y4.12400
X4.06397 Y4.12300
G04 P0 ( dwell for no time -- G64 should not smooth over this point )
G00 Z0.25000 ( retract )

G00 X4.28797 Y4.12300 ( rapid move to begin. )
F1000.00000
G01 Z0.00000
G04 P0 ( dwell for no time -- G64 should not smooth over this point )
F2000.00000
X4.28797 Y4.12300
X4.28797 Y3.72900
X4.36797 Y3.72900
X4.36797 Y4.12400
X4.28797 Y4.12400
X4.28797 Y4.12300
G04 P0 ( dwell for no time -- G64 should not smooth over this point )
G00 Z0.25000 ( retract )

G00 X5.52197 Y3.73600 ( rapid move to begin. )
F1000.00000
G01 Z0.00000
G04 P0 ( dwell for no time -- G64 should not smooth over this point )
F2000.00000
X5.52197 Y3.73600
X5.52197 Y3.71600
X5.53497 Y3.71600
X5.53497 Y3.73700
X5.52197 Y3.73700
X5.52197 Y3.73600
G04 P0 ( dwell for no time -- G64 should not smooth over this point )
G00 Z0.25000 ( retract )

G00 X5.55297 Y3.73600 ( rapid move to begin. )
F1000.00000
G01 Z0.00000
G04 P0 ( dwell for no time -- G64 should not smooth over this point )
F2000.00000
X5.55297 Y3.73600
X5.55297 Y3.71600
X5.56597 Y3.71600
X5.56597 Y3.73700
X5.55297 Y3.73700
X5.55297 Y3.73600

G04 P0 ( dwell for no time -- G64 should not smooth over this point )
G00 Z0.25000 ( retract )

M5 ( Spindle off. )
M9 ( Coolant off. )
M2 ( Program end. )

