M106 S255 (Fan on.)
G0 x100 y100 f2000 (  Set origin and speed.  )
( pcb2gcode 1.2.2 )
( Software-independent Gcode )





S10000 ( RPM spindle speed. )
G64 P0.00200 ( set maximum deviation from commanded toolpath )
F2000.00000 ( Feedrate. )

F2000.00000 ( Feedrate. )
M400
M5
M42 P13 S0 (OFF - LASER)
G00 Z0.25000 ( retract )

G00 X102.86943 Y144.42460 F2000 (rapid move to begin)
F1000.00000
G01 Z0.00000
F2000.00000
G0 X102.86943 Y144.42460 F240
G0 X102.86943 Y134.36620 F240
G0 X104.95223 Y134.36620 F240
G0 X104.95223 Y144.45000 F240
G0 X102.86943 Y144.45000 F240
G0 X102.86943 Y144.42460 F240
M400
M5
M42 P13 S0 (OFF - LASER)
G00 Z0.25000 ( retract )

G00 X108.55903 Y144.42460 F2000 (rapid move to begin)
F1000.00000
G01 Z0.00000
F2000.00000
G0 X108.55903 Y144.42460 F240
G0 X108.55903 Y134.36620 F240
G0 X110.64183 Y134.36620 F240
G0 X110.64183 Y144.45000 F240
G0 X108.55903 Y144.45000 F240
G0 X108.55903 Y144.42460 F240
M400
M5
M42 P13 S0 (OFF - LASER)
G00 Z0.25000 ( retract )

G00 X111.12443 Y144.42460 F2000 (rapid move to begin)
F1000.00000
G01 Z0.00000
F2000.00000
G0 X111.12443 Y144.42460 F240
G0 X111.12443 Y134.36620 F240
G0 X113.20723 Y134.36620 F240
G0 X113.20723 Y144.45000 F240
G0 X111.12443 Y144.45000 F240
G0 X111.12443 Y144.42460 F240
M400
M5
M42 P13 S0 (OFF - LASER)
G00 Z0.25000 ( retract )

G00 X116.81403 Y144.42460 F2000 (rapid move to begin)
F1000.00000
G01 Z0.00000
F2000.00000
G0 X116.81403 Y144.42460 F240
G0 X116.81403 Y134.36620 F240
G0 X118.89683 Y134.36620 F240
G0 X118.89683 Y144.45000 F240
G0 X116.81403 Y144.45000 F240
G0 X116.81403 Y144.42460 F240
M400
M5
M42 P13 S0 (OFF - LASER)
G00 Z0.25000 ( retract )

G00 X121.28443 Y144.42460 F2000 (rapid move to begin)
F1000.00000
G01 Z0.00000
F2000.00000
G0 X121.28443 Y144.42460 F240
G0 X121.28443 Y134.36620 F240
G0 X123.36723 Y134.36620 F240
G0 X123.36723 Y144.45000 F240
G0 X121.28443 Y144.45000 F240
G0 X121.28443 Y144.42460 F240
M400
M5
M42 P13 S0 (OFF - LASER)
G00 Z0.25000 ( retract )

G00 X126.97403 Y144.42460 F2000 (rapid move to begin)
F1000.00000
G01 Z0.00000
F2000.00000
G0 X126.97403 Y144.42460 F240
G0 X126.97403 Y134.36620 F240
G0 X129.05683 Y134.36620 F240
G0 X129.05683 Y144.45000 F240
G0 X126.97403 Y144.45000 F240
G0 X126.97403 Y144.42460 F240
M400
M5
M42 P13 S0 (OFF - LASER)
G00 Z0.25000 ( retract )

G00 X129.53943 Y144.42460 F2000 (rapid move to begin)
F1000.00000
G01 Z0.00000
F2000.00000
G0 X129.53943 Y144.42460 F240
G0 X129.53943 Y134.36620 F240
G0 X131.62223 Y134.36620 F240
G0 X131.62223 Y144.45000 F240
G0 X129.53943 Y144.45000 F240
G0 X129.53943 Y144.42460 F240
M400
M5
M42 P13 S0 (OFF - LASER)
G00 Z0.25000 ( retract )

G00 X135.22903 Y144.42460 F2000 (rapid move to begin)
F1000.00000
G01 Z0.00000
F2000.00000
G0 X135.22903 Y144.42460 F240
G0 X135.22903 Y134.36620 F240
G0 X137.31183 Y134.36620 F240
G0 X137.31183 Y144.45000 F240
G0 X135.22903 Y144.45000 F240
G0 X135.22903 Y144.42460 F240
M400
M5
M42 P13 S0 (OFF - LASER)
G00 Z0.25000 ( retract )

G00 X139.69943 Y144.42460 F2000 (rapid move to begin)
F1000.00000
G01 Z0.00000
F2000.00000
G0 X139.69943 Y144.42460 F240
G0 X139.69943 Y134.36620 F240
G0 X141.78223 Y134.36620 F240
G0 X141.78223 Y144.45000 F240
G0 X139.69943 Y144.45000 F240
G0 X139.69943 Y144.42460 F240
M400
M5
M42 P13 S0 (OFF - LASER)
G00 Z0.25000 ( retract )

G00 X145.38903 Y144.42460 F2000 (rapid move to begin)
F1000.00000
G01 Z0.00000
F2000.00000
G0 X145.38903 Y144.42460 F240
G0 X145.38903 Y134.36620 F240
G0 X147.47183 Y134.36620 F240
G0 X147.47183 Y144.45000 F240
G0 X145.38903 Y144.45000 F240
G0 X145.38903 Y144.42460 F240
M400
M5
M42 P13 S0 (OFF - LASER)
G00 Z0.25000 ( retract )

G00 X147.95443 Y144.42460 F2000 (rapid move to begin)
F1000.00000
G01 Z0.00000
F2000.00000
G0 X147.95443 Y144.42460 F240
G0 X147.95443 Y134.36620 F240
G0 X150.03723 Y134.36620 F240
G0 X150.03723 Y144.45000 F240
G0 X147.95443 Y144.45000 F240
G0 X147.95443 Y144.42460 F240
M400
M5
M42 P13 S0 (OFF - LASER)
G00 Z0.25000 ( retract )

G00 X153.64403 Y144.42460 F2000 (rapid move to begin)
F1000.00000
G01 Z0.00000
F2000.00000
G0 X153.64403 Y144.42460 F240
G0 X153.64403 Y134.36620 F240
G0 X155.72683 Y134.36620 F240
G0 X155.72683 Y144.45000 F240
G0 X153.64403 Y144.45000 F240
G0 X153.64403 Y144.42460 F240
M400
M5
M42 P13 S0 (OFF - LASER)
G00 Z0.25000 ( retract )

G00 X158.11443 Y144.42460 F2000 (rapid move to begin)
F1000.00000
G01 Z0.00000
F2000.00000
G0 X158.11443 Y144.42460 F240
G0 X158.11443 Y134.36620 F240
G0 X160.19723 Y134.36620 F240
G0 X160.19723 Y144.45000 F240
G0 X158.11443 Y144.45000 F240
G0 X158.11443 Y144.42460 F240
M400
M5
M42 P13 S0 (OFF - LASER)
G00 Z0.25000 ( retract )

G00 X163.80403 Y144.42460 F2000 (rapid move to begin)
F1000.00000
G01 Z0.00000
F2000.00000
G0 X163.80403 Y144.42460 F240
G0 X163.80403 Y134.36620 F240
G0 X165.88683 Y134.36620 F240
G0 X165.88683 Y144.45000 F240
G0 X163.80403 Y144.45000 F240
G0 X163.80403 Y144.42460 F240
M400
M5
M42 P13 S0 (OFF - LASER)
G00 Z0.25000 ( retract )

G00 X166.36943 Y144.42460 F2000 (rapid move to begin)
F1000.00000
G01 Z0.00000
F2000.00000
G0 X166.36943 Y144.42460 F240
G0 X166.36943 Y134.36620 F240
G0 X168.45223 Y134.36620 F240
G0 X168.45223 Y144.45000 F240
G0 X166.36943 Y144.45000 F240
G0 X166.36943 Y144.42460 F240
M400
M5
M42 P13 S0 (OFF - LASER)
G00 Z0.25000 ( retract )

G00 X172.05903 Y144.42460 F2000 (rapid move to begin)
F1000.00000
G01 Z0.00000
F2000.00000
G0 X172.05903 Y144.42460 F240
G0 X172.05903 Y134.36620 F240
G0 X174.14183 Y134.36620 F240
G0 X174.14183 Y144.45000 F240
G0 X172.05903 Y144.45000 F240
G0 X172.05903 Y144.42460 F240
M400
M5
M42 P13 S0 (OFF - LASER)
G00 Z0.25000 ( retract )

G00 X176.52943 Y144.42460 F2000 (rapid move to begin)
F1000.00000
G01 Z0.00000
F2000.00000
G0 X176.52943 Y144.42460 F240
G0 X176.52943 Y134.36620 F240
G0 X178.61223 Y134.36620 F240
G0 X178.61223 Y144.45000 F240
G0 X176.52943 Y144.45000 F240
G0 X176.52943 Y144.42460 F240
M400
M5
M42 P13 S0 (OFF - LASER)
G00 Z0.25000 ( retract )

G00 X182.21903 Y144.42460 F2000 (rapid move to begin)
F1000.00000
G01 Z0.00000
F2000.00000
G0 X182.21903 Y144.42460 F240
G0 X182.21903 Y134.36620 F240
G0 X184.30183 Y134.36620 F240
G0 X184.30183 Y144.45000 F240
G0 X182.21903 Y144.45000 F240
G0 X182.21903 Y144.42460 F240
M400
M5
M42 P13 S0 (OFF - LASER)
G00 Z0.25000 ( retract )

G00 X184.78443 Y144.42460 F2000 (rapid move to begin)
F1000.00000
G01 Z0.00000
F2000.00000
G0 X184.78443 Y144.42460 F240
G0 X184.78443 Y134.36620 F240
G0 X186.86723 Y134.36620 F240
G0 X186.86723 Y144.45000 F240
G0 X184.78443 Y144.45000 F240
G0 X184.78443 Y144.42460 F240
M400
M5
M42 P13 S0 (OFF - LASER)
G00 Z0.25000 ( retract )

G00 X190.47403 Y144.42460 F2000 (rapid move to begin)
F1000.00000
G01 Z0.00000
F2000.00000
G0 X190.47403 Y144.42460 F240
G0 X190.47403 Y134.36620 F240
G0 X192.55683 Y134.36620 F240
G0 X192.55683 Y144.45000 F240
G0 X190.47403 Y144.45000 F240
G0 X190.47403 Y144.42460 F240
M400
M5
M42 P13 S0 (OFF - LASER)
G00 Z0.25000 ( retract )

G00 X194.94443 Y144.42460 F2000 (rapid move to begin)
F1000.00000
G01 Z0.00000
F2000.00000
G0 X194.94443 Y144.42460 F240
G0 X194.94443 Y134.36620 F240
G0 X197.02723 Y134.36620 F240
G0 X197.02723 Y144.45000 F240
G0 X194.94443 Y144.45000 F240
G0 X194.94443 Y144.42460 F240
M400
M5
M42 P13 S0 (OFF - LASER)
G00 Z0.25000 ( retract )

G00 X200.63403 Y144.42460 F2000 (rapid move to begin)
F1000.00000
G01 Z0.00000
F2000.00000
G0 X200.63403 Y144.42460 F240
G0 X200.63403 Y134.36620 F240
G0 X202.71683 Y134.36620 F240
G0 X202.71683 Y144.45000 F240
G0 X200.63403 Y144.45000 F240
G0 X200.63403 Y144.42460 F240
M400
M5
M42 P13 S0 (OFF - LASER)
G00 Z0.25000 ( retract )

G00 X203.19943 Y144.42460 F2000 (rapid move to begin)
F1000.00000
G01 Z0.00000
F2000.00000
G0 X203.19943 Y144.42460 F240
G0 X203.19943 Y134.36620 F240
G0 X205.28223 Y134.36620 F240
G0 X205.28223 Y144.45000 F240
G0 X203.19943 Y144.45000 F240
G0 X203.19943 Y144.42460 F240
M400
M5
M42 P13 S0 (OFF - LASER)
G00 Z0.25000 ( retract )

G00 X208.88903 Y144.42460 F2000 (rapid move to begin)
F1000.00000
G01 Z0.00000
F2000.00000
G0 X208.88903 Y144.42460 F240
G0 X208.88903 Y134.36620 F240
G0 X210.97183 Y134.36620 F240
G0 X210.97183 Y144.45000 F240
G0 X208.88903 Y144.45000 F240
G0 X208.88903 Y144.42460 F240
M400
M5
M42 P13 S0 (OFF - LASER)
G00 Z0.25000 ( retract )

G00 X207.61903 Y174.90460 F2000 (rapid move to begin)
F1000.00000
G01 Z0.00000
F2000.00000
G0 X207.61903 Y174.90460 F240
G0 X207.61903 Y164.84620 F240
G0 X209.67643 Y164.84620 F240
G0 X209.67643 Y174.93000 F240
G0 X207.61903 Y174.93000 F240
G0 X207.61903 Y174.90460 F240
M400
M5
M42 P13 S0 (OFF - LASER)
G00 Z0.25000 ( retract )

G00 X201.90403 Y174.90460 F2000 (rapid move to begin)
F1000.00000
G01 Z0.00000
F2000.00000
G0 X201.90403 Y174.90460 F240
G0 X201.90403 Y164.84620 F240
G0 X203.98683 Y164.84620 F240
G0 X203.98683 Y174.93000 F240
G0 X201.90403 Y174.93000 F240
G0 X201.90403 Y174.90460 F240
M400
M5
M42 P13 S0 (OFF - LASER)
G00 Z0.25000 ( retract )

G00 X199.36403 Y174.90460 F2000 (rapid move to begin)
F1000.00000
G01 Z0.00000
F2000.00000
G0 X199.36403 Y174.90460 F240
G0 X199.36403 Y164.84620 F240
G0 X201.42143 Y164.84620 F240
G0 X201.42143 Y174.93000 F240
G0 X199.36403 Y174.93000 F240
G0 X199.36403 Y174.90460 F240
M400
M5
M42 P13 S0 (OFF - LASER)
G00 Z0.25000 ( retract )

G00 X193.64903 Y174.90460 F2000 (rapid move to begin)
F1000.00000
G01 Z0.00000
F2000.00000
G0 X193.64903 Y174.90460 F240
G0 X193.64903 Y164.84620 F240
G0 X195.73183 Y164.84620 F240
G0 X195.73183 Y174.93000 F240
G0 X193.64903 Y174.93000 F240
G0 X193.64903 Y174.90460 F240
M400
M5
M42 P13 S0 (OFF - LASER)
G00 Z0.25000 ( retract )

G00 X189.20403 Y174.90460 F2000 (rapid move to begin)
F1000.00000
G01 Z0.00000
F2000.00000
G0 X189.20403 Y174.90460 F240
G0 X189.20403 Y164.84620 F240
G0 X191.26143 Y164.84620 F240
G0 X191.26143 Y174.93000 F240
G0 X189.20403 Y174.93000 F240
G0 X189.20403 Y174.90460 F240
M400
M5
M42 P13 S0 (OFF - LASER)
G00 Z0.25000 ( retract )

G00 X183.48903 Y174.90460 F2000 (rapid move to begin)
F1000.00000
G01 Z0.00000
F2000.00000
G0 X183.48903 Y174.90460 F240
G0 X183.48903 Y164.84620 F240
G0 X185.57183 Y164.84620 F240
G0 X185.57183 Y174.93000 F240
G0 X183.48903 Y174.93000 F240
G0 X183.48903 Y174.90460 F240
M400
M5
M42 P13 S0 (OFF - LASER)
G00 Z0.25000 ( retract )

G00 X180.94903 Y174.90460 F2000 (rapid move to begin)
F1000.00000
G01 Z0.00000
F2000.00000
G0 X180.94903 Y174.90460 F240
G0 X180.94903 Y164.84620 F240
G0 X183.00643 Y164.84620 F240
G0 X183.00643 Y174.93000 F240
G0 X180.94903 Y174.93000 F240
G0 X180.94903 Y174.90460 F240
M400
M5
M42 P13 S0 (OFF - LASER)
G00 Z0.25000 ( retract )

G00 X175.23403 Y174.90460 F2000 (rapid move to begin)
F1000.00000
G01 Z0.00000
F2000.00000
G0 X175.23403 Y174.90460 F240
G0 X175.23403 Y164.84620 F240
G0 X177.31683 Y164.84620 F240
G0 X177.31683 Y174.93000 F240
G0 X175.23403 Y174.93000 F240
G0 X175.23403 Y174.90460 F240
M400
M5
M42 P13 S0 (OFF - LASER)
G00 Z0.25000 ( retract )

G00 X170.78903 Y174.90460 F2000 (rapid move to begin)
F1000.00000
G01 Z0.00000
F2000.00000
G0 X170.78903 Y174.90460 F240
G0 X170.78903 Y164.84620 F240
G0 X172.84643 Y164.84620 F240
G0 X172.84643 Y174.93000 F240
G0 X170.78903 Y174.93000 F240
G0 X170.78903 Y174.90460 F240
M400
M5
M42 P13 S0 (OFF - LASER)
G00 Z0.25000 ( retract )

G00 X165.07403 Y174.90460 F2000 (rapid move to begin)
F1000.00000
G01 Z0.00000
F2000.00000
G0 X165.07403 Y174.90460 F240
G0 X165.07403 Y164.84620 F240
G0 X167.15683 Y164.84620 F240
G0 X167.15683 Y174.93000 F240
G0 X165.07403 Y174.93000 F240
G0 X165.07403 Y174.90460 F240
M400
M5
M42 P13 S0 (OFF - LASER)
G00 Z0.25000 ( retract )

G00 X162.53403 Y174.90460 F2000 (rapid move to begin)
F1000.00000
G01 Z0.00000
F2000.00000
G0 X162.53403 Y174.90460 F240
G0 X162.53403 Y164.84620 F240
G0 X164.59143 Y164.84620 F240
G0 X164.59143 Y174.93000 F240
G0 X162.53403 Y174.93000 F240
G0 X162.53403 Y174.90460 F240
M400
M5
M42 P13 S0 (OFF - LASER)
G00 Z0.25000 ( retract )

G00 X156.81903 Y174.90460 F2000 (rapid move to begin)
F1000.00000
G01 Z0.00000
F2000.00000
G0 X156.81903 Y174.90460 F240
G0 X156.81903 Y164.84620 F240
G0 X158.90183 Y164.84620 F240
G0 X158.90183 Y174.93000 F240
G0 X156.81903 Y174.93000 F240
G0 X156.81903 Y174.90460 F240
M400
M5
M42 P13 S0 (OFF - LASER)
G00 Z0.25000 ( retract )

G00 X152.37403 Y174.90460 F2000 (rapid move to begin)
F1000.00000
G01 Z0.00000
F2000.00000
G0 X152.37403 Y174.90460 F240
G0 X152.37403 Y164.84620 F240
G0 X154.43143 Y164.84620 F240
G0 X154.43143 Y174.93000 F240
G0 X152.37403 Y174.93000 F240
G0 X152.37403 Y174.90460 F240
M400
M5
M42 P13 S0 (OFF - LASER)
G00 Z0.25000 ( retract )

G00 X146.65903 Y174.90460 F2000 (rapid move to begin)
F1000.00000
G01 Z0.00000
F2000.00000
G0 X146.65903 Y174.90460 F240
G0 X146.65903 Y164.84620 F240
G0 X148.74183 Y164.84620 F240
G0 X148.74183 Y174.93000 F240
G0 X146.65903 Y174.93000 F240
G0 X146.65903 Y174.90460 F240
M400
M5
M42 P13 S0 (OFF - LASER)
G00 Z0.25000 ( retract )

G00 X144.11903 Y174.90460 F2000 (rapid move to begin)
F1000.00000
G01 Z0.00000
F2000.00000
G0 X144.11903 Y174.90460 F240
G0 X144.11903 Y164.84620 F240
G0 X146.17643 Y164.84620 F240
G0 X146.17643 Y174.93000 F240
G0 X144.11903 Y174.93000 F240
G0 X144.11903 Y174.90460 F240
M400
M5
M42 P13 S0 (OFF - LASER)
G00 Z0.25000 ( retract )

G00 X138.40403 Y174.90460 F2000 (rapid move to begin)
F1000.00000
G01 Z0.00000
F2000.00000
G0 X138.40403 Y174.90460 F240
G0 X138.40403 Y164.84620 F240
G0 X140.48683 Y164.84620 F240
G0 X140.48683 Y174.93000 F240
G0 X138.40403 Y174.93000 F240
G0 X138.40403 Y174.90460 F240
M400
M5
M42 P13 S0 (OFF - LASER)
G00 Z0.25000 ( retract )

G00 X133.95903 Y174.90460 F2000 (rapid move to begin)
F1000.00000
G01 Z0.00000
F2000.00000
G0 X133.95903 Y174.90460 F240
G0 X133.95903 Y164.84620 F240
G0 X136.01643 Y164.84620 F240
G0 X136.01643 Y174.93000 F240
G0 X133.95903 Y174.93000 F240
G0 X133.95903 Y174.90460 F240
M400
M5
M42 P13 S0 (OFF - LASER)
G00 Z0.25000 ( retract )

G00 X128.24403 Y174.90460 F2000 (rapid move to begin)
F1000.00000
G01 Z0.00000
F2000.00000
G0 X128.24403 Y174.90460 F240
G0 X128.24403 Y164.84620 F240
G0 X130.32683 Y164.84620 F240
G0 X130.32683 Y174.93000 F240
G0 X128.24403 Y174.93000 F240
G0 X128.24403 Y174.90460 F240
M400
M5
M42 P13 S0 (OFF - LASER)
G00 Z0.25000 ( retract )

G00 X125.70403 Y174.90460 F2000 (rapid move to begin)
F1000.00000
G01 Z0.00000
F2000.00000
G0 X125.70403 Y174.90460 F240
G0 X125.70403 Y164.84620 F240
G0 X127.76143 Y164.84620 F240
G0 X127.76143 Y174.93000 F240
G0 X125.70403 Y174.93000 F240
G0 X125.70403 Y174.90460 F240
M400
M5
M42 P13 S0 (OFF - LASER)
G00 Z0.25000 ( retract )

G00 X119.98903 Y174.90460 F2000 (rapid move to begin)
F1000.00000
G01 Z0.00000
F2000.00000
G0 X119.98903 Y174.90460 F240
G0 X119.98903 Y164.84620 F240
G0 X122.07183 Y164.84620 F240
G0 X122.07183 Y174.93000 F240
G0 X119.98903 Y174.93000 F240
G0 X119.98903 Y174.90460 F240
M400
M5
M42 P13 S0 (OFF - LASER)
G00 Z0.25000 ( retract )

G00 X115.54403 Y174.90460 F2000 (rapid move to begin)
F1000.00000
G01 Z0.00000
F2000.00000
G0 X115.54403 Y174.90460 F240
G0 X115.54403 Y164.84620 F240
G0 X117.60143 Y164.84620 F240
G0 X117.60143 Y174.93000 F240
G0 X115.54403 Y174.93000 F240
G0 X115.54403 Y174.90460 F240
M400
M5
M42 P13 S0 (OFF - LASER)
G00 Z0.25000 ( retract )

G00 X109.82903 Y174.90460 F2000 (rapid move to begin)
F1000.00000
G01 Z0.00000
F2000.00000
G0 X109.82903 Y174.90460 F240
G0 X109.82903 Y164.84620 F240
G0 X111.91183 Y164.84620 F240
G0 X111.91183 Y174.93000 F240
G0 X109.82903 Y174.93000 F240
G0 X109.82903 Y174.90460 F240
M400
M5
M42 P13 S0 (OFF - LASER)
G00 Z0.25000 ( retract )

G00 X107.28903 Y174.90460 F2000 (rapid move to begin)
F1000.00000
G01 Z0.00000
F2000.00000
G0 X107.28903 Y174.90460 F240
G0 X107.28903 Y164.84620 F240
G0 X109.34643 Y164.84620 F240
G0 X109.34643 Y174.93000 F240
G0 X107.28903 Y174.93000 F240
G0 X107.28903 Y174.90460 F240
M400
M5
M42 P13 S0 (OFF - LASER)
G00 Z0.25000 ( retract )

G00 X101.57403 Y174.90460 F2000 (rapid move to begin)
F1000.00000
G01 Z0.00000
F2000.00000
G0 X101.57403 Y174.90460 F240
G0 X101.57403 Y164.84620 F240
G0 X103.65683 Y164.84620 F240
G0 X103.65683 Y174.93000 F240
G0 X101.57403 Y174.93000 F240
G0 X101.57403 Y174.90460 F240
M400
M5
M42 P13 S0 (OFF - LASER)
G00 Z0.25000 ( retract )

G00 X114.50263 Y192.37980 F2000 (rapid move to begin)
F1000.00000
G01 Z0.00000
F2000.00000
G0 X114.50263 Y192.37980 F240
G0 X114.50263 Y191.82100 F240
G0 X114.88363 Y191.82100 F240
G0 X114.88363 Y192.40520 F240
G0 X114.50263 Y192.40520 F240
G0 X114.50263 Y192.37980 F240
M400
M5
M42 P13 S0 (OFF - LASER)
G00 Z0.25000 ( retract )

G00 X115.29003 Y192.37980 F2000 (rapid move to begin)
F1000.00000
G01 Z0.00000
F2000.00000
G0 X115.29003 Y192.37980 F240
G0 X115.29003 Y191.82100 F240
G0 X115.67103 Y191.82100 F240
G0 X115.67103 Y192.40520 F240
G0 X115.29003 Y192.40520 F240
G0 X115.29003 Y192.37980 F240
M400
M5
M42 P13 S0 (OFF - LASER)
G00 Z0.25000 ( retract )

G00 X151.33263 Y192.37980 F2000 (rapid move to begin)
F1000.00000
G01 Z0.00000
F2000.00000
G0 X151.33263 Y192.37980 F240
G0 X151.33263 Y191.82100 F240
G0 X151.71363 Y191.82100 F240
G0 X151.71363 Y192.40520 F240
G0 X151.33263 Y192.40520 F240
G0 X151.33263 Y192.37980 F240
M400
M5
M42 P13 S0 (OFF - LASER)
G00 Z0.25000 ( retract )

G00 X152.12003 Y192.37980 F2000 (rapid move to begin)
F1000.00000
G01 Z0.00000
F2000.00000
G0 X152.12003 Y192.37980 F240
G0 X152.12003 Y191.82100 F240
G0 X152.50103 Y191.82100 F240
G0 X152.50103 Y192.40520 F240
G0 X152.12003 Y192.40520 F240
G0 X152.12003 Y192.37980 F240
M400
M5
M42 P13 S0 (OFF - LASER)
G00 Z0.25000 ( retract )

G00 X188.16263 Y192.37980 F2000 (rapid move to begin)
F1000.00000
G01 Z0.00000
F2000.00000
G0 X188.16263 Y192.37980 F240
G0 X188.16263 Y191.82100 F240
G0 X188.54363 Y191.82100 F240
G0 X188.54363 Y192.40520 F240
G0 X188.16263 Y192.40520 F240
G0 X188.16263 Y192.37980 F240
M400
M5
M42 P13 S0 (OFF - LASER)
G00 Z0.25000 ( retract )

G00 X188.95003 Y192.37980 F2000 (rapid move to begin)
F1000.00000
G01 Z0.00000
F2000.00000
G0 X188.95003 Y192.37980 F240
G0 X188.95003 Y191.82100 F240
G0 X189.33103 Y191.82100 F240
G0 X189.33103 Y192.40520 F240
G0 X188.95003 Y192.40520 F240
G0 X188.95003 Y192.37980 F240
M400
M5
M42 P13 S0 (OFF - LASER)
G00 Z0.25000 ( retract )

G00 X203.19943 Y204.74960 F2000 (rapid move to begin)
F1000.00000
G01 Z0.00000
F2000.00000
G0 X203.19943 Y204.74960 F240
G0 X203.19943 Y194.69120 F240
G0 X205.28223 Y194.69120 F240
G0 X205.28223 Y204.77500 F240
G0 X203.19943 Y204.77500 F240
G0 X203.19943 Y204.74960 F240
M400
M5
M42 P13 S0 (OFF - LASER)
G00 Z0.25000 ( retract )

G00 X208.88903 Y204.74960 F2000 (rapid move to begin)
F1000.00000
G01 Z0.00000
F2000.00000
G0 X208.88903 Y204.74960 F240
G0 X208.88903 Y194.69120 F240
G0 X210.97183 Y194.69120 F240
G0 X210.97183 Y204.77500 F240
G0 X208.88903 Y204.77500 F240
G0 X208.88903 Y204.74960 F240
M400
M5
M42 P13 S0 (OFF - LASER)
G00 Z0.25000 ( retract )

G00 X240.23263 Y194.91980 F2000 (rapid move to begin)
F1000.00000
G01 Z0.00000
F2000.00000
G0 X240.23263 Y194.91980 F240
G0 X240.23263 Y194.36100 F240
G0 X240.61363 Y194.36100 F240
G0 X240.61363 Y194.94520 F240
G0 X240.23263 Y194.94520 F240
G0 X240.23263 Y194.91980 F240
M400
M5
M42 P13 S0 (OFF - LASER)
G00 Z0.25000 ( retract )

G00 X241.02003 Y194.91980 F2000 (rapid move to begin)
F1000.00000
G01 Z0.00000
F2000.00000
G0 X241.02003 Y194.91980 F240
G0 X241.02003 Y194.36100 F240
G0 X241.40103 Y194.36100 F240
G0 X241.40103 Y194.94520 F240
G0 X241.02003 Y194.94520 F240
G0 X241.02003 Y194.91980 F240

M400
M5
M42 P13 S0 (OFF - LASER)
G00 Z0.25000 ( retract )

M5 ( Spindle off. )
M9 ( Coolant off. )

M106 S0 (Fan off.)
