M106 S255 (Fan on.)
G0 x100 y100 f2000 (  Set origin and speed.  )
( pcb2gcode 1.2.2 )
( Software-independent Gcode )





S10000 ( RPM spindle speed. )
G64 P0.00200 ( set maximum deviation from commanded toolpath )
F2000.00000 ( Feedrate. )

F2000.00000 ( Feedrate. )
M400
M5
M42 P13 S0 (OFF - LASER)
G00 Z0.25000 ( retract )

G00 X102.89483 Y144.39920 F2000 (rapid move to begin)
F1000.00000
G01 Z0.00000
F2000.00000
G0 X102.89483 Y144.39920 F240
G0 X102.89483 Y134.39160 F240
G0 X104.92683 Y134.39160 F240
G0 X104.92683 Y144.42460 F240
G0 X102.89483 Y144.42460 F240
G0 X102.89483 Y144.39920 F240
M400
M5
M42 P13 S0 (OFF - LASER)
G00 Z0.25000 ( retract )

G00 X108.58443 Y144.39920 F2000 (rapid move to begin)
F1000.00000
G01 Z0.00000
F2000.00000
G0 X108.58443 Y144.39920 F240
G0 X108.58443 Y134.39160 F240
G0 X110.61643 Y134.39160 F240
G0 X110.61643 Y144.42460 F240
G0 X108.58443 Y144.42460 F240
G0 X108.58443 Y144.39920 F240
M400
M5
M42 P13 S0 (OFF - LASER)
G00 Z0.25000 ( retract )

G00 X111.14983 Y144.39920 F2000 (rapid move to begin)
F1000.00000
G01 Z0.00000
F2000.00000
G0 X111.14983 Y144.39920 F240
G0 X111.14983 Y134.39160 F240
G0 X113.18183 Y134.39160 F240
G0 X113.18183 Y144.42460 F240
G0 X111.14983 Y144.42460 F240
G0 X111.14983 Y144.39920 F240
M400
M5
M42 P13 S0 (OFF - LASER)
G00 Z0.25000 ( retract )

G00 X116.83943 Y144.39920 F2000 (rapid move to begin)
F1000.00000
G01 Z0.00000
F2000.00000
G0 X116.83943 Y144.39920 F240
G0 X116.83943 Y134.39160 F240
G0 X118.87143 Y134.39160 F240
G0 X118.87143 Y144.42460 F240
G0 X116.83943 Y144.42460 F240
G0 X116.83943 Y144.39920 F240
M400
M5
M42 P13 S0 (OFF - LASER)
G00 Z0.25000 ( retract )

G00 X121.30983 Y144.39920 F2000 (rapid move to begin)
F1000.00000
G01 Z0.00000
F2000.00000
G0 X121.30983 Y144.39920 F240
G0 X121.30983 Y134.39160 F240
G0 X123.34183 Y134.39160 F240
G0 X123.34183 Y144.42460 F240
G0 X121.30983 Y144.42460 F240
G0 X121.30983 Y144.39920 F240
M400
M5
M42 P13 S0 (OFF - LASER)
G00 Z0.25000 ( retract )

G00 X126.99943 Y144.39920 F2000 (rapid move to begin)
F1000.00000
G01 Z0.00000
F2000.00000
G0 X126.99943 Y144.39920 F240
G0 X126.99943 Y134.39160 F240
G0 X129.03143 Y134.39160 F240
G0 X129.03143 Y144.42460 F240
G0 X126.99943 Y144.42460 F240
G0 X126.99943 Y144.39920 F240
M400
M5
M42 P13 S0 (OFF - LASER)
G00 Z0.25000 ( retract )

G00 X129.56483 Y144.39920 F2000 (rapid move to begin)
F1000.00000
G01 Z0.00000
F2000.00000
G0 X129.56483 Y144.39920 F240
G0 X129.56483 Y134.39160 F240
G0 X131.59683 Y134.39160 F240
G0 X131.59683 Y144.42460 F240
G0 X129.56483 Y144.42460 F240
G0 X129.56483 Y144.39920 F240
M400
M5
M42 P13 S0 (OFF - LASER)
G00 Z0.25000 ( retract )

G00 X135.25443 Y144.39920 F2000 (rapid move to begin)
F1000.00000
G01 Z0.00000
F2000.00000
G0 X135.25443 Y144.39920 F240
G0 X135.25443 Y134.39160 F240
G0 X137.28643 Y134.39160 F240
G0 X137.28643 Y144.42460 F240
G0 X135.25443 Y144.42460 F240
G0 X135.25443 Y144.39920 F240
M400
M5
M42 P13 S0 (OFF - LASER)
G00 Z0.25000 ( retract )

G00 X139.72483 Y144.39920 F2000 (rapid move to begin)
F1000.00000
G01 Z0.00000
F2000.00000
G0 X139.72483 Y144.39920 F240
G0 X139.72483 Y134.39160 F240
G0 X141.75683 Y134.39160 F240
G0 X141.75683 Y144.42460 F240
G0 X139.72483 Y144.42460 F240
G0 X139.72483 Y144.39920 F240
M400
M5
M42 P13 S0 (OFF - LASER)
G00 Z0.25000 ( retract )

G00 X145.41443 Y144.39920 F2000 (rapid move to begin)
F1000.00000
G01 Z0.00000
F2000.00000
G0 X145.41443 Y144.39920 F240
G0 X145.41443 Y134.39160 F240
G0 X147.44643 Y134.39160 F240
G0 X147.44643 Y144.42460 F240
G0 X145.41443 Y144.42460 F240
G0 X145.41443 Y144.39920 F240
M400
M5
M42 P13 S0 (OFF - LASER)
G00 Z0.25000 ( retract )

G00 X147.97983 Y144.39920 F2000 (rapid move to begin)
F1000.00000
G01 Z0.00000
F2000.00000
G0 X147.97983 Y144.39920 F240
G0 X147.97983 Y134.39160 F240
G0 X150.01183 Y134.39160 F240
G0 X150.01183 Y144.42460 F240
G0 X147.97983 Y144.42460 F240
G0 X147.97983 Y144.39920 F240
M400
M5
M42 P13 S0 (OFF - LASER)
G00 Z0.25000 ( retract )

G00 X153.66943 Y144.39920 F2000 (rapid move to begin)
F1000.00000
G01 Z0.00000
F2000.00000
G0 X153.66943 Y144.39920 F240
G0 X153.66943 Y134.39160 F240
G0 X155.70143 Y134.39160 F240
G0 X155.70143 Y144.42460 F240
G0 X153.66943 Y144.42460 F240
G0 X153.66943 Y144.39920 F240
M400
M5
M42 P13 S0 (OFF - LASER)
G00 Z0.25000 ( retract )

G00 X158.13983 Y144.39920 F2000 (rapid move to begin)
F1000.00000
G01 Z0.00000
F2000.00000
G0 X158.13983 Y144.39920 F240
G0 X158.13983 Y134.39160 F240
G0 X160.17183 Y134.39160 F240
G0 X160.17183 Y144.42460 F240
G0 X158.13983 Y144.42460 F240
G0 X158.13983 Y144.39920 F240
M400
M5
M42 P13 S0 (OFF - LASER)
G00 Z0.25000 ( retract )

G00 X163.82943 Y144.39920 F2000 (rapid move to begin)
F1000.00000
G01 Z0.00000
F2000.00000
G0 X163.82943 Y144.39920 F240
G0 X163.82943 Y134.39160 F240
G0 X165.86143 Y134.39160 F240
G0 X165.86143 Y144.42460 F240
G0 X163.82943 Y144.42460 F240
G0 X163.82943 Y144.39920 F240
M400
M5
M42 P13 S0 (OFF - LASER)
G00 Z0.25000 ( retract )

G00 X166.39483 Y144.39920 F2000 (rapid move to begin)
F1000.00000
G01 Z0.00000
F2000.00000
G0 X166.39483 Y144.39920 F240
G0 X166.39483 Y134.39160 F240
G0 X168.42683 Y134.39160 F240
G0 X168.42683 Y144.42460 F240
G0 X166.39483 Y144.42460 F240
G0 X166.39483 Y144.39920 F240
M400
M5
M42 P13 S0 (OFF - LASER)
G00 Z0.25000 ( retract )

G00 X172.08443 Y144.39920 F2000 (rapid move to begin)
F1000.00000
G01 Z0.00000
F2000.00000
G0 X172.08443 Y144.39920 F240
G0 X172.08443 Y134.39160 F240
G0 X174.11643 Y134.39160 F240
G0 X174.11643 Y144.42460 F240
G0 X172.08443 Y144.42460 F240
G0 X172.08443 Y144.39920 F240
M400
M5
M42 P13 S0 (OFF - LASER)
G00 Z0.25000 ( retract )

G00 X176.55483 Y144.39920 F2000 (rapid move to begin)
F1000.00000
G01 Z0.00000
F2000.00000
G0 X176.55483 Y144.39920 F240
G0 X176.55483 Y134.39160 F240
G0 X178.58683 Y134.39160 F240
G0 X178.58683 Y144.42460 F240
G0 X176.55483 Y144.42460 F240
G0 X176.55483 Y144.39920 F240
M400
M5
M42 P13 S0 (OFF - LASER)
G00 Z0.25000 ( retract )

G00 X182.24443 Y144.39920 F2000 (rapid move to begin)
F1000.00000
G01 Z0.00000
F2000.00000
G0 X182.24443 Y144.39920 F240
G0 X182.24443 Y134.39160 F240
G0 X184.27643 Y134.39160 F240
G0 X184.27643 Y144.42460 F240
G0 X182.24443 Y144.42460 F240
G0 X182.24443 Y144.39920 F240
M400
M5
M42 P13 S0 (OFF - LASER)
G00 Z0.25000 ( retract )

G00 X184.80983 Y144.39920 F2000 (rapid move to begin)
F1000.00000
G01 Z0.00000
F2000.00000
G0 X184.80983 Y144.39920 F240
G0 X184.80983 Y134.39160 F240
G0 X186.84183 Y134.39160 F240
G0 X186.84183 Y144.42460 F240
G0 X184.80983 Y144.42460 F240
G0 X184.80983 Y144.39920 F240
M400
M5
M42 P13 S0 (OFF - LASER)
G00 Z0.25000 ( retract )

G00 X190.49943 Y144.39920 F2000 (rapid move to begin)
F1000.00000
G01 Z0.00000
F2000.00000
G0 X190.49943 Y144.39920 F240
G0 X190.49943 Y134.39160 F240
G0 X192.53143 Y134.39160 F240
G0 X192.53143 Y144.42460 F240
G0 X190.49943 Y144.42460 F240
G0 X190.49943 Y144.39920 F240
M400
M5
M42 P13 S0 (OFF - LASER)
G00 Z0.25000 ( retract )

G00 X194.96983 Y144.39920 F2000 (rapid move to begin)
F1000.00000
G01 Z0.00000
F2000.00000
G0 X194.96983 Y144.39920 F240
G0 X194.96983 Y134.39160 F240
G0 X197.00183 Y134.39160 F240
G0 X197.00183 Y144.42460 F240
G0 X194.96983 Y144.42460 F240
G0 X194.96983 Y144.39920 F240
M400
M5
M42 P13 S0 (OFF - LASER)
G00 Z0.25000 ( retract )

G00 X200.65943 Y144.39920 F2000 (rapid move to begin)
F1000.00000
G01 Z0.00000
F2000.00000
G0 X200.65943 Y144.39920 F240
G0 X200.65943 Y134.39160 F240
G0 X202.69143 Y134.39160 F240
G0 X202.69143 Y144.42460 F240
G0 X200.65943 Y144.42460 F240
G0 X200.65943 Y144.39920 F240
M400
M5
M42 P13 S0 (OFF - LASER)
G00 Z0.25000 ( retract )

G00 X203.22483 Y144.39920 F2000 (rapid move to begin)
F1000.00000
G01 Z0.00000
F2000.00000
G0 X203.22483 Y144.39920 F240
G0 X203.22483 Y134.39160 F240
G0 X205.25683 Y134.39160 F240
G0 X205.25683 Y144.42460 F240
G0 X203.22483 Y144.42460 F240
G0 X203.22483 Y144.39920 F240
M400
M5
M42 P13 S0 (OFF - LASER)
G00 Z0.25000 ( retract )

G00 X208.91443 Y144.39920 F2000 (rapid move to begin)
F1000.00000
G01 Z0.00000
F2000.00000
G0 X208.91443 Y144.39920 F240
G0 X208.91443 Y134.39160 F240
G0 X210.94643 Y134.39160 F240
G0 X210.94643 Y144.42460 F240
G0 X208.91443 Y144.42460 F240
G0 X208.91443 Y144.39920 F240
M400
M5
M42 P13 S0 (OFF - LASER)
G00 Z0.25000 ( retract )

G00 X207.64443 Y174.87920 F2000 (rapid move to begin)
F1000.00000
G01 Z0.00000
F2000.00000
G0 X207.64443 Y174.87920 F240
G0 X207.64443 Y164.87160 F240
G0 X209.65103 Y164.87160 F240
G0 X209.65103 Y174.90460 F240
G0 X207.64443 Y174.90460 F240
G0 X207.64443 Y174.87920 F240
M400
M5
M42 P13 S0 (OFF - LASER)
G00 Z0.25000 ( retract )

G00 X201.92943 Y174.87920 F2000 (rapid move to begin)
F1000.00000
G01 Z0.00000
F2000.00000
G0 X201.92943 Y174.87920 F240
G0 X201.92943 Y164.87160 F240
G0 X203.96143 Y164.87160 F240
G0 X203.96143 Y174.90460 F240
G0 X201.92943 Y174.90460 F240
G0 X201.92943 Y174.87920 F240
M400
M5
M42 P13 S0 (OFF - LASER)
G00 Z0.25000 ( retract )

G00 X199.38943 Y174.87920 F2000 (rapid move to begin)
F1000.00000
G01 Z0.00000
F2000.00000
G0 X199.38943 Y174.87920 F240
G0 X199.38943 Y164.87160 F240
G0 X201.39603 Y164.87160 F240
G0 X201.39603 Y174.90460 F240
G0 X199.38943 Y174.90460 F240
G0 X199.38943 Y174.87920 F240
M400
M5
M42 P13 S0 (OFF - LASER)
G00 Z0.25000 ( retract )

G00 X193.67443 Y174.87920 F2000 (rapid move to begin)
F1000.00000
G01 Z0.00000
F2000.00000
G0 X193.67443 Y174.87920 F240
G0 X193.67443 Y164.87160 F240
G0 X195.70643 Y164.87160 F240
G0 X195.70643 Y174.90460 F240
G0 X193.67443 Y174.90460 F240
G0 X193.67443 Y174.87920 F240
M400
M5
M42 P13 S0 (OFF - LASER)
G00 Z0.25000 ( retract )

G00 X189.22943 Y174.87920 F2000 (rapid move to begin)
F1000.00000
G01 Z0.00000
F2000.00000
G0 X189.22943 Y174.87920 F240
G0 X189.22943 Y164.87160 F240
G0 X191.23603 Y164.87160 F240
G0 X191.23603 Y174.90460 F240
G0 X189.22943 Y174.90460 F240
G0 X189.22943 Y174.87920 F240
M400
M5
M42 P13 S0 (OFF - LASER)
G00 Z0.25000 ( retract )

G00 X183.51443 Y174.87920 F2000 (rapid move to begin)
F1000.00000
G01 Z0.00000
F2000.00000
G0 X183.51443 Y174.87920 F240
G0 X183.51443 Y164.87160 F240
G0 X185.54643 Y164.87160 F240
G0 X185.54643 Y174.90460 F240
G0 X183.51443 Y174.90460 F240
G0 X183.51443 Y174.87920 F240
M400
M5
M42 P13 S0 (OFF - LASER)
G00 Z0.25000 ( retract )

G00 X180.97443 Y174.87920 F2000 (rapid move to begin)
F1000.00000
G01 Z0.00000
F2000.00000
G0 X180.97443 Y174.87920 F240
G0 X180.97443 Y164.87160 F240
G0 X182.98103 Y164.87160 F240
G0 X182.98103 Y174.90460 F240
G0 X180.97443 Y174.90460 F240
G0 X180.97443 Y174.87920 F240
M400
M5
M42 P13 S0 (OFF - LASER)
G00 Z0.25000 ( retract )

G00 X175.25943 Y174.87920 F2000 (rapid move to begin)
F1000.00000
G01 Z0.00000
F2000.00000
G0 X175.25943 Y174.87920 F240
G0 X175.25943 Y164.87160 F240
G0 X177.29143 Y164.87160 F240
G0 X177.29143 Y174.90460 F240
G0 X175.25943 Y174.90460 F240
G0 X175.25943 Y174.87920 F240
M400
M5
M42 P13 S0 (OFF - LASER)
G00 Z0.25000 ( retract )

G00 X170.81443 Y174.87920 F2000 (rapid move to begin)
F1000.00000
G01 Z0.00000
F2000.00000
G0 X170.81443 Y174.87920 F240
G0 X170.81443 Y164.87160 F240
G0 X172.82103 Y164.87160 F240
G0 X172.82103 Y174.90460 F240
G0 X170.81443 Y174.90460 F240
G0 X170.81443 Y174.87920 F240
M400
M5
M42 P13 S0 (OFF - LASER)
G00 Z0.25000 ( retract )

G00 X165.09943 Y174.87920 F2000 (rapid move to begin)
F1000.00000
G01 Z0.00000
F2000.00000
G0 X165.09943 Y174.87920 F240
G0 X165.09943 Y164.87160 F240
G0 X167.13143 Y164.87160 F240
G0 X167.13143 Y174.90460 F240
G0 X165.09943 Y174.90460 F240
G0 X165.09943 Y174.87920 F240
M400
M5
M42 P13 S0 (OFF - LASER)
G00 Z0.25000 ( retract )

G00 X162.55943 Y174.87920 F2000 (rapid move to begin)
F1000.00000
G01 Z0.00000
F2000.00000
G0 X162.55943 Y174.87920 F240
G0 X162.55943 Y164.87160 F240
G0 X164.56603 Y164.87160 F240
G0 X164.56603 Y174.90460 F240
G0 X162.55943 Y174.90460 F240
G0 X162.55943 Y174.87920 F240
M400
M5
M42 P13 S0 (OFF - LASER)
G00 Z0.25000 ( retract )

G00 X156.84443 Y174.87920 F2000 (rapid move to begin)
F1000.00000
G01 Z0.00000
F2000.00000
G0 X156.84443 Y174.87920 F240
G0 X156.84443 Y164.87160 F240
G0 X158.87643 Y164.87160 F240
G0 X158.87643 Y174.90460 F240
G0 X156.84443 Y174.90460 F240
G0 X156.84443 Y174.87920 F240
M400
M5
M42 P13 S0 (OFF - LASER)
G00 Z0.25000 ( retract )

G00 X152.39943 Y174.87920 F2000 (rapid move to begin)
F1000.00000
G01 Z0.00000
F2000.00000
G0 X152.39943 Y174.87920 F240
G0 X152.39943 Y164.87160 F240
G0 X154.40603 Y164.87160 F240
G0 X154.40603 Y174.90460 F240
G0 X152.39943 Y174.90460 F240
G0 X152.39943 Y174.87920 F240
M400
M5
M42 P13 S0 (OFF - LASER)
G00 Z0.25000 ( retract )

G00 X146.68443 Y174.87920 F2000 (rapid move to begin)
F1000.00000
G01 Z0.00000
F2000.00000
G0 X146.68443 Y174.87920 F240
G0 X146.68443 Y164.87160 F240
G0 X148.71643 Y164.87160 F240
G0 X148.71643 Y174.90460 F240
G0 X146.68443 Y174.90460 F240
G0 X146.68443 Y174.87920 F240
M400
M5
M42 P13 S0 (OFF - LASER)
G00 Z0.25000 ( retract )

G00 X144.14443 Y174.87920 F2000 (rapid move to begin)
F1000.00000
G01 Z0.00000
F2000.00000
G0 X144.14443 Y174.87920 F240
G0 X144.14443 Y164.87160 F240
G0 X146.15103 Y164.87160 F240
G0 X146.15103 Y174.90460 F240
G0 X144.14443 Y174.90460 F240
G0 X144.14443 Y174.87920 F240
M400
M5
M42 P13 S0 (OFF - LASER)
G00 Z0.25000 ( retract )

G00 X138.42943 Y174.87920 F2000 (rapid move to begin)
F1000.00000
G01 Z0.00000
F2000.00000
G0 X138.42943 Y174.87920 F240
G0 X138.42943 Y164.87160 F240
G0 X140.46143 Y164.87160 F240
G0 X140.46143 Y174.90460 F240
G0 X138.42943 Y174.90460 F240
G0 X138.42943 Y174.87920 F240
M400
M5
M42 P13 S0 (OFF - LASER)
G00 Z0.25000 ( retract )

G00 X133.98443 Y174.87920 F2000 (rapid move to begin)
F1000.00000
G01 Z0.00000
F2000.00000
G0 X133.98443 Y174.87920 F240
G0 X133.98443 Y164.87160 F240
G0 X135.99103 Y164.87160 F240
G0 X135.99103 Y174.90460 F240
G0 X133.98443 Y174.90460 F240
G0 X133.98443 Y174.87920 F240
M400
M5
M42 P13 S0 (OFF - LASER)
G00 Z0.25000 ( retract )

G00 X128.26943 Y174.87920 F2000 (rapid move to begin)
F1000.00000
G01 Z0.00000
F2000.00000
G0 X128.26943 Y174.87920 F240
G0 X128.26943 Y164.87160 F240
G0 X130.30143 Y164.87160 F240
G0 X130.30143 Y174.90460 F240
G0 X128.26943 Y174.90460 F240
G0 X128.26943 Y174.87920 F240
M400
M5
M42 P13 S0 (OFF - LASER)
G00 Z0.25000 ( retract )

G00 X125.72943 Y174.87920 F2000 (rapid move to begin)
F1000.00000
G01 Z0.00000
F2000.00000
G0 X125.72943 Y174.87920 F240
G0 X125.72943 Y164.87160 F240
G0 X127.73603 Y164.87160 F240
G0 X127.73603 Y174.90460 F240
G0 X125.72943 Y174.90460 F240
G0 X125.72943 Y174.87920 F240
M400
M5
M42 P13 S0 (OFF - LASER)
G00 Z0.25000 ( retract )

G00 X120.01443 Y174.87920 F2000 (rapid move to begin)
F1000.00000
G01 Z0.00000
F2000.00000
G0 X120.01443 Y174.87920 F240
G0 X120.01443 Y164.87160 F240
G0 X122.04643 Y164.87160 F240
G0 X122.04643 Y174.90460 F240
G0 X120.01443 Y174.90460 F240
G0 X120.01443 Y174.87920 F240
M400
M5
M42 P13 S0 (OFF - LASER)
G00 Z0.25000 ( retract )

G00 X115.56943 Y174.87920 F2000 (rapid move to begin)
F1000.00000
G01 Z0.00000
F2000.00000
G0 X115.56943 Y174.87920 F240
G0 X115.56943 Y164.87160 F240
G0 X117.57603 Y164.87160 F240
G0 X117.57603 Y174.90460 F240
G0 X115.56943 Y174.90460 F240
G0 X115.56943 Y174.87920 F240
M400
M5
M42 P13 S0 (OFF - LASER)
G00 Z0.25000 ( retract )

G00 X109.85443 Y174.87920 F2000 (rapid move to begin)
F1000.00000
G01 Z0.00000
F2000.00000
G0 X109.85443 Y174.87920 F240
G0 X109.85443 Y164.87160 F240
G0 X111.88643 Y164.87160 F240
G0 X111.88643 Y174.90460 F240
G0 X109.85443 Y174.90460 F240
G0 X109.85443 Y174.87920 F240
M400
M5
M42 P13 S0 (OFF - LASER)
G00 Z0.25000 ( retract )

G00 X107.31443 Y174.87920 F2000 (rapid move to begin)
F1000.00000
G01 Z0.00000
F2000.00000
G0 X107.31443 Y174.87920 F240
G0 X107.31443 Y164.87160 F240
G0 X109.32103 Y164.87160 F240
G0 X109.32103 Y174.90460 F240
G0 X107.31443 Y174.90460 F240
G0 X107.31443 Y174.87920 F240
M400
M5
M42 P13 S0 (OFF - LASER)
G00 Z0.25000 ( retract )

G00 X101.59943 Y174.87920 F2000 (rapid move to begin)
F1000.00000
G01 Z0.00000
F2000.00000
G0 X101.59943 Y174.87920 F240
G0 X101.59943 Y164.87160 F240
G0 X103.63143 Y164.87160 F240
G0 X103.63143 Y174.90460 F240
G0 X101.59943 Y174.90460 F240
G0 X101.59943 Y174.87920 F240
M400
M5
M42 P13 S0 (OFF - LASER)
G00 Z0.25000 ( retract )

G00 X114.52803 Y192.35440 F2000 (rapid move to begin)
F1000.00000
G01 Z0.00000
F2000.00000
G0 X114.52803 Y192.35440 F240
G0 X114.52803 Y191.84640 F240
G0 X114.85823 Y191.84640 F240
G0 X114.85823 Y192.37980 F240
G0 X114.52803 Y192.37980 F240
G0 X114.52803 Y192.35440 F240
M400
M5
M42 P13 S0 (OFF - LASER)
G00 Z0.25000 ( retract )

G00 X115.31543 Y192.35440 F2000 (rapid move to begin)
F1000.00000
G01 Z0.00000
F2000.00000
G0 X115.31543 Y192.35440 F240
G0 X115.31543 Y191.84640 F240
G0 X115.64563 Y191.84640 F240
G0 X115.64563 Y192.37980 F240
G0 X115.31543 Y192.37980 F240
G0 X115.31543 Y192.35440 F240
M400
M5
M42 P13 S0 (OFF - LASER)
G00 Z0.25000 ( retract )

G00 X151.35803 Y192.35440 F2000 (rapid move to begin)
F1000.00000
G01 Z0.00000
F2000.00000
G0 X151.35803 Y192.35440 F240
G0 X151.35803 Y191.84640 F240
G0 X151.68823 Y191.84640 F240
G0 X151.68823 Y192.37980 F240
G0 X151.35803 Y192.37980 F240
G0 X151.35803 Y192.35440 F240
M400
M5
M42 P13 S0 (OFF - LASER)
G00 Z0.25000 ( retract )

G00 X152.14543 Y192.35440 F2000 (rapid move to begin)
F1000.00000
G01 Z0.00000
F2000.00000
G0 X152.14543 Y192.35440 F240
G0 X152.14543 Y191.84640 F240
G0 X152.47563 Y191.84640 F240
G0 X152.47563 Y192.37980 F240
G0 X152.14543 Y192.37980 F240
G0 X152.14543 Y192.35440 F240
M400
M5
M42 P13 S0 (OFF - LASER)
G00 Z0.25000 ( retract )

G00 X188.18803 Y192.35440 F2000 (rapid move to begin)
F1000.00000
G01 Z0.00000
F2000.00000
G0 X188.18803 Y192.35440 F240
G0 X188.18803 Y191.84640 F240
G0 X188.51823 Y191.84640 F240
G0 X188.51823 Y192.37980 F240
G0 X188.18803 Y192.37980 F240
G0 X188.18803 Y192.35440 F240
M400
M5
M42 P13 S0 (OFF - LASER)
G00 Z0.25000 ( retract )

G00 X188.97543 Y192.35440 F2000 (rapid move to begin)
F1000.00000
G01 Z0.00000
F2000.00000
G0 X188.97543 Y192.35440 F240
G0 X188.97543 Y191.84640 F240
G0 X189.30563 Y191.84640 F240
G0 X189.30563 Y192.37980 F240
G0 X188.97543 Y192.37980 F240
G0 X188.97543 Y192.35440 F240
M400
M5
M42 P13 S0 (OFF - LASER)
G00 Z0.25000 ( retract )

G00 X203.22483 Y204.72420 F2000 (rapid move to begin)
F1000.00000
G01 Z0.00000
F2000.00000
G0 X203.22483 Y204.72420 F240
G0 X203.22483 Y194.71660 F240
G0 X205.25683 Y194.71660 F240
G0 X205.25683 Y204.74960 F240
G0 X203.22483 Y204.74960 F240
G0 X203.22483 Y204.72420 F240
M400
M5
M42 P13 S0 (OFF - LASER)
G00 Z0.25000 ( retract )

G00 X208.91443 Y204.72420 F2000 (rapid move to begin)
F1000.00000
G01 Z0.00000
F2000.00000
G0 X208.91443 Y204.72420 F240
G0 X208.91443 Y194.71660 F240
G0 X210.94643 Y194.71660 F240
G0 X210.94643 Y204.74960 F240
G0 X208.91443 Y204.74960 F240
G0 X208.91443 Y204.72420 F240
M400
M5
M42 P13 S0 (OFF - LASER)
G00 Z0.25000 ( retract )

G00 X240.25803 Y194.89440 F2000 (rapid move to begin)
F1000.00000
G01 Z0.00000
F2000.00000
G0 X240.25803 Y194.89440 F240
G0 X240.25803 Y194.38640 F240
G0 X240.58823 Y194.38640 F240
G0 X240.58823 Y194.91980 F240
G0 X240.25803 Y194.91980 F240
G0 X240.25803 Y194.89440 F240
M400
M5
M42 P13 S0 (OFF - LASER)
G00 Z0.25000 ( retract )

G00 X241.04543 Y194.89440 F2000 (rapid move to begin)
F1000.00000
G01 Z0.00000
F2000.00000
G0 X241.04543 Y194.89440 F240
G0 X241.04543 Y194.38640 F240
G0 X241.37563 Y194.38640 F240
G0 X241.37563 Y194.91980 F240
G0 X241.04543 Y194.91980 F240
G0 X241.04543 Y194.89440 F240

M400
M5
M42 P13 S0 (OFF - LASER)
G00 Z0.25000 ( retract )

M5 ( Spindle off. )
M9 ( Coolant off. )

M106 S0 (Fan off.)
