M106 S255 (Fan on.)
G0 x100 y100 f2000 (  Set origin and speed.  )
( pcb2gcode 1.2.2 )
( Software-independent Gcode )





S10000 ( RPM spindle speed. )
G64 P0.00200 ( set maximum deviation from commanded toolpath )
F2000.00000 ( Feedrate. )

F2000.00000 ( Feedrate. )
M400
M5
M42 P13 S0 (OFF - LASER)
G00 Z0.25000 ( retract )

G00 X102.84403 Y144.45000 F2000 (rapid move to begin)
F1000.00000
G01 Z0.00000
F2000.00000
G0 X102.84403 Y144.45000 F240
G0 X102.84403 Y134.36620 F240
G0 X104.95223 Y134.36620 F240
G0 X104.95223 Y144.47540 F240
G0 X102.84403 Y144.47540 F240
G0 X102.84403 Y144.45000 F240
M400
M5
M42 P13 S0 (OFF - LASER)
G00 Z0.25000 ( retract )

G00 X108.53363 Y144.45000 F2000 (rapid move to begin)
F1000.00000
G01 Z0.00000
F2000.00000
G0 X108.53363 Y144.45000 F240
G0 X108.53363 Y134.36620 F240
G0 X110.64183 Y134.36620 F240
G0 X110.64183 Y144.47540 F240
G0 X108.53363 Y144.47540 F240
G0 X108.53363 Y144.45000 F240
M400
M5
M42 P13 S0 (OFF - LASER)
G00 Z0.25000 ( retract )

G00 X111.09903 Y144.45000 F2000 (rapid move to begin)
F1000.00000
G01 Z0.00000
F2000.00000
G0 X111.09903 Y144.45000 F240
G0 X111.09903 Y134.36620 F240
G0 X113.20723 Y134.36620 F240
G0 X113.20723 Y144.47540 F240
G0 X111.09903 Y144.47540 F240
G0 X111.09903 Y144.45000 F240
M400
M5
M42 P13 S0 (OFF - LASER)
G00 Z0.25000 ( retract )

G00 X116.78863 Y144.45000 F2000 (rapid move to begin)
F1000.00000
G01 Z0.00000
F2000.00000
G0 X116.78863 Y144.45000 F240
G0 X116.78863 Y134.36620 F240
G0 X118.89683 Y134.36620 F240
G0 X118.89683 Y144.47540 F240
G0 X116.78863 Y144.47540 F240
G0 X116.78863 Y144.45000 F240
M400
M5
M42 P13 S0 (OFF - LASER)
G00 Z0.25000 ( retract )

G00 X121.25903 Y144.45000 F2000 (rapid move to begin)
F1000.00000
G01 Z0.00000
F2000.00000
G0 X121.25903 Y144.45000 F240
G0 X121.25903 Y134.36620 F240
G0 X123.36723 Y134.36620 F240
G0 X123.36723 Y144.47540 F240
G0 X121.25903 Y144.47540 F240
G0 X121.25903 Y144.45000 F240
M400
M5
M42 P13 S0 (OFF - LASER)
G00 Z0.25000 ( retract )

G00 X126.94863 Y144.45000 F2000 (rapid move to begin)
F1000.00000
G01 Z0.00000
F2000.00000
G0 X126.94863 Y144.45000 F240
G0 X126.94863 Y134.36620 F240
G0 X129.05683 Y134.36620 F240
G0 X129.05683 Y144.47540 F240
G0 X126.94863 Y144.47540 F240
G0 X126.94863 Y144.45000 F240
M400
M5
M42 P13 S0 (OFF - LASER)
G00 Z0.25000 ( retract )

G00 X129.51403 Y144.45000 F2000 (rapid move to begin)
F1000.00000
G01 Z0.00000
F2000.00000
G0 X129.51403 Y144.45000 F240
G0 X129.51403 Y134.36620 F240
G0 X131.62223 Y134.36620 F240
G0 X131.62223 Y144.47540 F240
G0 X129.51403 Y144.47540 F240
G0 X129.51403 Y144.45000 F240
M400
M5
M42 P13 S0 (OFF - LASER)
G00 Z0.25000 ( retract )

G00 X135.20363 Y144.45000 F2000 (rapid move to begin)
F1000.00000
G01 Z0.00000
F2000.00000
G0 X135.20363 Y144.45000 F240
G0 X135.20363 Y134.36620 F240
G0 X137.31183 Y134.36620 F240
G0 X137.31183 Y144.47540 F240
G0 X135.20363 Y144.47540 F240
G0 X135.20363 Y144.45000 F240
M400
M5
M42 P13 S0 (OFF - LASER)
G00 Z0.25000 ( retract )

G00 X139.67403 Y144.45000 F2000 (rapid move to begin)
F1000.00000
G01 Z0.00000
F2000.00000
G0 X139.67403 Y144.45000 F240
G0 X139.67403 Y134.36620 F240
G0 X141.78223 Y134.36620 F240
G0 X141.78223 Y144.47540 F240
G0 X139.67403 Y144.47540 F240
G0 X139.67403 Y144.45000 F240
M400
M5
M42 P13 S0 (OFF - LASER)
G00 Z0.25000 ( retract )

G00 X145.36363 Y144.45000 F2000 (rapid move to begin)
F1000.00000
G01 Z0.00000
F2000.00000
G0 X145.36363 Y144.45000 F240
G0 X145.36363 Y134.36620 F240
G0 X147.47183 Y134.36620 F240
G0 X147.47183 Y144.47540 F240
G0 X145.36363 Y144.47540 F240
G0 X145.36363 Y144.45000 F240
M400
M5
M42 P13 S0 (OFF - LASER)
G00 Z0.25000 ( retract )

G00 X147.92903 Y144.45000 F2000 (rapid move to begin)
F1000.00000
G01 Z0.00000
F2000.00000
G0 X147.92903 Y144.45000 F240
G0 X147.92903 Y134.36620 F240
G0 X150.03723 Y134.36620 F240
G0 X150.03723 Y144.47540 F240
G0 X147.92903 Y144.47540 F240
G0 X147.92903 Y144.45000 F240
M400
M5
M42 P13 S0 (OFF - LASER)
G00 Z0.25000 ( retract )

G00 X153.61863 Y144.45000 F2000 (rapid move to begin)
F1000.00000
G01 Z0.00000
F2000.00000
G0 X153.61863 Y144.45000 F240
G0 X153.61863 Y134.36620 F240
G0 X155.72683 Y134.36620 F240
G0 X155.72683 Y144.47540 F240
G0 X153.61863 Y144.47540 F240
G0 X153.61863 Y144.45000 F240
M400
M5
M42 P13 S0 (OFF - LASER)
G00 Z0.25000 ( retract )

G00 X158.08903 Y144.45000 F2000 (rapid move to begin)
F1000.00000
G01 Z0.00000
F2000.00000
G0 X158.08903 Y144.45000 F240
G0 X158.08903 Y134.36620 F240
G0 X160.19723 Y134.36620 F240
G0 X160.19723 Y144.47540 F240
G0 X158.08903 Y144.47540 F240
G0 X158.08903 Y144.45000 F240
M400
M5
M42 P13 S0 (OFF - LASER)
G00 Z0.25000 ( retract )

G00 X163.77863 Y144.45000 F2000 (rapid move to begin)
F1000.00000
G01 Z0.00000
F2000.00000
G0 X163.77863 Y144.45000 F240
G0 X163.77863 Y134.36620 F240
G0 X165.88683 Y134.36620 F240
G0 X165.88683 Y144.47540 F240
G0 X163.77863 Y144.47540 F240
G0 X163.77863 Y144.45000 F240
M400
M5
M42 P13 S0 (OFF - LASER)
G00 Z0.25000 ( retract )

G00 X166.34403 Y144.45000 F2000 (rapid move to begin)
F1000.00000
G01 Z0.00000
F2000.00000
G0 X166.34403 Y144.45000 F240
G0 X166.34403 Y134.36620 F240
G0 X168.45223 Y134.36620 F240
G0 X168.45223 Y144.47540 F240
G0 X166.34403 Y144.47540 F240
G0 X166.34403 Y144.45000 F240
M400
M5
M42 P13 S0 (OFF - LASER)
G00 Z0.25000 ( retract )

G00 X172.03363 Y144.45000 F2000 (rapid move to begin)
F1000.00000
G01 Z0.00000
F2000.00000
G0 X172.03363 Y144.45000 F240
G0 X172.03363 Y134.36620 F240
G0 X174.14183 Y134.36620 F240
G0 X174.14183 Y144.47540 F240
G0 X172.03363 Y144.47540 F240
G0 X172.03363 Y144.45000 F240
M400
M5
M42 P13 S0 (OFF - LASER)
G00 Z0.25000 ( retract )

G00 X176.50403 Y144.45000 F2000 (rapid move to begin)
F1000.00000
G01 Z0.00000
F2000.00000
G0 X176.50403 Y144.45000 F240
G0 X176.50403 Y134.36620 F240
G0 X178.61223 Y134.36620 F240
G0 X178.61223 Y144.47540 F240
G0 X176.50403 Y144.47540 F240
G0 X176.50403 Y144.45000 F240
M400
M5
M42 P13 S0 (OFF - LASER)
G00 Z0.25000 ( retract )

G00 X182.19363 Y144.45000 F2000 (rapid move to begin)
F1000.00000
G01 Z0.00000
F2000.00000
G0 X182.19363 Y144.45000 F240
G0 X182.19363 Y134.36620 F240
G0 X184.30183 Y134.36620 F240
G0 X184.30183 Y144.47540 F240
G0 X182.19363 Y144.47540 F240
G0 X182.19363 Y144.45000 F240
M400
M5
M42 P13 S0 (OFF - LASER)
G00 Z0.25000 ( retract )

G00 X184.75903 Y144.45000 F2000 (rapid move to begin)
F1000.00000
G01 Z0.00000
F2000.00000
G0 X184.75903 Y144.45000 F240
G0 X184.75903 Y134.36620 F240
G0 X186.86723 Y134.36620 F240
G0 X186.86723 Y144.47540 F240
G0 X184.75903 Y144.47540 F240
G0 X184.75903 Y144.45000 F240
M400
M5
M42 P13 S0 (OFF - LASER)
G00 Z0.25000 ( retract )

G00 X190.44863 Y144.45000 F2000 (rapid move to begin)
F1000.00000
G01 Z0.00000
F2000.00000
G0 X190.44863 Y144.45000 F240
G0 X190.44863 Y134.36620 F240
G0 X192.55683 Y134.36620 F240
G0 X192.55683 Y144.47540 F240
G0 X190.44863 Y144.47540 F240
G0 X190.44863 Y144.45000 F240
M400
M5
M42 P13 S0 (OFF - LASER)
G00 Z0.25000 ( retract )

G00 X194.91903 Y144.45000 F2000 (rapid move to begin)
F1000.00000
G01 Z0.00000
F2000.00000
G0 X194.91903 Y144.45000 F240
G0 X194.91903 Y134.36620 F240
G0 X197.02723 Y134.36620 F240
G0 X197.02723 Y144.47540 F240
G0 X194.91903 Y144.47540 F240
G0 X194.91903 Y144.45000 F240
M400
M5
M42 P13 S0 (OFF - LASER)
G00 Z0.25000 ( retract )

G00 X200.60863 Y144.45000 F2000 (rapid move to begin)
F1000.00000
G01 Z0.00000
F2000.00000
G0 X200.60863 Y144.45000 F240
G0 X200.60863 Y134.36620 F240
G0 X202.71683 Y134.36620 F240
G0 X202.71683 Y144.47540 F240
G0 X200.60863 Y144.47540 F240
G0 X200.60863 Y144.45000 F240
M400
M5
M42 P13 S0 (OFF - LASER)
G00 Z0.25000 ( retract )

G00 X203.17403 Y144.45000 F2000 (rapid move to begin)
F1000.00000
G01 Z0.00000
F2000.00000
G0 X203.17403 Y144.45000 F240
G0 X203.17403 Y134.36620 F240
G0 X205.28223 Y134.36620 F240
G0 X205.28223 Y144.47540 F240
G0 X203.17403 Y144.47540 F240
G0 X203.17403 Y144.45000 F240
M400
M5
M42 P13 S0 (OFF - LASER)
G00 Z0.25000 ( retract )

G00 X208.86363 Y144.45000 F2000 (rapid move to begin)
F1000.00000
G01 Z0.00000
F2000.00000
G0 X208.86363 Y144.45000 F240
G0 X208.86363 Y134.36620 F240
G0 X210.97183 Y134.36620 F240
G0 X210.97183 Y144.47540 F240
G0 X208.86363 Y144.47540 F240
G0 X208.86363 Y144.45000 F240
M400
M5
M42 P13 S0 (OFF - LASER)
G00 Z0.25000 ( retract )

G00 X207.59363 Y174.93000 F2000 (rapid move to begin)
F1000.00000
G01 Z0.00000
F2000.00000
G0 X207.59363 Y174.93000 F240
G0 X207.59363 Y164.84620 F240
G0 X209.67643 Y164.84620 F240
G0 X209.67643 Y174.95540 F240
G0 X207.59363 Y174.95540 F240
G0 X207.59363 Y174.93000 F240
M400
M5
M42 P13 S0 (OFF - LASER)
G00 Z0.25000 ( retract )

G00 X201.87863 Y174.93000 F2000 (rapid move to begin)
F1000.00000
G01 Z0.00000
F2000.00000
G0 X201.87863 Y174.93000 F240
G0 X201.87863 Y164.84620 F240
G0 X203.98683 Y164.84620 F240
G0 X203.98683 Y174.95540 F240
G0 X201.87863 Y174.95540 F240
G0 X201.87863 Y174.93000 F240
M400
M5
M42 P13 S0 (OFF - LASER)
G00 Z0.25000 ( retract )

G00 X199.33863 Y174.93000 F2000 (rapid move to begin)
F1000.00000
G01 Z0.00000
F2000.00000
G0 X199.33863 Y174.93000 F240
G0 X199.33863 Y164.84620 F240
G0 X201.42143 Y164.84620 F240
G0 X201.42143 Y174.95540 F240
G0 X199.33863 Y174.95540 F240
G0 X199.33863 Y174.93000 F240
M400
M5
M42 P13 S0 (OFF - LASER)
G00 Z0.25000 ( retract )

G00 X193.62363 Y174.93000 F2000 (rapid move to begin)
F1000.00000
G01 Z0.00000
F2000.00000
G0 X193.62363 Y174.93000 F240
G0 X193.62363 Y164.84620 F240
G0 X195.73183 Y164.84620 F240
G0 X195.73183 Y174.95540 F240
G0 X193.62363 Y174.95540 F240
G0 X193.62363 Y174.93000 F240
M400
M5
M42 P13 S0 (OFF - LASER)
G00 Z0.25000 ( retract )

G00 X189.17863 Y174.93000 F2000 (rapid move to begin)
F1000.00000
G01 Z0.00000
F2000.00000
G0 X189.17863 Y174.93000 F240
G0 X189.17863 Y164.84620 F240
G0 X191.26143 Y164.84620 F240
G0 X191.26143 Y174.95540 F240
G0 X189.17863 Y174.95540 F240
G0 X189.17863 Y174.93000 F240
M400
M5
M42 P13 S0 (OFF - LASER)
G00 Z0.25000 ( retract )

G00 X183.46363 Y174.93000 F2000 (rapid move to begin)
F1000.00000
G01 Z0.00000
F2000.00000
G0 X183.46363 Y174.93000 F240
G0 X183.46363 Y164.84620 F240
G0 X185.57183 Y164.84620 F240
G0 X185.57183 Y174.95540 F240
G0 X183.46363 Y174.95540 F240
G0 X183.46363 Y174.93000 F240
M400
M5
M42 P13 S0 (OFF - LASER)
G00 Z0.25000 ( retract )

G00 X180.92363 Y174.93000 F2000 (rapid move to begin)
F1000.00000
G01 Z0.00000
F2000.00000
G0 X180.92363 Y174.93000 F240
G0 X180.92363 Y164.84620 F240
G0 X183.00643 Y164.84620 F240
G0 X183.00643 Y174.95540 F240
G0 X180.92363 Y174.95540 F240
G0 X180.92363 Y174.93000 F240
M400
M5
M42 P13 S0 (OFF - LASER)
G00 Z0.25000 ( retract )

G00 X175.20863 Y174.93000 F2000 (rapid move to begin)
F1000.00000
G01 Z0.00000
F2000.00000
G0 X175.20863 Y174.93000 F240
G0 X175.20863 Y164.84620 F240
G0 X177.31683 Y164.84620 F240
G0 X177.31683 Y174.95540 F240
G0 X175.20863 Y174.95540 F240
G0 X175.20863 Y174.93000 F240
M400
M5
M42 P13 S0 (OFF - LASER)
G00 Z0.25000 ( retract )

G00 X170.76363 Y174.93000 F2000 (rapid move to begin)
F1000.00000
G01 Z0.00000
F2000.00000
G0 X170.76363 Y174.93000 F240
G0 X170.76363 Y164.84620 F240
G0 X172.84643 Y164.84620 F240
G0 X172.84643 Y174.95540 F240
G0 X170.76363 Y174.95540 F240
G0 X170.76363 Y174.93000 F240
M400
M5
M42 P13 S0 (OFF - LASER)
G00 Z0.25000 ( retract )

G00 X165.04863 Y174.93000 F2000 (rapid move to begin)
F1000.00000
G01 Z0.00000
F2000.00000
G0 X165.04863 Y174.93000 F240
G0 X165.04863 Y164.84620 F240
G0 X167.15683 Y164.84620 F240
G0 X167.15683 Y174.95540 F240
G0 X165.04863 Y174.95540 F240
G0 X165.04863 Y174.93000 F240
M400
M5
M42 P13 S0 (OFF - LASER)
G00 Z0.25000 ( retract )

G00 X162.50863 Y174.93000 F2000 (rapid move to begin)
F1000.00000
G01 Z0.00000
F2000.00000
G0 X162.50863 Y174.93000 F240
G0 X162.50863 Y164.84620 F240
G0 X164.59143 Y164.84620 F240
G0 X164.59143 Y174.95540 F240
G0 X162.50863 Y174.95540 F240
G0 X162.50863 Y174.93000 F240
M400
M5
M42 P13 S0 (OFF - LASER)
G00 Z0.25000 ( retract )

G00 X156.79363 Y174.93000 F2000 (rapid move to begin)
F1000.00000
G01 Z0.00000
F2000.00000
G0 X156.79363 Y174.93000 F240
G0 X156.79363 Y164.84620 F240
G0 X158.90183 Y164.84620 F240
G0 X158.90183 Y174.95540 F240
G0 X156.79363 Y174.95540 F240
G0 X156.79363 Y174.93000 F240
M400
M5
M42 P13 S0 (OFF - LASER)
G00 Z0.25000 ( retract )

G00 X152.34863 Y174.93000 F2000 (rapid move to begin)
F1000.00000
G01 Z0.00000
F2000.00000
G0 X152.34863 Y174.93000 F240
G0 X152.34863 Y164.84620 F240
G0 X154.43143 Y164.84620 F240
G0 X154.43143 Y174.95540 F240
G0 X152.34863 Y174.95540 F240
G0 X152.34863 Y174.93000 F240
M400
M5
M42 P13 S0 (OFF - LASER)
G00 Z0.25000 ( retract )

G00 X146.63363 Y174.93000 F2000 (rapid move to begin)
F1000.00000
G01 Z0.00000
F2000.00000
G0 X146.63363 Y174.93000 F240
G0 X146.63363 Y164.84620 F240
G0 X148.74183 Y164.84620 F240
G0 X148.74183 Y174.95540 F240
G0 X146.63363 Y174.95540 F240
G0 X146.63363 Y174.93000 F240
M400
M5
M42 P13 S0 (OFF - LASER)
G00 Z0.25000 ( retract )

G00 X144.09363 Y174.93000 F2000 (rapid move to begin)
F1000.00000
G01 Z0.00000
F2000.00000
G0 X144.09363 Y174.93000 F240
G0 X144.09363 Y164.84620 F240
G0 X146.17643 Y164.84620 F240
G0 X146.17643 Y174.95540 F240
G0 X144.09363 Y174.95540 F240
G0 X144.09363 Y174.93000 F240
M400
M5
M42 P13 S0 (OFF - LASER)
G00 Z0.25000 ( retract )

G00 X138.37863 Y174.93000 F2000 (rapid move to begin)
F1000.00000
G01 Z0.00000
F2000.00000
G0 X138.37863 Y174.93000 F240
G0 X138.37863 Y164.84620 F240
G0 X140.48683 Y164.84620 F240
G0 X140.48683 Y174.95540 F240
G0 X138.37863 Y174.95540 F240
G0 X138.37863 Y174.93000 F240
M400
M5
M42 P13 S0 (OFF - LASER)
G00 Z0.25000 ( retract )

G00 X133.93363 Y174.93000 F2000 (rapid move to begin)
F1000.00000
G01 Z0.00000
F2000.00000
G0 X133.93363 Y174.93000 F240
G0 X133.93363 Y164.84620 F240
G0 X136.01643 Y164.84620 F240
G0 X136.01643 Y174.95540 F240
G0 X133.93363 Y174.95540 F240
G0 X133.93363 Y174.93000 F240
M400
M5
M42 P13 S0 (OFF - LASER)
G00 Z0.25000 ( retract )

G00 X128.21863 Y174.93000 F2000 (rapid move to begin)
F1000.00000
G01 Z0.00000
F2000.00000
G0 X128.21863 Y174.93000 F240
G0 X128.21863 Y164.84620 F240
G0 X130.32683 Y164.84620 F240
G0 X130.32683 Y174.95540 F240
G0 X128.21863 Y174.95540 F240
G0 X128.21863 Y174.93000 F240
M400
M5
M42 P13 S0 (OFF - LASER)
G00 Z0.25000 ( retract )

G00 X125.67863 Y174.93000 F2000 (rapid move to begin)
F1000.00000
G01 Z0.00000
F2000.00000
G0 X125.67863 Y174.93000 F240
G0 X125.67863 Y164.84620 F240
G0 X127.76143 Y164.84620 F240
G0 X127.76143 Y174.95540 F240
G0 X125.67863 Y174.95540 F240
G0 X125.67863 Y174.93000 F240
M400
M5
M42 P13 S0 (OFF - LASER)
G00 Z0.25000 ( retract )

G00 X119.96363 Y174.93000 F2000 (rapid move to begin)
F1000.00000
G01 Z0.00000
F2000.00000
G0 X119.96363 Y174.93000 F240
G0 X119.96363 Y164.84620 F240
G0 X122.07183 Y164.84620 F240
G0 X122.07183 Y174.95540 F240
G0 X119.96363 Y174.95540 F240
G0 X119.96363 Y174.93000 F240
M400
M5
M42 P13 S0 (OFF - LASER)
G00 Z0.25000 ( retract )

G00 X115.51863 Y174.93000 F2000 (rapid move to begin)
F1000.00000
G01 Z0.00000
F2000.00000
G0 X115.51863 Y174.93000 F240
G0 X115.51863 Y164.84620 F240
G0 X117.60143 Y164.84620 F240
G0 X117.60143 Y174.95540 F240
G0 X115.51863 Y174.95540 F240
G0 X115.51863 Y174.93000 F240
M400
M5
M42 P13 S0 (OFF - LASER)
G00 Z0.25000 ( retract )

G00 X109.80363 Y174.93000 F2000 (rapid move to begin)
F1000.00000
G01 Z0.00000
F2000.00000
G0 X109.80363 Y174.93000 F240
G0 X109.80363 Y164.84620 F240
G0 X111.91183 Y164.84620 F240
G0 X111.91183 Y174.95540 F240
G0 X109.80363 Y174.95540 F240
G0 X109.80363 Y174.93000 F240
M400
M5
M42 P13 S0 (OFF - LASER)
G00 Z0.25000 ( retract )

G00 X107.26363 Y174.93000 F2000 (rapid move to begin)
F1000.00000
G01 Z0.00000
F2000.00000
G0 X107.26363 Y174.93000 F240
G0 X107.26363 Y164.84620 F240
G0 X109.34643 Y164.84620 F240
G0 X109.34643 Y174.95540 F240
G0 X107.26363 Y174.95540 F240
G0 X107.26363 Y174.93000 F240
M400
M5
M42 P13 S0 (OFF - LASER)
G00 Z0.25000 ( retract )

G00 X101.54863 Y174.93000 F2000 (rapid move to begin)
F1000.00000
G01 Z0.00000
F2000.00000
G0 X101.54863 Y174.93000 F240
G0 X101.54863 Y164.84620 F240
G0 X103.65683 Y164.84620 F240
G0 X103.65683 Y174.95540 F240
G0 X101.54863 Y174.95540 F240
G0 X101.54863 Y174.93000 F240
M400
M5
M42 P13 S0 (OFF - LASER)
G00 Z0.25000 ( retract )

G00 X114.47723 Y192.40520 F2000 (rapid move to begin)
F1000.00000
G01 Z0.00000
F2000.00000
G0 X114.47723 Y192.40520 F240
G0 X114.47723 Y191.82100 F240
G0 X114.88363 Y191.82100 F240
G0 X114.88363 Y192.43060 F240
G0 X114.47723 Y192.43060 F240
G0 X114.47723 Y192.40520 F240
M400
M5
M42 P13 S0 (OFF - LASER)
G00 Z0.25000 ( retract )

G00 X115.26463 Y192.40520 F2000 (rapid move to begin)
F1000.00000
G01 Z0.00000
F2000.00000
G0 X115.26463 Y192.40520 F240
G0 X115.26463 Y191.82100 F240
G0 X115.67103 Y191.82100 F240
G0 X115.67103 Y192.43060 F240
G0 X115.26463 Y192.43060 F240
G0 X115.26463 Y192.40520 F240
M400
M5
M42 P13 S0 (OFF - LASER)
G00 Z0.25000 ( retract )

G00 X151.30723 Y192.40520 F2000 (rapid move to begin)
F1000.00000
G01 Z0.00000
F2000.00000
G0 X151.30723 Y192.40520 F240
G0 X151.30723 Y191.82100 F240
G0 X151.71363 Y191.82100 F240
G0 X151.71363 Y192.43060 F240
G0 X151.30723 Y192.43060 F240
G0 X151.30723 Y192.40520 F240
M400
M5
M42 P13 S0 (OFF - LASER)
G00 Z0.25000 ( retract )

G00 X152.09463 Y192.40520 F2000 (rapid move to begin)
F1000.00000
G01 Z0.00000
F2000.00000
G0 X152.09463 Y192.40520 F240
G0 X152.09463 Y191.82100 F240
G0 X152.50103 Y191.82100 F240
G0 X152.50103 Y192.43060 F240
G0 X152.09463 Y192.43060 F240
G0 X152.09463 Y192.40520 F240
M400
M5
M42 P13 S0 (OFF - LASER)
G00 Z0.25000 ( retract )

G00 X188.13723 Y192.40520 F2000 (rapid move to begin)
F1000.00000
G01 Z0.00000
F2000.00000
G0 X188.13723 Y192.40520 F240
G0 X188.13723 Y191.82100 F240
G0 X188.54363 Y191.82100 F240
G0 X188.54363 Y192.43060 F240
G0 X188.13723 Y192.43060 F240
G0 X188.13723 Y192.40520 F240
M400
M5
M42 P13 S0 (OFF - LASER)
G00 Z0.25000 ( retract )

G00 X188.92463 Y192.40520 F2000 (rapid move to begin)
F1000.00000
G01 Z0.00000
F2000.00000
G0 X188.92463 Y192.40520 F240
G0 X188.92463 Y191.82100 F240
G0 X189.33103 Y191.82100 F240
G0 X189.33103 Y192.43060 F240
G0 X188.92463 Y192.43060 F240
G0 X188.92463 Y192.40520 F240
M400
M5
M42 P13 S0 (OFF - LASER)
G00 Z0.25000 ( retract )

G00 X203.17403 Y204.77500 F2000 (rapid move to begin)
F1000.00000
G01 Z0.00000
F2000.00000
G0 X203.17403 Y204.77500 F240
G0 X203.17403 Y194.69120 F240
G0 X205.28223 Y194.69120 F240
G0 X205.28223 Y204.80040 F240
G0 X203.17403 Y204.80040 F240
G0 X203.17403 Y204.77500 F240
M400
M5
M42 P13 S0 (OFF - LASER)
G00 Z0.25000 ( retract )

G00 X208.86363 Y204.77500 F2000 (rapid move to begin)
F1000.00000
G01 Z0.00000
F2000.00000
G0 X208.86363 Y204.77500 F240
G0 X208.86363 Y194.69120 F240
G0 X210.97183 Y194.69120 F240
G0 X210.97183 Y204.80040 F240
G0 X208.86363 Y204.80040 F240
G0 X208.86363 Y204.77500 F240
M400
M5
M42 P13 S0 (OFF - LASER)
G00 Z0.25000 ( retract )

G00 X240.20723 Y194.94520 F2000 (rapid move to begin)
F1000.00000
G01 Z0.00000
F2000.00000
G0 X240.20723 Y194.94520 F240
G0 X240.20723 Y194.36100 F240
G0 X240.61363 Y194.36100 F240
G0 X240.61363 Y194.97060 F240
G0 X240.20723 Y194.97060 F240
G0 X240.20723 Y194.94520 F240
M400
M5
M42 P13 S0 (OFF - LASER)
G00 Z0.25000 ( retract )

G00 X240.99463 Y194.94520 F2000 (rapid move to begin)
F1000.00000
G01 Z0.00000
F2000.00000
G0 X240.99463 Y194.94520 F240
G0 X240.99463 Y194.36100 F240
G0 X241.40103 Y194.36100 F240
G0 X241.40103 Y194.97060 F240
G0 X240.99463 Y194.97060 F240
G0 X240.99463 Y194.94520 F240

M400
M5
M42 P13 S0 (OFF - LASER)
G00 Z0.25000 ( retract )

M5 ( Spindle off. )
M9 ( Coolant off. )

M106 S0 (Fan off.)
M106 S255 (Fan on.)
G0 x100 y100 f2000 (  Set origin and speed.  )
( pcb2gcode 1.2.2 )
( Software-independent Gcode )





S10000 ( RPM spindle speed. )
G64 P0.00200 ( set maximum deviation from commanded toolpath )
F2000.00000 ( Feedrate. )

F2000.00000 ( Feedrate. )
M400
M5
M42 P13 S0 (OFF - LASER)
G00 Z0.25000 ( retract )

G00 X102.86943 Y144.42460 F2000 (rapid move to begin)
F1000.00000
G01 Z0.00000
F2000.00000
G0 X102.86943 Y144.42460 F240
G0 X102.86943 Y134.36620 F240
G0 X104.95223 Y134.36620 F240
G0 X104.95223 Y144.45000 F240
G0 X102.86943 Y144.45000 F240
G0 X102.86943 Y144.42460 F240
M400
M5
M42 P13 S0 (OFF - LASER)
G00 Z0.25000 ( retract )

G00 X108.55903 Y144.42460 F2000 (rapid move to begin)
F1000.00000
G01 Z0.00000
F2000.00000
G0 X108.55903 Y144.42460 F240
G0 X108.55903 Y134.36620 F240
G0 X110.64183 Y134.36620 F240
G0 X110.64183 Y144.45000 F240
G0 X108.55903 Y144.45000 F240
G0 X108.55903 Y144.42460 F240
M400
M5
M42 P13 S0 (OFF - LASER)
G00 Z0.25000 ( retract )

G00 X111.12443 Y144.42460 F2000 (rapid move to begin)
F1000.00000
G01 Z0.00000
F2000.00000
G0 X111.12443 Y144.42460 F240
G0 X111.12443 Y134.36620 F240
G0 X113.20723 Y134.36620 F240
G0 X113.20723 Y144.45000 F240
G0 X111.12443 Y144.45000 F240
G0 X111.12443 Y144.42460 F240
M400
M5
M42 P13 S0 (OFF - LASER)
G00 Z0.25000 ( retract )

G00 X116.81403 Y144.42460 F2000 (rapid move to begin)
F1000.00000
G01 Z0.00000
F2000.00000
G0 X116.81403 Y144.42460 F240
G0 X116.81403 Y134.36620 F240
G0 X118.89683 Y134.36620 F240
G0 X118.89683 Y144.45000 F240
G0 X116.81403 Y144.45000 F240
G0 X116.81403 Y144.42460 F240
M400
M5
M42 P13 S0 (OFF - LASER)
G00 Z0.25000 ( retract )

G00 X121.28443 Y144.42460 F2000 (rapid move to begin)
F1000.00000
G01 Z0.00000
F2000.00000
G0 X121.28443 Y144.42460 F240
G0 X121.28443 Y134.36620 F240
G0 X123.36723 Y134.36620 F240
G0 X123.36723 Y144.45000 F240
G0 X121.28443 Y144.45000 F240
G0 X121.28443 Y144.42460 F240
M400
M5
M42 P13 S0 (OFF - LASER)
G00 Z0.25000 ( retract )

G00 X126.97403 Y144.42460 F2000 (rapid move to begin)
F1000.00000
G01 Z0.00000
F2000.00000
G0 X126.97403 Y144.42460 F240
G0 X126.97403 Y134.36620 F240
G0 X129.05683 Y134.36620 F240
G0 X129.05683 Y144.45000 F240
G0 X126.97403 Y144.45000 F240
G0 X126.97403 Y144.42460 F240
M400
M5
M42 P13 S0 (OFF - LASER)
G00 Z0.25000 ( retract )

G00 X129.53943 Y144.42460 F2000 (rapid move to begin)
F1000.00000
G01 Z0.00000
F2000.00000
G0 X129.53943 Y144.42460 F240
G0 X129.53943 Y134.36620 F240
G0 X131.62223 Y134.36620 F240
G0 X131.62223 Y144.45000 F240
G0 X129.53943 Y144.45000 F240
G0 X129.53943 Y144.42460 F240
M400
M5
M42 P13 S0 (OFF - LASER)
G00 Z0.25000 ( retract )

G00 X135.22903 Y144.42460 F2000 (rapid move to begin)
F1000.00000
G01 Z0.00000
F2000.00000
G0 X135.22903 Y144.42460 F240
G0 X135.22903 Y134.36620 F240
G0 X137.31183 Y134.36620 F240
G0 X137.31183 Y144.45000 F240
G0 X135.22903 Y144.45000 F240
G0 X135.22903 Y144.42460 F240
M400
M5
M42 P13 S0 (OFF - LASER)
G00 Z0.25000 ( retract )

G00 X139.69943 Y144.42460 F2000 (rapid move to begin)
F1000.00000
G01 Z0.00000
F2000.00000
G0 X139.69943 Y144.42460 F240
G0 X139.69943 Y134.36620 F240
G0 X141.78223 Y134.36620 F240
G0 X141.78223 Y144.45000 F240
G0 X139.69943 Y144.45000 F240
G0 X139.69943 Y144.42460 F240
M400
M5
M42 P13 S0 (OFF - LASER)
G00 Z0.25000 ( retract )

G00 X145.38903 Y144.42460 F2000 (rapid move to begin)
F1000.00000
G01 Z0.00000
F2000.00000
G0 X145.38903 Y144.42460 F240
G0 X145.38903 Y134.36620 F240
G0 X147.47183 Y134.36620 F240
G0 X147.47183 Y144.45000 F240
G0 X145.38903 Y144.45000 F240
G0 X145.38903 Y144.42460 F240
M400
M5
M42 P13 S0 (OFF - LASER)
G00 Z0.25000 ( retract )

G00 X147.95443 Y144.42460 F2000 (rapid move to begin)
F1000.00000
G01 Z0.00000
F2000.00000
G0 X147.95443 Y144.42460 F240
G0 X147.95443 Y134.36620 F240
G0 X150.03723 Y134.36620 F240
G0 X150.03723 Y144.45000 F240
G0 X147.95443 Y144.45000 F240
G0 X147.95443 Y144.42460 F240
M400
M5
M42 P13 S0 (OFF - LASER)
G00 Z0.25000 ( retract )

G00 X153.64403 Y144.42460 F2000 (rapid move to begin)
F1000.00000
G01 Z0.00000
F2000.00000
G0 X153.64403 Y144.42460 F240
G0 X153.64403 Y134.36620 F240
G0 X155.72683 Y134.36620 F240
G0 X155.72683 Y144.45000 F240
G0 X153.64403 Y144.45000 F240
G0 X153.64403 Y144.42460 F240
M400
M5
M42 P13 S0 (OFF - LASER)
G00 Z0.25000 ( retract )

G00 X158.11443 Y144.42460 F2000 (rapid move to begin)
F1000.00000
G01 Z0.00000
F2000.00000
G0 X158.11443 Y144.42460 F240
G0 X158.11443 Y134.36620 F240
G0 X160.19723 Y134.36620 F240
G0 X160.19723 Y144.45000 F240
G0 X158.11443 Y144.45000 F240
G0 X158.11443 Y144.42460 F240
M400
M5
M42 P13 S0 (OFF - LASER)
G00 Z0.25000 ( retract )

G00 X163.80403 Y144.42460 F2000 (rapid move to begin)
F1000.00000
G01 Z0.00000
F2000.00000
G0 X163.80403 Y144.42460 F240
G0 X163.80403 Y134.36620 F240
G0 X165.88683 Y134.36620 F240
G0 X165.88683 Y144.45000 F240
G0 X163.80403 Y144.45000 F240
G0 X163.80403 Y144.42460 F240
M400
M5
M42 P13 S0 (OFF - LASER)
G00 Z0.25000 ( retract )

G00 X166.36943 Y144.42460 F2000 (rapid move to begin)
F1000.00000
G01 Z0.00000
F2000.00000
G0 X166.36943 Y144.42460 F240
G0 X166.36943 Y134.36620 F240
G0 X168.45223 Y134.36620 F240
G0 X168.45223 Y144.45000 F240
G0 X166.36943 Y144.45000 F240
G0 X166.36943 Y144.42460 F240
M400
M5
M42 P13 S0 (OFF - LASER)
G00 Z0.25000 ( retract )

G00 X172.05903 Y144.42460 F2000 (rapid move to begin)
F1000.00000
G01 Z0.00000
F2000.00000
G0 X172.05903 Y144.42460 F240
G0 X172.05903 Y134.36620 F240
G0 X174.14183 Y134.36620 F240
G0 X174.14183 Y144.45000 F240
G0 X172.05903 Y144.45000 F240
G0 X172.05903 Y144.42460 F240
M400
M5
M42 P13 S0 (OFF - LASER)
G00 Z0.25000 ( retract )

G00 X176.52943 Y144.42460 F2000 (rapid move to begin)
F1000.00000
G01 Z0.00000
F2000.00000
G0 X176.52943 Y144.42460 F240
G0 X176.52943 Y134.36620 F240
G0 X178.61223 Y134.36620 F240
G0 X178.61223 Y144.45000 F240
G0 X176.52943 Y144.45000 F240
G0 X176.52943 Y144.42460 F240
M400
M5
M42 P13 S0 (OFF - LASER)
G00 Z0.25000 ( retract )

G00 X182.21903 Y144.42460 F2000 (rapid move to begin)
F1000.00000
G01 Z0.00000
F2000.00000
G0 X182.21903 Y144.42460 F240
G0 X182.21903 Y134.36620 F240
G0 X184.30183 Y134.36620 F240
G0 X184.30183 Y144.45000 F240
G0 X182.21903 Y144.45000 F240
G0 X182.21903 Y144.42460 F240
M400
M5
M42 P13 S0 (OFF - LASER)
G00 Z0.25000 ( retract )

G00 X184.78443 Y144.42460 F2000 (rapid move to begin)
F1000.00000
G01 Z0.00000
F2000.00000
G0 X184.78443 Y144.42460 F240
G0 X184.78443 Y134.36620 F240
G0 X186.86723 Y134.36620 F240
G0 X186.86723 Y144.45000 F240
G0 X184.78443 Y144.45000 F240
G0 X184.78443 Y144.42460 F240
M400
M5
M42 P13 S0 (OFF - LASER)
G00 Z0.25000 ( retract )

G00 X190.47403 Y144.42460 F2000 (rapid move to begin)
F1000.00000
G01 Z0.00000
F2000.00000
G0 X190.47403 Y144.42460 F240
G0 X190.47403 Y134.36620 F240
G0 X192.55683 Y134.36620 F240
G0 X192.55683 Y144.45000 F240
G0 X190.47403 Y144.45000 F240
G0 X190.47403 Y144.42460 F240
M400
M5
M42 P13 S0 (OFF - LASER)
G00 Z0.25000 ( retract )

G00 X194.94443 Y144.42460 F2000 (rapid move to begin)
F1000.00000
G01 Z0.00000
F2000.00000
G0 X194.94443 Y144.42460 F240
G0 X194.94443 Y134.36620 F240
G0 X197.02723 Y134.36620 F240
G0 X197.02723 Y144.45000 F240
G0 X194.94443 Y144.45000 F240
G0 X194.94443 Y144.42460 F240
M400
M5
M42 P13 S0 (OFF - LASER)
G00 Z0.25000 ( retract )

G00 X200.63403 Y144.42460 F2000 (rapid move to begin)
F1000.00000
G01 Z0.00000
F2000.00000
G0 X200.63403 Y144.42460 F240
G0 X200.63403 Y134.36620 F240
G0 X202.71683 Y134.36620 F240
G0 X202.71683 Y144.45000 F240
G0 X200.63403 Y144.45000 F240
G0 X200.63403 Y144.42460 F240
M400
M5
M42 P13 S0 (OFF - LASER)
G00 Z0.25000 ( retract )

G00 X203.19943 Y144.42460 F2000 (rapid move to begin)
F1000.00000
G01 Z0.00000
F2000.00000
G0 X203.19943 Y144.42460 F240
G0 X203.19943 Y134.36620 F240
G0 X205.28223 Y134.36620 F240
G0 X205.28223 Y144.45000 F240
G0 X203.19943 Y144.45000 F240
G0 X203.19943 Y144.42460 F240
M400
M5
M42 P13 S0 (OFF - LASER)
G00 Z0.25000 ( retract )

G00 X208.88903 Y144.42460 F2000 (rapid move to begin)
F1000.00000
G01 Z0.00000
F2000.00000
G0 X208.88903 Y144.42460 F240
G0 X208.88903 Y134.36620 F240
G0 X210.97183 Y134.36620 F240
G0 X210.97183 Y144.45000 F240
G0 X208.88903 Y144.45000 F240
G0 X208.88903 Y144.42460 F240
M400
M5
M42 P13 S0 (OFF - LASER)
G00 Z0.25000 ( retract )

G00 X207.61903 Y174.90460 F2000 (rapid move to begin)
F1000.00000
G01 Z0.00000
F2000.00000
G0 X207.61903 Y174.90460 F240
G0 X207.61903 Y164.84620 F240
G0 X209.67643 Y164.84620 F240
G0 X209.67643 Y174.93000 F240
G0 X207.61903 Y174.93000 F240
G0 X207.61903 Y174.90460 F240
M400
M5
M42 P13 S0 (OFF - LASER)
G00 Z0.25000 ( retract )

G00 X201.90403 Y174.90460 F2000 (rapid move to begin)
F1000.00000
G01 Z0.00000
F2000.00000
G0 X201.90403 Y174.90460 F240
G0 X201.90403 Y164.84620 F240
G0 X203.98683 Y164.84620 F240
G0 X203.98683 Y174.93000 F240
G0 X201.90403 Y174.93000 F240
G0 X201.90403 Y174.90460 F240
M400
M5
M42 P13 S0 (OFF - LASER)
G00 Z0.25000 ( retract )

G00 X199.36403 Y174.90460 F2000 (rapid move to begin)
F1000.00000
G01 Z0.00000
F2000.00000
G0 X199.36403 Y174.90460 F240
G0 X199.36403 Y164.84620 F240
G0 X201.42143 Y164.84620 F240
G0 X201.42143 Y174.93000 F240
G0 X199.36403 Y174.93000 F240
G0 X199.36403 Y174.90460 F240
M400
M5
M42 P13 S0 (OFF - LASER)
G00 Z0.25000 ( retract )

G00 X193.64903 Y174.90460 F2000 (rapid move to begin)
F1000.00000
G01 Z0.00000
F2000.00000
G0 X193.64903 Y174.90460 F240
G0 X193.64903 Y164.84620 F240
G0 X195.73183 Y164.84620 F240
G0 X195.73183 Y174.93000 F240
G0 X193.64903 Y174.93000 F240
G0 X193.64903 Y174.90460 F240
M400
M5
M42 P13 S0 (OFF - LASER)
G00 Z0.25000 ( retract )

G00 X189.20403 Y174.90460 F2000 (rapid move to begin)
F1000.00000
G01 Z0.00000
F2000.00000
G0 X189.20403 Y174.90460 F240
G0 X189.20403 Y164.84620 F240
G0 X191.26143 Y164.84620 F240
G0 X191.26143 Y174.93000 F240
G0 X189.20403 Y174.93000 F240
G0 X189.20403 Y174.90460 F240
M400
M5
M42 P13 S0 (OFF - LASER)
G00 Z0.25000 ( retract )

G00 X183.48903 Y174.90460 F2000 (rapid move to begin)
F1000.00000
G01 Z0.00000
F2000.00000
G0 X183.48903 Y174.90460 F240
G0 X183.48903 Y164.84620 F240
G0 X185.57183 Y164.84620 F240
G0 X185.57183 Y174.93000 F240
G0 X183.48903 Y174.93000 F240
G0 X183.48903 Y174.90460 F240
M400
M5
M42 P13 S0 (OFF - LASER)
G00 Z0.25000 ( retract )

G00 X180.94903 Y174.90460 F2000 (rapid move to begin)
F1000.00000
G01 Z0.00000
F2000.00000
G0 X180.94903 Y174.90460 F240
G0 X180.94903 Y164.84620 F240
G0 X183.00643 Y164.84620 F240
G0 X183.00643 Y174.93000 F240
G0 X180.94903 Y174.93000 F240
G0 X180.94903 Y174.90460 F240
M400
M5
M42 P13 S0 (OFF - LASER)
G00 Z0.25000 ( retract )

G00 X175.23403 Y174.90460 F2000 (rapid move to begin)
F1000.00000
G01 Z0.00000
F2000.00000
G0 X175.23403 Y174.90460 F240
G0 X175.23403 Y164.84620 F240
G0 X177.31683 Y164.84620 F240
G0 X177.31683 Y174.93000 F240
G0 X175.23403 Y174.93000 F240
G0 X175.23403 Y174.90460 F240
M400
M5
M42 P13 S0 (OFF - LASER)
G00 Z0.25000 ( retract )

G00 X170.78903 Y174.90460 F2000 (rapid move to begin)
F1000.00000
G01 Z0.00000
F2000.00000
G0 X170.78903 Y174.90460 F240
G0 X170.78903 Y164.84620 F240
G0 X172.84643 Y164.84620 F240
G0 X172.84643 Y174.93000 F240
G0 X170.78903 Y174.93000 F240
G0 X170.78903 Y174.90460 F240
M400
M5
M42 P13 S0 (OFF - LASER)
G00 Z0.25000 ( retract )

G00 X165.07403 Y174.90460 F2000 (rapid move to begin)
F1000.00000
G01 Z0.00000
F2000.00000
G0 X165.07403 Y174.90460 F240
G0 X165.07403 Y164.84620 F240
G0 X167.15683 Y164.84620 F240
G0 X167.15683 Y174.93000 F240
G0 X165.07403 Y174.93000 F240
G0 X165.07403 Y174.90460 F240
M400
M5
M42 P13 S0 (OFF - LASER)
G00 Z0.25000 ( retract )

G00 X162.53403 Y174.90460 F2000 (rapid move to begin)
F1000.00000
G01 Z0.00000
F2000.00000
G0 X162.53403 Y174.90460 F240
G0 X162.53403 Y164.84620 F240
G0 X164.59143 Y164.84620 F240
G0 X164.59143 Y174.93000 F240
G0 X162.53403 Y174.93000 F240
G0 X162.53403 Y174.90460 F240
M400
M5
M42 P13 S0 (OFF - LASER)
G00 Z0.25000 ( retract )

G00 X156.81903 Y174.90460 F2000 (rapid move to begin)
F1000.00000
G01 Z0.00000
F2000.00000
G0 X156.81903 Y174.90460 F240
G0 X156.81903 Y164.84620 F240
G0 X158.90183 Y164.84620 F240
G0 X158.90183 Y174.93000 F240
G0 X156.81903 Y174.93000 F240
G0 X156.81903 Y174.90460 F240
M400
M5
M42 P13 S0 (OFF - LASER)
G00 Z0.25000 ( retract )

G00 X152.37403 Y174.90460 F2000 (rapid move to begin)
F1000.00000
G01 Z0.00000
F2000.00000
G0 X152.37403 Y174.90460 F240
G0 X152.37403 Y164.84620 F240
G0 X154.43143 Y164.84620 F240
G0 X154.43143 Y174.93000 F240
G0 X152.37403 Y174.93000 F240
G0 X152.37403 Y174.90460 F240
M400
M5
M42 P13 S0 (OFF - LASER)
G00 Z0.25000 ( retract )

G00 X146.65903 Y174.90460 F2000 (rapid move to begin)
F1000.00000
G01 Z0.00000
F2000.00000
G0 X146.65903 Y174.90460 F240
G0 X146.65903 Y164.84620 F240
G0 X148.74183 Y164.84620 F240
G0 X148.74183 Y174.93000 F240
G0 X146.65903 Y174.93000 F240
G0 X146.65903 Y174.90460 F240
M400
M5
M42 P13 S0 (OFF - LASER)
G00 Z0.25000 ( retract )

G00 X144.11903 Y174.90460 F2000 (rapid move to begin)
F1000.00000
G01 Z0.00000
F2000.00000
G0 X144.11903 Y174.90460 F240
G0 X144.11903 Y164.84620 F240
G0 X146.17643 Y164.84620 F240
G0 X146.17643 Y174.93000 F240
G0 X144.11903 Y174.93000 F240
G0 X144.11903 Y174.90460 F240
M400
M5
M42 P13 S0 (OFF - LASER)
G00 Z0.25000 ( retract )

G00 X138.40403 Y174.90460 F2000 (rapid move to begin)
F1000.00000
G01 Z0.00000
F2000.00000
G0 X138.40403 Y174.90460 F240
G0 X138.40403 Y164.84620 F240
G0 X140.48683 Y164.84620 F240
G0 X140.48683 Y174.93000 F240
G0 X138.40403 Y174.93000 F240
G0 X138.40403 Y174.90460 F240
M400
M5
M42 P13 S0 (OFF - LASER)
G00 Z0.25000 ( retract )

G00 X133.95903 Y174.90460 F2000 (rapid move to begin)
F1000.00000
G01 Z0.00000
F2000.00000
G0 X133.95903 Y174.90460 F240
G0 X133.95903 Y164.84620 F240
G0 X136.01643 Y164.84620 F240
G0 X136.01643 Y174.93000 F240
G0 X133.95903 Y174.93000 F240
G0 X133.95903 Y174.90460 F240
M400
M5
M42 P13 S0 (OFF - LASER)
G00 Z0.25000 ( retract )

G00 X128.24403 Y174.90460 F2000 (rapid move to begin)
F1000.00000
G01 Z0.00000
F2000.00000
G0 X128.24403 Y174.90460 F240
G0 X128.24403 Y164.84620 F240
G0 X130.32683 Y164.84620 F240
G0 X130.32683 Y174.93000 F240
G0 X128.24403 Y174.93000 F240
G0 X128.24403 Y174.90460 F240
M400
M5
M42 P13 S0 (OFF - LASER)
G00 Z0.25000 ( retract )

G00 X125.70403 Y174.90460 F2000 (rapid move to begin)
F1000.00000
G01 Z0.00000
F2000.00000
G0 X125.70403 Y174.90460 F240
G0 X125.70403 Y164.84620 F240
G0 X127.76143 Y164.84620 F240
G0 X127.76143 Y174.93000 F240
G0 X125.70403 Y174.93000 F240
G0 X125.70403 Y174.90460 F240
M400
M5
M42 P13 S0 (OFF - LASER)
G00 Z0.25000 ( retract )

G00 X119.98903 Y174.90460 F2000 (rapid move to begin)
F1000.00000
G01 Z0.00000
F2000.00000
G0 X119.98903 Y174.90460 F240
G0 X119.98903 Y164.84620 F240
G0 X122.07183 Y164.84620 F240
G0 X122.07183 Y174.93000 F240
G0 X119.98903 Y174.93000 F240
G0 X119.98903 Y174.90460 F240
M400
M5
M42 P13 S0 (OFF - LASER)
G00 Z0.25000 ( retract )

G00 X115.54403 Y174.90460 F2000 (rapid move to begin)
F1000.00000
G01 Z0.00000
F2000.00000
G0 X115.54403 Y174.90460 F240
G0 X115.54403 Y164.84620 F240
G0 X117.60143 Y164.84620 F240
G0 X117.60143 Y174.93000 F240
G0 X115.54403 Y174.93000 F240
G0 X115.54403 Y174.90460 F240
M400
M5
M42 P13 S0 (OFF - LASER)
G00 Z0.25000 ( retract )

G00 X109.82903 Y174.90460 F2000 (rapid move to begin)
F1000.00000
G01 Z0.00000
F2000.00000
G0 X109.82903 Y174.90460 F240
G0 X109.82903 Y164.84620 F240
G0 X111.91183 Y164.84620 F240
G0 X111.91183 Y174.93000 F240
G0 X109.82903 Y174.93000 F240
G0 X109.82903 Y174.90460 F240
M400
M5
M42 P13 S0 (OFF - LASER)
G00 Z0.25000 ( retract )

G00 X107.28903 Y174.90460 F2000 (rapid move to begin)
F1000.00000
G01 Z0.00000
F2000.00000
G0 X107.28903 Y174.90460 F240
G0 X107.28903 Y164.84620 F240
G0 X109.34643 Y164.84620 F240
G0 X109.34643 Y174.93000 F240
G0 X107.28903 Y174.93000 F240
G0 X107.28903 Y174.90460 F240
M400
M5
M42 P13 S0 (OFF - LASER)
G00 Z0.25000 ( retract )

G00 X101.57403 Y174.90460 F2000 (rapid move to begin)
F1000.00000
G01 Z0.00000
F2000.00000
G0 X101.57403 Y174.90460 F240
G0 X101.57403 Y164.84620 F240
G0 X103.65683 Y164.84620 F240
G0 X103.65683 Y174.93000 F240
G0 X101.57403 Y174.93000 F240
G0 X101.57403 Y174.90460 F240
M400
M5
M42 P13 S0 (OFF - LASER)
G00 Z0.25000 ( retract )

G00 X114.50263 Y192.37980 F2000 (rapid move to begin)
F1000.00000
G01 Z0.00000
F2000.00000
G0 X114.50263 Y192.37980 F240
G0 X114.50263 Y191.82100 F240
G0 X114.88363 Y191.82100 F240
G0 X114.88363 Y192.40520 F240
G0 X114.50263 Y192.40520 F240
G0 X114.50263 Y192.37980 F240
M400
M5
M42 P13 S0 (OFF - LASER)
G00 Z0.25000 ( retract )

G00 X115.29003 Y192.37980 F2000 (rapid move to begin)
F1000.00000
G01 Z0.00000
F2000.00000
G0 X115.29003 Y192.37980 F240
G0 X115.29003 Y191.82100 F240
G0 X115.67103 Y191.82100 F240
G0 X115.67103 Y192.40520 F240
G0 X115.29003 Y192.40520 F240
G0 X115.29003 Y192.37980 F240
M400
M5
M42 P13 S0 (OFF - LASER)
G00 Z0.25000 ( retract )

G00 X151.33263 Y192.37980 F2000 (rapid move to begin)
F1000.00000
G01 Z0.00000
F2000.00000
G0 X151.33263 Y192.37980 F240
G0 X151.33263 Y191.82100 F240
G0 X151.71363 Y191.82100 F240
G0 X151.71363 Y192.40520 F240
G0 X151.33263 Y192.40520 F240
G0 X151.33263 Y192.37980 F240
M400
M5
M42 P13 S0 (OFF - LASER)
G00 Z0.25000 ( retract )

G00 X152.12003 Y192.37980 F2000 (rapid move to begin)
F1000.00000
G01 Z0.00000
F2000.00000
G0 X152.12003 Y192.37980 F240
G0 X152.12003 Y191.82100 F240
G0 X152.50103 Y191.82100 F240
G0 X152.50103 Y192.40520 F240
G0 X152.12003 Y192.40520 F240
G0 X152.12003 Y192.37980 F240
M400
M5
M42 P13 S0 (OFF - LASER)
G00 Z0.25000 ( retract )

G00 X188.16263 Y192.37980 F2000 (rapid move to begin)
F1000.00000
G01 Z0.00000
F2000.00000
G0 X188.16263 Y192.37980 F240
G0 X188.16263 Y191.82100 F240
G0 X188.54363 Y191.82100 F240
G0 X188.54363 Y192.40520 F240
G0 X188.16263 Y192.40520 F240
G0 X188.16263 Y192.37980 F240
M400
M5
M42 P13 S0 (OFF - LASER)
G00 Z0.25000 ( retract )

G00 X188.95003 Y192.37980 F2000 (rapid move to begin)
F1000.00000
G01 Z0.00000
F2000.00000
G0 X188.95003 Y192.37980 F240
G0 X188.95003 Y191.82100 F240
G0 X189.33103 Y191.82100 F240
G0 X189.33103 Y192.40520 F240
G0 X188.95003 Y192.40520 F240
G0 X188.95003 Y192.37980 F240
M400
M5
M42 P13 S0 (OFF - LASER)
G00 Z0.25000 ( retract )

G00 X203.19943 Y204.74960 F2000 (rapid move to begin)
F1000.00000
G01 Z0.00000
F2000.00000
G0 X203.19943 Y204.74960 F240
G0 X203.19943 Y194.69120 F240
G0 X205.28223 Y194.69120 F240
G0 X205.28223 Y204.77500 F240
G0 X203.19943 Y204.77500 F240
G0 X203.19943 Y204.74960 F240
M400
M5
M42 P13 S0 (OFF - LASER)
G00 Z0.25000 ( retract )

G00 X208.88903 Y204.74960 F2000 (rapid move to begin)
F1000.00000
G01 Z0.00000
F2000.00000
G0 X208.88903 Y204.74960 F240
G0 X208.88903 Y194.69120 F240
G0 X210.97183 Y194.69120 F240
G0 X210.97183 Y204.77500 F240
G0 X208.88903 Y204.77500 F240
G0 X208.88903 Y204.74960 F240
M400
M5
M42 P13 S0 (OFF - LASER)
G00 Z0.25000 ( retract )

G00 X240.23263 Y194.91980 F2000 (rapid move to begin)
F1000.00000
G01 Z0.00000
F2000.00000
G0 X240.23263 Y194.91980 F240
G0 X240.23263 Y194.36100 F240
G0 X240.61363 Y194.36100 F240
G0 X240.61363 Y194.94520 F240
G0 X240.23263 Y194.94520 F240
G0 X240.23263 Y194.91980 F240
M400
M5
M42 P13 S0 (OFF - LASER)
G00 Z0.25000 ( retract )

G00 X241.02003 Y194.91980 F2000 (rapid move to begin)
F1000.00000
G01 Z0.00000
F2000.00000
G0 X241.02003 Y194.91980 F240
G0 X241.02003 Y194.36100 F240
G0 X241.40103 Y194.36100 F240
G0 X241.40103 Y194.94520 F240
G0 X241.02003 Y194.94520 F240
G0 X241.02003 Y194.91980 F240

M400
M5
M42 P13 S0 (OFF - LASER)
G00 Z0.25000 ( retract )

M5 ( Spindle off. )
M9 ( Coolant off. )

M106 S0 (Fan off.)
M106 S255 (Fan on.)
G0 x100 y100 f2000 (  Set origin and speed.  )
( pcb2gcode 1.2.2 )
( Software-independent Gcode )





S10000 ( RPM spindle speed. )
G64 P0.00200 ( set maximum deviation from commanded toolpath )
F2000.00000 ( Feedrate. )

F2000.00000 ( Feedrate. )
M400
M5
M42 P13 S0 (OFF - LASER)
G00 Z0.25000 ( retract )

G00 X102.89483 Y144.39920 F2000 (rapid move to begin)
F1000.00000
G01 Z0.00000
F2000.00000
G0 X102.89483 Y144.39920 F240
G0 X102.89483 Y134.39160 F240
G0 X104.92683 Y134.39160 F240
G0 X104.92683 Y144.42460 F240
G0 X102.89483 Y144.42460 F240
G0 X102.89483 Y144.39920 F240
M400
M5
M42 P13 S0 (OFF - LASER)
G00 Z0.25000 ( retract )

G00 X108.58443 Y144.39920 F2000 (rapid move to begin)
F1000.00000
G01 Z0.00000
F2000.00000
G0 X108.58443 Y144.39920 F240
G0 X108.58443 Y134.39160 F240
G0 X110.61643 Y134.39160 F240
G0 X110.61643 Y144.42460 F240
G0 X108.58443 Y144.42460 F240
G0 X108.58443 Y144.39920 F240
M400
M5
M42 P13 S0 (OFF - LASER)
G00 Z0.25000 ( retract )

G00 X111.14983 Y144.39920 F2000 (rapid move to begin)
F1000.00000
G01 Z0.00000
F2000.00000
G0 X111.14983 Y144.39920 F240
G0 X111.14983 Y134.39160 F240
G0 X113.18183 Y134.39160 F240
G0 X113.18183 Y144.42460 F240
G0 X111.14983 Y144.42460 F240
G0 X111.14983 Y144.39920 F240
M400
M5
M42 P13 S0 (OFF - LASER)
G00 Z0.25000 ( retract )

G00 X116.83943 Y144.39920 F2000 (rapid move to begin)
F1000.00000
G01 Z0.00000
F2000.00000
G0 X116.83943 Y144.39920 F240
G0 X116.83943 Y134.39160 F240
G0 X118.87143 Y134.39160 F240
G0 X118.87143 Y144.42460 F240
G0 X116.83943 Y144.42460 F240
G0 X116.83943 Y144.39920 F240
M400
M5
M42 P13 S0 (OFF - LASER)
G00 Z0.25000 ( retract )

G00 X121.30983 Y144.39920 F2000 (rapid move to begin)
F1000.00000
G01 Z0.00000
F2000.00000
G0 X121.30983 Y144.39920 F240
G0 X121.30983 Y134.39160 F240
G0 X123.34183 Y134.39160 F240
G0 X123.34183 Y144.42460 F240
G0 X121.30983 Y144.42460 F240
G0 X121.30983 Y144.39920 F240
M400
M5
M42 P13 S0 (OFF - LASER)
G00 Z0.25000 ( retract )

G00 X126.99943 Y144.39920 F2000 (rapid move to begin)
F1000.00000
G01 Z0.00000
F2000.00000
G0 X126.99943 Y144.39920 F240
G0 X126.99943 Y134.39160 F240
G0 X129.03143 Y134.39160 F240
G0 X129.03143 Y144.42460 F240
G0 X126.99943 Y144.42460 F240
G0 X126.99943 Y144.39920 F240
M400
M5
M42 P13 S0 (OFF - LASER)
G00 Z0.25000 ( retract )

G00 X129.56483 Y144.39920 F2000 (rapid move to begin)
F1000.00000
G01 Z0.00000
F2000.00000
G0 X129.56483 Y144.39920 F240
G0 X129.56483 Y134.39160 F240
G0 X131.59683 Y134.39160 F240
G0 X131.59683 Y144.42460 F240
G0 X129.56483 Y144.42460 F240
G0 X129.56483 Y144.39920 F240
M400
M5
M42 P13 S0 (OFF - LASER)
G00 Z0.25000 ( retract )

G00 X135.25443 Y144.39920 F2000 (rapid move to begin)
F1000.00000
G01 Z0.00000
F2000.00000
G0 X135.25443 Y144.39920 F240
G0 X135.25443 Y134.39160 F240
G0 X137.28643 Y134.39160 F240
G0 X137.28643 Y144.42460 F240
G0 X135.25443 Y144.42460 F240
G0 X135.25443 Y144.39920 F240
M400
M5
M42 P13 S0 (OFF - LASER)
G00 Z0.25000 ( retract )

G00 X139.72483 Y144.39920 F2000 (rapid move to begin)
F1000.00000
G01 Z0.00000
F2000.00000
G0 X139.72483 Y144.39920 F240
G0 X139.72483 Y134.39160 F240
G0 X141.75683 Y134.39160 F240
G0 X141.75683 Y144.42460 F240
G0 X139.72483 Y144.42460 F240
G0 X139.72483 Y144.39920 F240
M400
M5
M42 P13 S0 (OFF - LASER)
G00 Z0.25000 ( retract )

G00 X145.41443 Y144.39920 F2000 (rapid move to begin)
F1000.00000
G01 Z0.00000
F2000.00000
G0 X145.41443 Y144.39920 F240
G0 X145.41443 Y134.39160 F240
G0 X147.44643 Y134.39160 F240
G0 X147.44643 Y144.42460 F240
G0 X145.41443 Y144.42460 F240
G0 X145.41443 Y144.39920 F240
M400
M5
M42 P13 S0 (OFF - LASER)
G00 Z0.25000 ( retract )

G00 X147.97983 Y144.39920 F2000 (rapid move to begin)
F1000.00000
G01 Z0.00000
F2000.00000
G0 X147.97983 Y144.39920 F240
G0 X147.97983 Y134.39160 F240
G0 X150.01183 Y134.39160 F240
G0 X150.01183 Y144.42460 F240
G0 X147.97983 Y144.42460 F240
G0 X147.97983 Y144.39920 F240
M400
M5
M42 P13 S0 (OFF - LASER)
G00 Z0.25000 ( retract )

G00 X153.66943 Y144.39920 F2000 (rapid move to begin)
F1000.00000
G01 Z0.00000
F2000.00000
G0 X153.66943 Y144.39920 F240
G0 X153.66943 Y134.39160 F240
G0 X155.70143 Y134.39160 F240
G0 X155.70143 Y144.42460 F240
G0 X153.66943 Y144.42460 F240
G0 X153.66943 Y144.39920 F240
M400
M5
M42 P13 S0 (OFF - LASER)
G00 Z0.25000 ( retract )

G00 X158.13983 Y144.39920 F2000 (rapid move to begin)
F1000.00000
G01 Z0.00000
F2000.00000
G0 X158.13983 Y144.39920 F240
G0 X158.13983 Y134.39160 F240
G0 X160.17183 Y134.39160 F240
G0 X160.17183 Y144.42460 F240
G0 X158.13983 Y144.42460 F240
G0 X158.13983 Y144.39920 F240
M400
M5
M42 P13 S0 (OFF - LASER)
G00 Z0.25000 ( retract )

G00 X163.82943 Y144.39920 F2000 (rapid move to begin)
F1000.00000
G01 Z0.00000
F2000.00000
G0 X163.82943 Y144.39920 F240
G0 X163.82943 Y134.39160 F240
G0 X165.86143 Y134.39160 F240
G0 X165.86143 Y144.42460 F240
G0 X163.82943 Y144.42460 F240
G0 X163.82943 Y144.39920 F240
M400
M5
M42 P13 S0 (OFF - LASER)
G00 Z0.25000 ( retract )

G00 X166.39483 Y144.39920 F2000 (rapid move to begin)
F1000.00000
G01 Z0.00000
F2000.00000
G0 X166.39483 Y144.39920 F240
G0 X166.39483 Y134.39160 F240
G0 X168.42683 Y134.39160 F240
G0 X168.42683 Y144.42460 F240
G0 X166.39483 Y144.42460 F240
G0 X166.39483 Y144.39920 F240
M400
M5
M42 P13 S0 (OFF - LASER)
G00 Z0.25000 ( retract )

G00 X172.08443 Y144.39920 F2000 (rapid move to begin)
F1000.00000
G01 Z0.00000
F2000.00000
G0 X172.08443 Y144.39920 F240
G0 X172.08443 Y134.39160 F240
G0 X174.11643 Y134.39160 F240
G0 X174.11643 Y144.42460 F240
G0 X172.08443 Y144.42460 F240
G0 X172.08443 Y144.39920 F240
M400
M5
M42 P13 S0 (OFF - LASER)
G00 Z0.25000 ( retract )

G00 X176.55483 Y144.39920 F2000 (rapid move to begin)
F1000.00000
G01 Z0.00000
F2000.00000
G0 X176.55483 Y144.39920 F240
G0 X176.55483 Y134.39160 F240
G0 X178.58683 Y134.39160 F240
G0 X178.58683 Y144.42460 F240
G0 X176.55483 Y144.42460 F240
G0 X176.55483 Y144.39920 F240
M400
M5
M42 P13 S0 (OFF - LASER)
G00 Z0.25000 ( retract )

G00 X182.24443 Y144.39920 F2000 (rapid move to begin)
F1000.00000
G01 Z0.00000
F2000.00000
G0 X182.24443 Y144.39920 F240
G0 X182.24443 Y134.39160 F240
G0 X184.27643 Y134.39160 F240
G0 X184.27643 Y144.42460 F240
G0 X182.24443 Y144.42460 F240
G0 X182.24443 Y144.39920 F240
M400
M5
M42 P13 S0 (OFF - LASER)
G00 Z0.25000 ( retract )

G00 X184.80983 Y144.39920 F2000 (rapid move to begin)
F1000.00000
G01 Z0.00000
F2000.00000
G0 X184.80983 Y144.39920 F240
G0 X184.80983 Y134.39160 F240
G0 X186.84183 Y134.39160 F240
G0 X186.84183 Y144.42460 F240
G0 X184.80983 Y144.42460 F240
G0 X184.80983 Y144.39920 F240
M400
M5
M42 P13 S0 (OFF - LASER)
G00 Z0.25000 ( retract )

G00 X190.49943 Y144.39920 F2000 (rapid move to begin)
F1000.00000
G01 Z0.00000
F2000.00000
G0 X190.49943 Y144.39920 F240
G0 X190.49943 Y134.39160 F240
G0 X192.53143 Y134.39160 F240
G0 X192.53143 Y144.42460 F240
G0 X190.49943 Y144.42460 F240
G0 X190.49943 Y144.39920 F240
M400
M5
M42 P13 S0 (OFF - LASER)
G00 Z0.25000 ( retract )

G00 X194.96983 Y144.39920 F2000 (rapid move to begin)
F1000.00000
G01 Z0.00000
F2000.00000
G0 X194.96983 Y144.39920 F240
G0 X194.96983 Y134.39160 F240
G0 X197.00183 Y134.39160 F240
G0 X197.00183 Y144.42460 F240
G0 X194.96983 Y144.42460 F240
G0 X194.96983 Y144.39920 F240
M400
M5
M42 P13 S0 (OFF - LASER)
G00 Z0.25000 ( retract )

G00 X200.65943 Y144.39920 F2000 (rapid move to begin)
F1000.00000
G01 Z0.00000
F2000.00000
G0 X200.65943 Y144.39920 F240
G0 X200.65943 Y134.39160 F240
G0 X202.69143 Y134.39160 F240
G0 X202.69143 Y144.42460 F240
G0 X200.65943 Y144.42460 F240
G0 X200.65943 Y144.39920 F240
M400
M5
M42 P13 S0 (OFF - LASER)
G00 Z0.25000 ( retract )

G00 X203.22483 Y144.39920 F2000 (rapid move to begin)
F1000.00000
G01 Z0.00000
F2000.00000
G0 X203.22483 Y144.39920 F240
G0 X203.22483 Y134.39160 F240
G0 X205.25683 Y134.39160 F240
G0 X205.25683 Y144.42460 F240
G0 X203.22483 Y144.42460 F240
G0 X203.22483 Y144.39920 F240
M400
M5
M42 P13 S0 (OFF - LASER)
G00 Z0.25000 ( retract )

G00 X208.91443 Y144.39920 F2000 (rapid move to begin)
F1000.00000
G01 Z0.00000
F2000.00000
G0 X208.91443 Y144.39920 F240
G0 X208.91443 Y134.39160 F240
G0 X210.94643 Y134.39160 F240
G0 X210.94643 Y144.42460 F240
G0 X208.91443 Y144.42460 F240
G0 X208.91443 Y144.39920 F240
M400
M5
M42 P13 S0 (OFF - LASER)
G00 Z0.25000 ( retract )

G00 X207.64443 Y174.87920 F2000 (rapid move to begin)
F1000.00000
G01 Z0.00000
F2000.00000
G0 X207.64443 Y174.87920 F240
G0 X207.64443 Y164.87160 F240
G0 X209.65103 Y164.87160 F240
G0 X209.65103 Y174.90460 F240
G0 X207.64443 Y174.90460 F240
G0 X207.64443 Y174.87920 F240
M400
M5
M42 P13 S0 (OFF - LASER)
G00 Z0.25000 ( retract )

G00 X201.92943 Y174.87920 F2000 (rapid move to begin)
F1000.00000
G01 Z0.00000
F2000.00000
G0 X201.92943 Y174.87920 F240
G0 X201.92943 Y164.87160 F240
G0 X203.96143 Y164.87160 F240
G0 X203.96143 Y174.90460 F240
G0 X201.92943 Y174.90460 F240
G0 X201.92943 Y174.87920 F240
M400
M5
M42 P13 S0 (OFF - LASER)
G00 Z0.25000 ( retract )

G00 X199.38943 Y174.87920 F2000 (rapid move to begin)
F1000.00000
G01 Z0.00000
F2000.00000
G0 X199.38943 Y174.87920 F240
G0 X199.38943 Y164.87160 F240
G0 X201.39603 Y164.87160 F240
G0 X201.39603 Y174.90460 F240
G0 X199.38943 Y174.90460 F240
G0 X199.38943 Y174.87920 F240
M400
M5
M42 P13 S0 (OFF - LASER)
G00 Z0.25000 ( retract )

G00 X193.67443 Y174.87920 F2000 (rapid move to begin)
F1000.00000
G01 Z0.00000
F2000.00000
G0 X193.67443 Y174.87920 F240
G0 X193.67443 Y164.87160 F240
G0 X195.70643 Y164.87160 F240
G0 X195.70643 Y174.90460 F240
G0 X193.67443 Y174.90460 F240
G0 X193.67443 Y174.87920 F240
M400
M5
M42 P13 S0 (OFF - LASER)
G00 Z0.25000 ( retract )

G00 X189.22943 Y174.87920 F2000 (rapid move to begin)
F1000.00000
G01 Z0.00000
F2000.00000
G0 X189.22943 Y174.87920 F240
G0 X189.22943 Y164.87160 F240
G0 X191.23603 Y164.87160 F240
G0 X191.23603 Y174.90460 F240
G0 X189.22943 Y174.90460 F240
G0 X189.22943 Y174.87920 F240
M400
M5
M42 P13 S0 (OFF - LASER)
G00 Z0.25000 ( retract )

G00 X183.51443 Y174.87920 F2000 (rapid move to begin)
F1000.00000
G01 Z0.00000
F2000.00000
G0 X183.51443 Y174.87920 F240
G0 X183.51443 Y164.87160 F240
G0 X185.54643 Y164.87160 F240
G0 X185.54643 Y174.90460 F240
G0 X183.51443 Y174.90460 F240
G0 X183.51443 Y174.87920 F240
M400
M5
M42 P13 S0 (OFF - LASER)
G00 Z0.25000 ( retract )

G00 X180.97443 Y174.87920 F2000 (rapid move to begin)
F1000.00000
G01 Z0.00000
F2000.00000
G0 X180.97443 Y174.87920 F240
G0 X180.97443 Y164.87160 F240
G0 X182.98103 Y164.87160 F240
G0 X182.98103 Y174.90460 F240
G0 X180.97443 Y174.90460 F240
G0 X180.97443 Y174.87920 F240
M400
M5
M42 P13 S0 (OFF - LASER)
G00 Z0.25000 ( retract )

G00 X175.25943 Y174.87920 F2000 (rapid move to begin)
F1000.00000
G01 Z0.00000
F2000.00000
G0 X175.25943 Y174.87920 F240
G0 X175.25943 Y164.87160 F240
G0 X177.29143 Y164.87160 F240
G0 X177.29143 Y174.90460 F240
G0 X175.25943 Y174.90460 F240
G0 X175.25943 Y174.87920 F240
M400
M5
M42 P13 S0 (OFF - LASER)
G00 Z0.25000 ( retract )

G00 X170.81443 Y174.87920 F2000 (rapid move to begin)
F1000.00000
G01 Z0.00000
F2000.00000
G0 X170.81443 Y174.87920 F240
G0 X170.81443 Y164.87160 F240
G0 X172.82103 Y164.87160 F240
G0 X172.82103 Y174.90460 F240
G0 X170.81443 Y174.90460 F240
G0 X170.81443 Y174.87920 F240
M400
M5
M42 P13 S0 (OFF - LASER)
G00 Z0.25000 ( retract )

G00 X165.09943 Y174.87920 F2000 (rapid move to begin)
F1000.00000
G01 Z0.00000
F2000.00000
G0 X165.09943 Y174.87920 F240
G0 X165.09943 Y164.87160 F240
G0 X167.13143 Y164.87160 F240
G0 X167.13143 Y174.90460 F240
G0 X165.09943 Y174.90460 F240
G0 X165.09943 Y174.87920 F240
M400
M5
M42 P13 S0 (OFF - LASER)
G00 Z0.25000 ( retract )

G00 X162.55943 Y174.87920 F2000 (rapid move to begin)
F1000.00000
G01 Z0.00000
F2000.00000
G0 X162.55943 Y174.87920 F240
G0 X162.55943 Y164.87160 F240
G0 X164.56603 Y164.87160 F240
G0 X164.56603 Y174.90460 F240
G0 X162.55943 Y174.90460 F240
G0 X162.55943 Y174.87920 F240
M400
M5
M42 P13 S0 (OFF - LASER)
G00 Z0.25000 ( retract )

G00 X156.84443 Y174.87920 F2000 (rapid move to begin)
F1000.00000
G01 Z0.00000
F2000.00000
G0 X156.84443 Y174.87920 F240
G0 X156.84443 Y164.87160 F240
G0 X158.87643 Y164.87160 F240
G0 X158.87643 Y174.90460 F240
G0 X156.84443 Y174.90460 F240
G0 X156.84443 Y174.87920 F240
M400
M5
M42 P13 S0 (OFF - LASER)
G00 Z0.25000 ( retract )

G00 X152.39943 Y174.87920 F2000 (rapid move to begin)
F1000.00000
G01 Z0.00000
F2000.00000
G0 X152.39943 Y174.87920 F240
G0 X152.39943 Y164.87160 F240
G0 X154.40603 Y164.87160 F240
G0 X154.40603 Y174.90460 F240
G0 X152.39943 Y174.90460 F240
G0 X152.39943 Y174.87920 F240
M400
M5
M42 P13 S0 (OFF - LASER)
G00 Z0.25000 ( retract )

G00 X146.68443 Y174.87920 F2000 (rapid move to begin)
F1000.00000
G01 Z0.00000
F2000.00000
G0 X146.68443 Y174.87920 F240
G0 X146.68443 Y164.87160 F240
G0 X148.71643 Y164.87160 F240
G0 X148.71643 Y174.90460 F240
G0 X146.68443 Y174.90460 F240
G0 X146.68443 Y174.87920 F240
M400
M5
M42 P13 S0 (OFF - LASER)
G00 Z0.25000 ( retract )

G00 X144.14443 Y174.87920 F2000 (rapid move to begin)
F1000.00000
G01 Z0.00000
F2000.00000
G0 X144.14443 Y174.87920 F240
G0 X144.14443 Y164.87160 F240
G0 X146.15103 Y164.87160 F240
G0 X146.15103 Y174.90460 F240
G0 X144.14443 Y174.90460 F240
G0 X144.14443 Y174.87920 F240
M400
M5
M42 P13 S0 (OFF - LASER)
G00 Z0.25000 ( retract )

G00 X138.42943 Y174.87920 F2000 (rapid move to begin)
F1000.00000
G01 Z0.00000
F2000.00000
G0 X138.42943 Y174.87920 F240
G0 X138.42943 Y164.87160 F240
G0 X140.46143 Y164.87160 F240
G0 X140.46143 Y174.90460 F240
G0 X138.42943 Y174.90460 F240
G0 X138.42943 Y174.87920 F240
M400
M5
M42 P13 S0 (OFF - LASER)
G00 Z0.25000 ( retract )

G00 X133.98443 Y174.87920 F2000 (rapid move to begin)
F1000.00000
G01 Z0.00000
F2000.00000
G0 X133.98443 Y174.87920 F240
G0 X133.98443 Y164.87160 F240
G0 X135.99103 Y164.87160 F240
G0 X135.99103 Y174.90460 F240
G0 X133.98443 Y174.90460 F240
G0 X133.98443 Y174.87920 F240
M400
M5
M42 P13 S0 (OFF - LASER)
G00 Z0.25000 ( retract )

G00 X128.26943 Y174.87920 F2000 (rapid move to begin)
F1000.00000
G01 Z0.00000
F2000.00000
G0 X128.26943 Y174.87920 F240
G0 X128.26943 Y164.87160 F240
G0 X130.30143 Y164.87160 F240
G0 X130.30143 Y174.90460 F240
G0 X128.26943 Y174.90460 F240
G0 X128.26943 Y174.87920 F240
M400
M5
M42 P13 S0 (OFF - LASER)
G00 Z0.25000 ( retract )

G00 X125.72943 Y174.87920 F2000 (rapid move to begin)
F1000.00000
G01 Z0.00000
F2000.00000
G0 X125.72943 Y174.87920 F240
G0 X125.72943 Y164.87160 F240
G0 X127.73603 Y164.87160 F240
G0 X127.73603 Y174.90460 F240
G0 X125.72943 Y174.90460 F240
G0 X125.72943 Y174.87920 F240
M400
M5
M42 P13 S0 (OFF - LASER)
G00 Z0.25000 ( retract )

G00 X120.01443 Y174.87920 F2000 (rapid move to begin)
F1000.00000
G01 Z0.00000
F2000.00000
G0 X120.01443 Y174.87920 F240
G0 X120.01443 Y164.87160 F240
G0 X122.04643 Y164.87160 F240
G0 X122.04643 Y174.90460 F240
G0 X120.01443 Y174.90460 F240
G0 X120.01443 Y174.87920 F240
M400
M5
M42 P13 S0 (OFF - LASER)
G00 Z0.25000 ( retract )

G00 X115.56943 Y174.87920 F2000 (rapid move to begin)
F1000.00000
G01 Z0.00000
F2000.00000
G0 X115.56943 Y174.87920 F240
G0 X115.56943 Y164.87160 F240
G0 X117.57603 Y164.87160 F240
G0 X117.57603 Y174.90460 F240
G0 X115.56943 Y174.90460 F240
G0 X115.56943 Y174.87920 F240
M400
M5
M42 P13 S0 (OFF - LASER)
G00 Z0.25000 ( retract )

G00 X109.85443 Y174.87920 F2000 (rapid move to begin)
F1000.00000
G01 Z0.00000
F2000.00000
G0 X109.85443 Y174.87920 F240
G0 X109.85443 Y164.87160 F240
G0 X111.88643 Y164.87160 F240
G0 X111.88643 Y174.90460 F240
G0 X109.85443 Y174.90460 F240
G0 X109.85443 Y174.87920 F240
M400
M5
M42 P13 S0 (OFF - LASER)
G00 Z0.25000 ( retract )

G00 X107.31443 Y174.87920 F2000 (rapid move to begin)
F1000.00000
G01 Z0.00000
F2000.00000
G0 X107.31443 Y174.87920 F240
G0 X107.31443 Y164.87160 F240
G0 X109.32103 Y164.87160 F240
G0 X109.32103 Y174.90460 F240
G0 X107.31443 Y174.90460 F240
G0 X107.31443 Y174.87920 F240
M400
M5
M42 P13 S0 (OFF - LASER)
G00 Z0.25000 ( retract )

G00 X101.59943 Y174.87920 F2000 (rapid move to begin)
F1000.00000
G01 Z0.00000
F2000.00000
G0 X101.59943 Y174.87920 F240
G0 X101.59943 Y164.87160 F240
G0 X103.63143 Y164.87160 F240
G0 X103.63143 Y174.90460 F240
G0 X101.59943 Y174.90460 F240
G0 X101.59943 Y174.87920 F240
M400
M5
M42 P13 S0 (OFF - LASER)
G00 Z0.25000 ( retract )

G00 X114.52803 Y192.35440 F2000 (rapid move to begin)
F1000.00000
G01 Z0.00000
F2000.00000
G0 X114.52803 Y192.35440 F240
G0 X114.52803 Y191.84640 F240
G0 X114.85823 Y191.84640 F240
G0 X114.85823 Y192.37980 F240
G0 X114.52803 Y192.37980 F240
G0 X114.52803 Y192.35440 F240
M400
M5
M42 P13 S0 (OFF - LASER)
G00 Z0.25000 ( retract )

G00 X115.31543 Y192.35440 F2000 (rapid move to begin)
F1000.00000
G01 Z0.00000
F2000.00000
G0 X115.31543 Y192.35440 F240
G0 X115.31543 Y191.84640 F240
G0 X115.64563 Y191.84640 F240
G0 X115.64563 Y192.37980 F240
G0 X115.31543 Y192.37980 F240
G0 X115.31543 Y192.35440 F240
M400
M5
M42 P13 S0 (OFF - LASER)
G00 Z0.25000 ( retract )

G00 X151.35803 Y192.35440 F2000 (rapid move to begin)
F1000.00000
G01 Z0.00000
F2000.00000
G0 X151.35803 Y192.35440 F240
G0 X151.35803 Y191.84640 F240
G0 X151.68823 Y191.84640 F240
G0 X151.68823 Y192.37980 F240
G0 X151.35803 Y192.37980 F240
G0 X151.35803 Y192.35440 F240
M400
M5
M42 P13 S0 (OFF - LASER)
G00 Z0.25000 ( retract )

G00 X152.14543 Y192.35440 F2000 (rapid move to begin)
F1000.00000
G01 Z0.00000
F2000.00000
G0 X152.14543 Y192.35440 F240
G0 X152.14543 Y191.84640 F240
G0 X152.47563 Y191.84640 F240
G0 X152.47563 Y192.37980 F240
G0 X152.14543 Y192.37980 F240
G0 X152.14543 Y192.35440 F240
M400
M5
M42 P13 S0 (OFF - LASER)
G00 Z0.25000 ( retract )

G00 X188.18803 Y192.35440 F2000 (rapid move to begin)
F1000.00000
G01 Z0.00000
F2000.00000
G0 X188.18803 Y192.35440 F240
G0 X188.18803 Y191.84640 F240
G0 X188.51823 Y191.84640 F240
G0 X188.51823 Y192.37980 F240
G0 X188.18803 Y192.37980 F240
G0 X188.18803 Y192.35440 F240
M400
M5
M42 P13 S0 (OFF - LASER)
G00 Z0.25000 ( retract )

G00 X188.97543 Y192.35440 F2000 (rapid move to begin)
F1000.00000
G01 Z0.00000
F2000.00000
G0 X188.97543 Y192.35440 F240
G0 X188.97543 Y191.84640 F240
G0 X189.30563 Y191.84640 F240
G0 X189.30563 Y192.37980 F240
G0 X188.97543 Y192.37980 F240
G0 X188.97543 Y192.35440 F240
M400
M5
M42 P13 S0 (OFF - LASER)
G00 Z0.25000 ( retract )

G00 X203.22483 Y204.72420 F2000 (rapid move to begin)
F1000.00000
G01 Z0.00000
F2000.00000
G0 X203.22483 Y204.72420 F240
G0 X203.22483 Y194.71660 F240
G0 X205.25683 Y194.71660 F240
G0 X205.25683 Y204.74960 F240
G0 X203.22483 Y204.74960 F240
G0 X203.22483 Y204.72420 F240
M400
M5
M42 P13 S0 (OFF - LASER)
G00 Z0.25000 ( retract )

G00 X208.91443 Y204.72420 F2000 (rapid move to begin)
F1000.00000
G01 Z0.00000
F2000.00000
G0 X208.91443 Y204.72420 F240
G0 X208.91443 Y194.71660 F240
G0 X210.94643 Y194.71660 F240
G0 X210.94643 Y204.74960 F240
G0 X208.91443 Y204.74960 F240
G0 X208.91443 Y204.72420 F240
M400
M5
M42 P13 S0 (OFF - LASER)
G00 Z0.25000 ( retract )

G00 X240.25803 Y194.89440 F2000 (rapid move to begin)
F1000.00000
G01 Z0.00000
F2000.00000
G0 X240.25803 Y194.89440 F240
G0 X240.25803 Y194.38640 F240
G0 X240.58823 Y194.38640 F240
G0 X240.58823 Y194.91980 F240
G0 X240.25803 Y194.91980 F240
G0 X240.25803 Y194.89440 F240
M400
M5
M42 P13 S0 (OFF - LASER)
G00 Z0.25000 ( retract )

G00 X241.04543 Y194.89440 F2000 (rapid move to begin)
F1000.00000
G01 Z0.00000
F2000.00000
G0 X241.04543 Y194.89440 F240
G0 X241.04543 Y194.38640 F240
G0 X241.37563 Y194.38640 F240
G0 X241.37563 Y194.91980 F240
G0 X241.04543 Y194.91980 F240
G0 X241.04543 Y194.89440 F240

M400
M5
M42 P13 S0 (OFF - LASER)
G00 Z0.25000 ( retract )

M5 ( Spindle off. )
M9 ( Coolant off. )

M106 S0 (Fan off.)
M106 S255 (Fan on.)
G0 x100 y100 f2000 (  Set origin and speed.  )
( pcb2gcode 1.2.2 )
( Software-independent Gcode )





S10000 ( RPM spindle speed. )
G64 P0.00200 ( set maximum deviation from commanded toolpath )
F2000.00000 ( Feedrate. )

F2000.00000 ( Feedrate. )
M400
M5
M42 P13 S0 (OFF - LASER)
G00 Z0.25000 ( retract )

G00 X102.89483 Y144.39920 F2000 (rapid move to begin)
F1000.00000
G01 Z0.00000
F2000.00000
G0 X102.89483 Y144.39920 F240
G0 X102.89483 Y134.39160 F240
G0 X104.92683 Y134.39160 F240
G0 X104.92683 Y144.42460 F240
G0 X102.89483 Y144.42460 F240
G0 X102.89483 Y144.39920 F240
M400
M5
M42 P13 S0 (OFF - LASER)
G00 Z0.25000 ( retract )

G00 X108.58443 Y144.39920 F2000 (rapid move to begin)
F1000.00000
G01 Z0.00000
F2000.00000
G0 X108.58443 Y144.39920 F240
G0 X108.58443 Y134.39160 F240
G0 X110.61643 Y134.39160 F240
G0 X110.61643 Y144.42460 F240
G0 X108.58443 Y144.42460 F240
G0 X108.58443 Y144.39920 F240
M400
M5
M42 P13 S0 (OFF - LASER)
G00 Z0.25000 ( retract )

G00 X111.14983 Y144.39920 F2000 (rapid move to begin)
F1000.00000
G01 Z0.00000
F2000.00000
G0 X111.14983 Y144.39920 F240
G0 X111.14983 Y134.39160 F240
G0 X113.18183 Y134.39160 F240
G0 X113.18183 Y144.42460 F240
G0 X111.14983 Y144.42460 F240
G0 X111.14983 Y144.39920 F240
M400
M5
M42 P13 S0 (OFF - LASER)
G00 Z0.25000 ( retract )

G00 X116.83943 Y144.39920 F2000 (rapid move to begin)
F1000.00000
G01 Z0.00000
F2000.00000
G0 X116.83943 Y144.39920 F240
G0 X116.83943 Y134.39160 F240
G0 X118.87143 Y134.39160 F240
G0 X118.87143 Y144.42460 F240
G0 X116.83943 Y144.42460 F240
G0 X116.83943 Y144.39920 F240
M400
M5
M42 P13 S0 (OFF - LASER)
G00 Z0.25000 ( retract )

G00 X121.30983 Y144.39920 F2000 (rapid move to begin)
F1000.00000
G01 Z0.00000
F2000.00000
G0 X121.30983 Y144.39920 F240
G0 X121.30983 Y134.39160 F240
G0 X123.34183 Y134.39160 F240
G0 X123.34183 Y144.42460 F240
G0 X121.30983 Y144.42460 F240
G0 X121.30983 Y144.39920 F240
M400
M5
M42 P13 S0 (OFF - LASER)
G00 Z0.25000 ( retract )

G00 X126.99943 Y144.39920 F2000 (rapid move to begin)
F1000.00000
G01 Z0.00000
F2000.00000
G0 X126.99943 Y144.39920 F240
G0 X126.99943 Y134.39160 F240
G0 X129.03143 Y134.39160 F240
G0 X129.03143 Y144.42460 F240
G0 X126.99943 Y144.42460 F240
G0 X126.99943 Y144.39920 F240
M400
M5
M42 P13 S0 (OFF - LASER)
G00 Z0.25000 ( retract )

G00 X129.56483 Y144.39920 F2000 (rapid move to begin)
F1000.00000
G01 Z0.00000
F2000.00000
G0 X129.56483 Y144.39920 F240
G0 X129.56483 Y134.39160 F240
G0 X131.59683 Y134.39160 F240
G0 X131.59683 Y144.42460 F240
G0 X129.56483 Y144.42460 F240
G0 X129.56483 Y144.39920 F240
M400
M5
M42 P13 S0 (OFF - LASER)
G00 Z0.25000 ( retract )

G00 X135.25443 Y144.39920 F2000 (rapid move to begin)
F1000.00000
G01 Z0.00000
F2000.00000
G0 X135.25443 Y144.39920 F240
G0 X135.25443 Y134.39160 F240
G0 X137.28643 Y134.39160 F240
G0 X137.28643 Y144.42460 F240
G0 X135.25443 Y144.42460 F240
G0 X135.25443 Y144.39920 F240
M400
M5
M42 P13 S0 (OFF - LASER)
G00 Z0.25000 ( retract )

G00 X139.72483 Y144.39920 F2000 (rapid move to begin)
F1000.00000
G01 Z0.00000
F2000.00000
G0 X139.72483 Y144.39920 F240
G0 X139.72483 Y134.39160 F240
G0 X141.75683 Y134.39160 F240
G0 X141.75683 Y144.42460 F240
G0 X139.72483 Y144.42460 F240
G0 X139.72483 Y144.39920 F240
M400
M5
M42 P13 S0 (OFF - LASER)
G00 Z0.25000 ( retract )

G00 X145.41443 Y144.39920 F2000 (rapid move to begin)
F1000.00000
G01 Z0.00000
F2000.00000
G0 X145.41443 Y144.39920 F240
G0 X145.41443 Y134.39160 F240
G0 X147.44643 Y134.39160 F240
G0 X147.44643 Y144.42460 F240
G0 X145.41443 Y144.42460 F240
G0 X145.41443 Y144.39920 F240
M400
M5
M42 P13 S0 (OFF - LASER)
G00 Z0.25000 ( retract )

G00 X147.97983 Y144.39920 F2000 (rapid move to begin)
F1000.00000
G01 Z0.00000
F2000.00000
G0 X147.97983 Y144.39920 F240
G0 X147.97983 Y134.39160 F240
G0 X150.01183 Y134.39160 F240
G0 X150.01183 Y144.42460 F240
G0 X147.97983 Y144.42460 F240
G0 X147.97983 Y144.39920 F240
M400
M5
M42 P13 S0 (OFF - LASER)
G00 Z0.25000 ( retract )

G00 X153.66943 Y144.39920 F2000 (rapid move to begin)
F1000.00000
G01 Z0.00000
F2000.00000
G0 X153.66943 Y144.39920 F240
G0 X153.66943 Y134.39160 F240
G0 X155.70143 Y134.39160 F240
G0 X155.70143 Y144.42460 F240
G0 X153.66943 Y144.42460 F240
G0 X153.66943 Y144.39920 F240
M400
M5
M42 P13 S0 (OFF - LASER)
G00 Z0.25000 ( retract )

G00 X158.13983 Y144.39920 F2000 (rapid move to begin)
F1000.00000
G01 Z0.00000
F2000.00000
G0 X158.13983 Y144.39920 F240
G0 X158.13983 Y134.39160 F240
G0 X160.17183 Y134.39160 F240
G0 X160.17183 Y144.42460 F240
G0 X158.13983 Y144.42460 F240
G0 X158.13983 Y144.39920 F240
M400
M5
M42 P13 S0 (OFF - LASER)
G00 Z0.25000 ( retract )

G00 X163.82943 Y144.39920 F2000 (rapid move to begin)
F1000.00000
G01 Z0.00000
F2000.00000
G0 X163.82943 Y144.39920 F240
G0 X163.82943 Y134.39160 F240
G0 X165.86143 Y134.39160 F240
G0 X165.86143 Y144.42460 F240
G0 X163.82943 Y144.42460 F240
G0 X163.82943 Y144.39920 F240
M400
M5
M42 P13 S0 (OFF - LASER)
G00 Z0.25000 ( retract )

G00 X166.39483 Y144.39920 F2000 (rapid move to begin)
F1000.00000
G01 Z0.00000
F2000.00000
G0 X166.39483 Y144.39920 F240
G0 X166.39483 Y134.39160 F240
G0 X168.42683 Y134.39160 F240
G0 X168.42683 Y144.42460 F240
G0 X166.39483 Y144.42460 F240
G0 X166.39483 Y144.39920 F240
M400
M5
M42 P13 S0 (OFF - LASER)
G00 Z0.25000 ( retract )

G00 X172.08443 Y144.39920 F2000 (rapid move to begin)
F1000.00000
G01 Z0.00000
F2000.00000
G0 X172.08443 Y144.39920 F240
G0 X172.08443 Y134.39160 F240
G0 X174.11643 Y134.39160 F240
G0 X174.11643 Y144.42460 F240
G0 X172.08443 Y144.42460 F240
G0 X172.08443 Y144.39920 F240
M400
M5
M42 P13 S0 (OFF - LASER)
G00 Z0.25000 ( retract )

G00 X176.55483 Y144.39920 F2000 (rapid move to begin)
F1000.00000
G01 Z0.00000
F2000.00000
G0 X176.55483 Y144.39920 F240
G0 X176.55483 Y134.39160 F240
G0 X178.58683 Y134.39160 F240
G0 X178.58683 Y144.42460 F240
G0 X176.55483 Y144.42460 F240
G0 X176.55483 Y144.39920 F240
M400
M5
M42 P13 S0 (OFF - LASER)
G00 Z0.25000 ( retract )

G00 X182.24443 Y144.39920 F2000 (rapid move to begin)
F1000.00000
G01 Z0.00000
F2000.00000
G0 X182.24443 Y144.39920 F240
G0 X182.24443 Y134.39160 F240
G0 X184.27643 Y134.39160 F240
G0 X184.27643 Y144.42460 F240
G0 X182.24443 Y144.42460 F240
G0 X182.24443 Y144.39920 F240
M400
M5
M42 P13 S0 (OFF - LASER)
G00 Z0.25000 ( retract )

G00 X184.80983 Y144.39920 F2000 (rapid move to begin)
F1000.00000
G01 Z0.00000
F2000.00000
G0 X184.80983 Y144.39920 F240
G0 X184.80983 Y134.39160 F240
G0 X186.84183 Y134.39160 F240
G0 X186.84183 Y144.42460 F240
G0 X184.80983 Y144.42460 F240
G0 X184.80983 Y144.39920 F240
M400
M5
M42 P13 S0 (OFF - LASER)
G00 Z0.25000 ( retract )

G00 X190.49943 Y144.39920 F2000 (rapid move to begin)
F1000.00000
G01 Z0.00000
F2000.00000
G0 X190.49943 Y144.39920 F240
G0 X190.49943 Y134.39160 F240
G0 X192.53143 Y134.39160 F240
G0 X192.53143 Y144.42460 F240
G0 X190.49943 Y144.42460 F240
G0 X190.49943 Y144.39920 F240
M400
M5
M42 P13 S0 (OFF - LASER)
G00 Z0.25000 ( retract )

G00 X194.96983 Y144.39920 F2000 (rapid move to begin)
F1000.00000
G01 Z0.00000
F2000.00000
G0 X194.96983 Y144.39920 F240
G0 X194.96983 Y134.39160 F240
G0 X197.00183 Y134.39160 F240
G0 X197.00183 Y144.42460 F240
G0 X194.96983 Y144.42460 F240
G0 X194.96983 Y144.39920 F240
M400
M5
M42 P13 S0 (OFF - LASER)
G00 Z0.25000 ( retract )

G00 X200.65943 Y144.39920 F2000 (rapid move to begin)
F1000.00000
G01 Z0.00000
F2000.00000
G0 X200.65943 Y144.39920 F240
G0 X200.65943 Y134.39160 F240
G0 X202.69143 Y134.39160 F240
G0 X202.69143 Y144.42460 F240
G0 X200.65943 Y144.42460 F240
G0 X200.65943 Y144.39920 F240
M400
M5
M42 P13 S0 (OFF - LASER)
G00 Z0.25000 ( retract )

G00 X203.22483 Y144.39920 F2000 (rapid move to begin)
F1000.00000
G01 Z0.00000
F2000.00000
G0 X203.22483 Y144.39920 F240
G0 X203.22483 Y134.39160 F240
G0 X205.25683 Y134.39160 F240
G0 X205.25683 Y144.42460 F240
G0 X203.22483 Y144.42460 F240
G0 X203.22483 Y144.39920 F240
M400
M5
M42 P13 S0 (OFF - LASER)
G00 Z0.25000 ( retract )

G00 X208.91443 Y144.39920 F2000 (rapid move to begin)
F1000.00000
G01 Z0.00000
F2000.00000
G0 X208.91443 Y144.39920 F240
G0 X208.91443 Y134.39160 F240
G0 X210.94643 Y134.39160 F240
G0 X210.94643 Y144.42460 F240
G0 X208.91443 Y144.42460 F240
G0 X208.91443 Y144.39920 F240
M400
M5
M42 P13 S0 (OFF - LASER)
G00 Z0.25000 ( retract )

G00 X207.64443 Y174.87920 F2000 (rapid move to begin)
F1000.00000
G01 Z0.00000
F2000.00000
G0 X207.64443 Y174.87920 F240
G0 X207.64443 Y164.87160 F240
G0 X209.65103 Y164.87160 F240
G0 X209.65103 Y174.90460 F240
G0 X207.64443 Y174.90460 F240
G0 X207.64443 Y174.87920 F240
M400
M5
M42 P13 S0 (OFF - LASER)
G00 Z0.25000 ( retract )

G00 X201.92943 Y174.87920 F2000 (rapid move to begin)
F1000.00000
G01 Z0.00000
F2000.00000
G0 X201.92943 Y174.87920 F240
G0 X201.92943 Y164.87160 F240
G0 X203.96143 Y164.87160 F240
G0 X203.96143 Y174.90460 F240
G0 X201.92943 Y174.90460 F240
G0 X201.92943 Y174.87920 F240
M400
M5
M42 P13 S0 (OFF - LASER)
G00 Z0.25000 ( retract )

G00 X199.38943 Y174.87920 F2000 (rapid move to begin)
F1000.00000
G01 Z0.00000
F2000.00000
G0 X199.38943 Y174.87920 F240
G0 X199.38943 Y164.87160 F240
G0 X201.39603 Y164.87160 F240
G0 X201.39603 Y174.90460 F240
G0 X199.38943 Y174.90460 F240
G0 X199.38943 Y174.87920 F240
M400
M5
M42 P13 S0 (OFF - LASER)
G00 Z0.25000 ( retract )

G00 X193.67443 Y174.87920 F2000 (rapid move to begin)
F1000.00000
G01 Z0.00000
F2000.00000
G0 X193.67443 Y174.87920 F240
G0 X193.67443 Y164.87160 F240
G0 X195.70643 Y164.87160 F240
G0 X195.70643 Y174.90460 F240
G0 X193.67443 Y174.90460 F240
G0 X193.67443 Y174.87920 F240
M400
M5
M42 P13 S0 (OFF - LASER)
G00 Z0.25000 ( retract )

G00 X189.22943 Y174.87920 F2000 (rapid move to begin)
F1000.00000
G01 Z0.00000
F2000.00000
G0 X189.22943 Y174.87920 F240
G0 X189.22943 Y164.87160 F240
G0 X191.23603 Y164.87160 F240
G0 X191.23603 Y174.90460 F240
G0 X189.22943 Y174.90460 F240
G0 X189.22943 Y174.87920 F240
M400
M5
M42 P13 S0 (OFF - LASER)
G00 Z0.25000 ( retract )

G00 X183.51443 Y174.87920 F2000 (rapid move to begin)
F1000.00000
G01 Z0.00000
F2000.00000
G0 X183.51443 Y174.87920 F240
G0 X183.51443 Y164.87160 F240
G0 X185.54643 Y164.87160 F240
G0 X185.54643 Y174.90460 F240
G0 X183.51443 Y174.90460 F240
G0 X183.51443 Y174.87920 F240
M400
M5
M42 P13 S0 (OFF - LASER)
G00 Z0.25000 ( retract )

G00 X180.97443 Y174.87920 F2000 (rapid move to begin)
F1000.00000
G01 Z0.00000
F2000.00000
G0 X180.97443 Y174.87920 F240
G0 X180.97443 Y164.87160 F240
G0 X182.98103 Y164.87160 F240
G0 X182.98103 Y174.90460 F240
G0 X180.97443 Y174.90460 F240
G0 X180.97443 Y174.87920 F240
M400
M5
M42 P13 S0 (OFF - LASER)
G00 Z0.25000 ( retract )

G00 X175.25943 Y174.87920 F2000 (rapid move to begin)
F1000.00000
G01 Z0.00000
F2000.00000
G0 X175.25943 Y174.87920 F240
G0 X175.25943 Y164.87160 F240
G0 X177.29143 Y164.87160 F240
G0 X177.29143 Y174.90460 F240
G0 X175.25943 Y174.90460 F240
G0 X175.25943 Y174.87920 F240
M400
M5
M42 P13 S0 (OFF - LASER)
G00 Z0.25000 ( retract )

G00 X170.81443 Y174.87920 F2000 (rapid move to begin)
F1000.00000
G01 Z0.00000
F2000.00000
G0 X170.81443 Y174.87920 F240
G0 X170.81443 Y164.87160 F240
G0 X172.82103 Y164.87160 F240
G0 X172.82103 Y174.90460 F240
G0 X170.81443 Y174.90460 F240
G0 X170.81443 Y174.87920 F240
M400
M5
M42 P13 S0 (OFF - LASER)
G00 Z0.25000 ( retract )

G00 X165.09943 Y174.87920 F2000 (rapid move to begin)
F1000.00000
G01 Z0.00000
F2000.00000
G0 X165.09943 Y174.87920 F240
G0 X165.09943 Y164.87160 F240
G0 X167.13143 Y164.87160 F240
G0 X167.13143 Y174.90460 F240
G0 X165.09943 Y174.90460 F240
G0 X165.09943 Y174.87920 F240
M400
M5
M42 P13 S0 (OFF - LASER)
G00 Z0.25000 ( retract )

G00 X162.55943 Y174.87920 F2000 (rapid move to begin)
F1000.00000
G01 Z0.00000
F2000.00000
G0 X162.55943 Y174.87920 F240
G0 X162.55943 Y164.87160 F240
G0 X164.56603 Y164.87160 F240
G0 X164.56603 Y174.90460 F240
G0 X162.55943 Y174.90460 F240
G0 X162.55943 Y174.87920 F240
M400
M5
M42 P13 S0 (OFF - LASER)
G00 Z0.25000 ( retract )

G00 X156.84443 Y174.87920 F2000 (rapid move to begin)
F1000.00000
G01 Z0.00000
F2000.00000
G0 X156.84443 Y174.87920 F240
G0 X156.84443 Y164.87160 F240
G0 X158.87643 Y164.87160 F240
G0 X158.87643 Y174.90460 F240
G0 X156.84443 Y174.90460 F240
G0 X156.84443 Y174.87920 F240
M400
M5
M42 P13 S0 (OFF - LASER)
G00 Z0.25000 ( retract )

G00 X152.39943 Y174.87920 F2000 (rapid move to begin)
F1000.00000
G01 Z0.00000
F2000.00000
G0 X152.39943 Y174.87920 F240
G0 X152.39943 Y164.87160 F240
G0 X154.40603 Y164.87160 F240
G0 X154.40603 Y174.90460 F240
G0 X152.39943 Y174.90460 F240
G0 X152.39943 Y174.87920 F240
M400
M5
M42 P13 S0 (OFF - LASER)
G00 Z0.25000 ( retract )

G00 X146.68443 Y174.87920 F2000 (rapid move to begin)
F1000.00000
G01 Z0.00000
F2000.00000
G0 X146.68443 Y174.87920 F240
G0 X146.68443 Y164.87160 F240
G0 X148.71643 Y164.87160 F240
G0 X148.71643 Y174.90460 F240
G0 X146.68443 Y174.90460 F240
G0 X146.68443 Y174.87920 F240
M400
M5
M42 P13 S0 (OFF - LASER)
G00 Z0.25000 ( retract )

G00 X144.14443 Y174.87920 F2000 (rapid move to begin)
F1000.00000
G01 Z0.00000
F2000.00000
G0 X144.14443 Y174.87920 F240
G0 X144.14443 Y164.87160 F240
G0 X146.15103 Y164.87160 F240
G0 X146.15103 Y174.90460 F240
G0 X144.14443 Y174.90460 F240
G0 X144.14443 Y174.87920 F240
M400
M5
M42 P13 S0 (OFF - LASER)
G00 Z0.25000 ( retract )

G00 X138.42943 Y174.87920 F2000 (rapid move to begin)
F1000.00000
G01 Z0.00000
F2000.00000
G0 X138.42943 Y174.87920 F240
G0 X138.42943 Y164.87160 F240
G0 X140.46143 Y164.87160 F240
G0 X140.46143 Y174.90460 F240
G0 X138.42943 Y174.90460 F240
G0 X138.42943 Y174.87920 F240
M400
M5
M42 P13 S0 (OFF - LASER)
G00 Z0.25000 ( retract )

G00 X133.98443 Y174.87920 F2000 (rapid move to begin)
F1000.00000
G01 Z0.00000
F2000.00000
G0 X133.98443 Y174.87920 F240
G0 X133.98443 Y164.87160 F240
G0 X135.99103 Y164.87160 F240
G0 X135.99103 Y174.90460 F240
G0 X133.98443 Y174.90460 F240
G0 X133.98443 Y174.87920 F240
M400
M5
M42 P13 S0 (OFF - LASER)
G00 Z0.25000 ( retract )

G00 X128.26943 Y174.87920 F2000 (rapid move to begin)
F1000.00000
G01 Z0.00000
F2000.00000
G0 X128.26943 Y174.87920 F240
G0 X128.26943 Y164.87160 F240
G0 X130.30143 Y164.87160 F240
G0 X130.30143 Y174.90460 F240
G0 X128.26943 Y174.90460 F240
G0 X128.26943 Y174.87920 F240
M400
M5
M42 P13 S0 (OFF - LASER)
G00 Z0.25000 ( retract )

G00 X125.72943 Y174.87920 F2000 (rapid move to begin)
F1000.00000
G01 Z0.00000
F2000.00000
G0 X125.72943 Y174.87920 F240
G0 X125.72943 Y164.87160 F240
G0 X127.73603 Y164.87160 F240
G0 X127.73603 Y174.90460 F240
G0 X125.72943 Y174.90460 F240
G0 X125.72943 Y174.87920 F240
M400
M5
M42 P13 S0 (OFF - LASER)
G00 Z0.25000 ( retract )

G00 X120.01443 Y174.87920 F2000 (rapid move to begin)
F1000.00000
G01 Z0.00000
F2000.00000
G0 X120.01443 Y174.87920 F240
G0 X120.01443 Y164.87160 F240
G0 X122.04643 Y164.87160 F240
G0 X122.04643 Y174.90460 F240
G0 X120.01443 Y174.90460 F240
G0 X120.01443 Y174.87920 F240
M400
M5
M42 P13 S0 (OFF - LASER)
G00 Z0.25000 ( retract )

G00 X115.56943 Y174.87920 F2000 (rapid move to begin)
F1000.00000
G01 Z0.00000
F2000.00000
G0 X115.56943 Y174.87920 F240
G0 X115.56943 Y164.87160 F240
G0 X117.57603 Y164.87160 F240
G0 X117.57603 Y174.90460 F240
G0 X115.56943 Y174.90460 F240
G0 X115.56943 Y174.87920 F240
M400
M5
M42 P13 S0 (OFF - LASER)
G00 Z0.25000 ( retract )

G00 X109.85443 Y174.87920 F2000 (rapid move to begin)
F1000.00000
G01 Z0.00000
F2000.00000
G0 X109.85443 Y174.87920 F240
G0 X109.85443 Y164.87160 F240
G0 X111.88643 Y164.87160 F240
G0 X111.88643 Y174.90460 F240
G0 X109.85443 Y174.90460 F240
G0 X109.85443 Y174.87920 F240
M400
M5
M42 P13 S0 (OFF - LASER)
G00 Z0.25000 ( retract )

G00 X107.31443 Y174.87920 F2000 (rapid move to begin)
F1000.00000
G01 Z0.00000
F2000.00000
G0 X107.31443 Y174.87920 F240
G0 X107.31443 Y164.87160 F240
G0 X109.32103 Y164.87160 F240
G0 X109.32103 Y174.90460 F240
G0 X107.31443 Y174.90460 F240
G0 X107.31443 Y174.87920 F240
M400
M5
M42 P13 S0 (OFF - LASER)
G00 Z0.25000 ( retract )

G00 X101.59943 Y174.87920 F2000 (rapid move to begin)
F1000.00000
G01 Z0.00000
F2000.00000
G0 X101.59943 Y174.87920 F240
G0 X101.59943 Y164.87160 F240
G0 X103.63143 Y164.87160 F240
G0 X103.63143 Y174.90460 F240
G0 X101.59943 Y174.90460 F240
G0 X101.59943 Y174.87920 F240
M400
M5
M42 P13 S0 (OFF - LASER)
G00 Z0.25000 ( retract )

G00 X114.52803 Y192.35440 F2000 (rapid move to begin)
F1000.00000
G01 Z0.00000
F2000.00000
G0 X114.52803 Y192.35440 F240
G0 X114.52803 Y191.84640 F240
G0 X114.85823 Y191.84640 F240
G0 X114.85823 Y192.37980 F240
G0 X114.52803 Y192.37980 F240
G0 X114.52803 Y192.35440 F240
M400
M5
M42 P13 S0 (OFF - LASER)
G00 Z0.25000 ( retract )

G00 X115.31543 Y192.35440 F2000 (rapid move to begin)
F1000.00000
G01 Z0.00000
F2000.00000
G0 X115.31543 Y192.35440 F240
G0 X115.31543 Y191.84640 F240
G0 X115.64563 Y191.84640 F240
G0 X115.64563 Y192.37980 F240
G0 X115.31543 Y192.37980 F240
G0 X115.31543 Y192.35440 F240
M400
M5
M42 P13 S0 (OFF - LASER)
G00 Z0.25000 ( retract )

G00 X151.35803 Y192.35440 F2000 (rapid move to begin)
F1000.00000
G01 Z0.00000
F2000.00000
G0 X151.35803 Y192.35440 F240
G0 X151.35803 Y191.84640 F240
G0 X151.68823 Y191.84640 F240
G0 X151.68823 Y192.37980 F240
G0 X151.35803 Y192.37980 F240
G0 X151.35803 Y192.35440 F240
M400
M5
M42 P13 S0 (OFF - LASER)
G00 Z0.25000 ( retract )

G00 X152.14543 Y192.35440 F2000 (rapid move to begin)
F1000.00000
G01 Z0.00000
F2000.00000
G0 X152.14543 Y192.35440 F240
G0 X152.14543 Y191.84640 F240
G0 X152.47563 Y191.84640 F240
G0 X152.47563 Y192.37980 F240
G0 X152.14543 Y192.37980 F240
G0 X152.14543 Y192.35440 F240
M400
M5
M42 P13 S0 (OFF - LASER)
G00 Z0.25000 ( retract )

G00 X188.18803 Y192.35440 F2000 (rapid move to begin)
F1000.00000
G01 Z0.00000
F2000.00000
G0 X188.18803 Y192.35440 F240
G0 X188.18803 Y191.84640 F240
G0 X188.51823 Y191.84640 F240
G0 X188.51823 Y192.37980 F240
G0 X188.18803 Y192.37980 F240
G0 X188.18803 Y192.35440 F240
M400
M5
M42 P13 S0 (OFF - LASER)
G00 Z0.25000 ( retract )

G00 X188.97543 Y192.35440 F2000 (rapid move to begin)
F1000.00000
G01 Z0.00000
F2000.00000
G0 X188.97543 Y192.35440 F240
G0 X188.97543 Y191.84640 F240
G0 X189.30563 Y191.84640 F240
G0 X189.30563 Y192.37980 F240
G0 X188.97543 Y192.37980 F240
G0 X188.97543 Y192.35440 F240
M400
M5
M42 P13 S0 (OFF - LASER)
G00 Z0.25000 ( retract )

G00 X203.22483 Y204.72420 F2000 (rapid move to begin)
F1000.00000
G01 Z0.00000
F2000.00000
G0 X203.22483 Y204.72420 F240
G0 X203.22483 Y194.71660 F240
G0 X205.25683 Y194.71660 F240
G0 X205.25683 Y204.74960 F240
G0 X203.22483 Y204.74960 F240
G0 X203.22483 Y204.72420 F240
M400
M5
M42 P13 S0 (OFF - LASER)
G00 Z0.25000 ( retract )

G00 X208.91443 Y204.72420 F2000 (rapid move to begin)
F1000.00000
G01 Z0.00000
F2000.00000
G0 X208.91443 Y204.72420 F240
G0 X208.91443 Y194.71660 F240
G0 X210.94643 Y194.71660 F240
G0 X210.94643 Y204.74960 F240
G0 X208.91443 Y204.74960 F240
G0 X208.91443 Y204.72420 F240
M400
M5
M42 P13 S0 (OFF - LASER)
G00 Z0.25000 ( retract )

G00 X240.25803 Y194.89440 F2000 (rapid move to begin)
F1000.00000
G01 Z0.00000
F2000.00000
G0 X240.25803 Y194.89440 F240
G0 X240.25803 Y194.38640 F240
G0 X240.58823 Y194.38640 F240
G0 X240.58823 Y194.91980 F240
G0 X240.25803 Y194.91980 F240
G0 X240.25803 Y194.89440 F240
M400
M5
M42 P13 S0 (OFF - LASER)
G00 Z0.25000 ( retract )

G00 X241.04543 Y194.89440 F2000 (rapid move to begin)
F1000.00000
G01 Z0.00000
F2000.00000
G0 X241.04543 Y194.89440 F240
G0 X241.04543 Y194.38640 F240
G0 X241.37563 Y194.38640 F240
G0 X241.37563 Y194.91980 F240
G0 X241.04543 Y194.91980 F240
G0 X241.04543 Y194.89440 F240

M400
M5
M42 P13 S0 (OFF - LASER)
G00 Z0.25000 ( retract )

M5 ( Spindle off. )
M9 ( Coolant off. )

M106 S0 (Fan off.)
