M106 S255 (Fan on.)
G0 x100 y100 f2000 (  Set origin and speed.  )
( pcb2gcode 1.2.2 )
( Software-independent Gcode )





S10000 ( RPM spindle speed. )
G64 P0.00200 ( set maximum deviation from commanded toolpath )
F2000.00000 ( Feedrate. )

F2000.00000 ( Feedrate. )
M400
M5
M42 P13 S0 (OFF - LASER)
G00 Z0.25000 ( retract )

G00 X135.43300 Y138.20160 F2000 (rapid move to begin)
F1000.00000
G01 Z0.00000
F2000.00000
G0 X135.43300 Y138.20160 F240
G0 X135.43300 Y137.71900 F240
G0 X135.12820 Y137.71900 F240
G0 X135.12820 Y138.22700 F240
G0 X135.43300 Y138.22700 F240
G0 X135.43300 Y138.20160 F240
M400
M5
M42 P13 S0 (OFF - LASER)
G00 Z0.25000 ( retract )

G00 X136.24580 Y138.20160 F2000 (rapid move to begin)
F1000.00000
G01 Z0.00000
F2000.00000
G0 X136.24580 Y138.20160 F240
G0 X136.24580 Y137.71900 F240
G0 X135.91560 Y137.71900 F240
G0 X135.91560 Y138.22700 F240
G0 X136.24580 Y138.22700 F240
G0 X136.24580 Y138.20160 F240
M400
M5
M42 P13 S0 (OFF - LASER)
G00 Z0.25000 ( retract )

G00 X144.09440 Y137.87140 F2000 (rapid move to begin)
F1000.00000
G01 Z0.00000
F2000.00000
G0 X144.09440 Y137.87140 F240
G0 X144.09440 Y137.38880 F240
G0 X143.76420 Y137.38880 F240
G0 X143.76420 Y137.89680 F240
G0 X144.09440 Y137.89680 F240
G0 X144.09440 Y137.87140 F240
M400
M5
M42 P13 S0 (OFF - LASER)
G00 Z0.25000 ( retract )

G00 X144.88180 Y137.87140 F2000 (rapid move to begin)
F1000.00000
G01 Z0.00000
F2000.00000
G0 X144.88180 Y137.87140 F240
G0 X144.88180 Y137.38880 F240
G0 X144.55160 Y137.38880 F240
G0 X144.55160 Y137.89680 F240
G0 X144.88180 Y137.89680 F240
G0 X144.88180 Y137.87140 F240
M400
M5
M42 P13 S0 (OFF - LASER)
G00 Z0.25000 ( retract )

G00 X153.84800 Y138.20160 F2000 (rapid move to begin)
F1000.00000
G01 Z0.00000
F2000.00000
G0 X153.84800 Y138.20160 F240
G0 X153.84800 Y137.71900 F240
G0 X153.54320 Y137.71900 F240
G0 X153.54320 Y138.22700 F240
G0 X153.84800 Y138.22700 F240
G0 X153.84800 Y138.20160 F240
M400
M5
M42 P13 S0 (OFF - LASER)
G00 Z0.25000 ( retract )

G00 X154.66080 Y138.20160 F2000 (rapid move to begin)
F1000.00000
G01 Z0.00000
F2000.00000
G0 X154.66080 Y138.20160 F240
G0 X154.66080 Y137.71900 F240
G0 X154.33060 Y137.71900 F240
G0 X154.33060 Y138.22700 F240
G0 X154.66080 Y138.22700 F240
G0 X154.66080 Y138.20160 F240
M400
M5
M42 P13 S0 (OFF - LASER)
G00 Z0.25000 ( retract )

G00 X162.50940 Y137.87140 F2000 (rapid move to begin)
F1000.00000
G01 Z0.00000
F2000.00000
G0 X162.50940 Y137.87140 F240
G0 X162.50940 Y137.38880 F240
G0 X162.17920 Y137.38880 F240
G0 X162.17920 Y137.89680 F240
G0 X162.50940 Y137.89680 F240
G0 X162.50940 Y137.87140 F240
M400
M5
M42 P13 S0 (OFF - LASER)
G00 Z0.25000 ( retract )

G00 X163.29680 Y137.87140 F2000 (rapid move to begin)
F1000.00000
G01 Z0.00000
F2000.00000
G0 X163.29680 Y137.87140 F240
G0 X163.29680 Y137.38880 F240
G0 X162.96660 Y137.38880 F240
G0 X162.96660 Y137.89680 F240
G0 X163.29680 Y137.89680 F240
G0 X163.29680 Y137.87140 F240
M400
M5
M42 P13 S0 (OFF - LASER)
G00 Z0.25000 ( retract )

G00 X172.26300 Y138.20160 F2000 (rapid move to begin)
F1000.00000
G01 Z0.00000
F2000.00000
G0 X172.26300 Y138.20160 F240
G0 X172.26300 Y137.71900 F240
G0 X171.95820 Y137.71900 F240
G0 X171.95820 Y138.22700 F240
G0 X172.26300 Y138.22700 F240
G0 X172.26300 Y138.20160 F240
M400
M5
M42 P13 S0 (OFF - LASER)
G00 Z0.25000 ( retract )

G00 X173.07580 Y138.20160 F2000 (rapid move to begin)
F1000.00000
G01 Z0.00000
F2000.00000
G0 X173.07580 Y138.20160 F240
G0 X173.07580 Y137.71900 F240
G0 X172.74560 Y137.71900 F240
G0 X172.74560 Y138.22700 F240
G0 X173.07580 Y138.22700 F240
G0 X173.07580 Y138.20160 F240
M400
M5
M42 P13 S0 (OFF - LASER)
G00 Z0.25000 ( retract )

G00 X180.92440 Y137.87140 F2000 (rapid move to begin)
F1000.00000
G01 Z0.00000
F2000.00000
G0 X180.92440 Y137.87140 F240
G0 X180.92440 Y137.38880 F240
G0 X180.59420 Y137.38880 F240
G0 X180.59420 Y137.89680 F240
G0 X180.92440 Y137.89680 F240
G0 X180.92440 Y137.87140 F240
M400
M5
M42 P13 S0 (OFF - LASER)
G00 Z0.25000 ( retract )

G00 X181.71180 Y137.87140 F2000 (rapid move to begin)
F1000.00000
G01 Z0.00000
F2000.00000
G0 X181.71180 Y137.87140 F240
G0 X181.71180 Y137.38880 F240
G0 X181.38160 Y137.38880 F240
G0 X181.38160 Y137.89680 F240
G0 X181.71180 Y137.89680 F240
G0 X181.71180 Y137.87140 F240
M400
M5
M42 P13 S0 (OFF - LASER)
G00 Z0.25000 ( retract )

G00 X190.67800 Y138.20160 F2000 (rapid move to begin)
F1000.00000
G01 Z0.00000
F2000.00000
G0 X190.67800 Y138.20160 F240
G0 X190.67800 Y137.71900 F240
G0 X190.37320 Y137.71900 F240
G0 X190.37320 Y138.22700 F240
G0 X190.67800 Y138.22700 F240
G0 X190.67800 Y138.20160 F240
M400
M5
M42 P13 S0 (OFF - LASER)
G00 Z0.25000 ( retract )

G00 X191.49080 Y138.20160 F2000 (rapid move to begin)
F1000.00000
G01 Z0.00000
F2000.00000
G0 X191.49080 Y138.20160 F240
G0 X191.49080 Y137.71900 F240
G0 X191.16060 Y137.71900 F240
G0 X191.16060 Y138.22700 F240
G0 X191.49080 Y138.22700 F240
G0 X191.49080 Y138.20160 F240
M400
M5
M42 P13 S0 (OFF - LASER)
G00 Z0.25000 ( retract )

G00 X199.33940 Y137.87140 F2000 (rapid move to begin)
F1000.00000
G01 Z0.00000
F2000.00000
G0 X199.33940 Y137.87140 F240
G0 X199.33940 Y137.38880 F240
G0 X199.00920 Y137.38880 F240
G0 X199.00920 Y137.89680 F240
G0 X199.33940 Y137.89680 F240
G0 X199.33940 Y137.87140 F240
M400
M5
M42 P13 S0 (OFF - LASER)
G00 Z0.25000 ( retract )

G00 X200.12680 Y137.87140 F2000 (rapid move to begin)
F1000.00000
G01 Z0.00000
F2000.00000
G0 X200.12680 Y137.87140 F240
G0 X200.12680 Y137.38880 F240
G0 X199.79660 Y137.38880 F240
G0 X199.79660 Y137.89680 F240
G0 X200.12680 Y137.89680 F240
G0 X200.12680 Y137.87140 F240
M400
M5
M42 P13 S0 (OFF - LASER)
G00 Z0.25000 ( retract )

G00 X209.09300 Y138.20160 F2000 (rapid move to begin)
F1000.00000
G01 Z0.00000
F2000.00000
G0 X209.09300 Y138.20160 F240
G0 X209.09300 Y137.71900 F240
G0 X208.78820 Y137.71900 F240
G0 X208.78820 Y138.22700 F240
G0 X209.09300 Y138.22700 F240
G0 X209.09300 Y138.20160 F240
M400
M5
M42 P13 S0 (OFF - LASER)
G00 Z0.25000 ( retract )

G00 X209.90580 Y138.20160 F2000 (rapid move to begin)
F1000.00000
G01 Z0.00000
F2000.00000
G0 X209.90580 Y138.20160 F240
G0 X209.90580 Y137.71900 F240
G0 X209.57560 Y137.71900 F240
G0 X209.57560 Y138.22700 F240
G0 X209.90580 Y138.22700 F240
G0 X209.90580 Y138.20160 F240
M400
M5
M42 P13 S0 (OFF - LASER)
G00 Z0.25000 ( retract )

G00 X217.75440 Y137.87140 F2000 (rapid move to begin)
F1000.00000
G01 Z0.00000
F2000.00000
G0 X217.75440 Y137.87140 F240
G0 X217.75440 Y137.38880 F240
G0 X217.42420 Y137.38880 F240
G0 X217.42420 Y137.89680 F240
G0 X217.75440 Y137.89680 F240
G0 X217.75440 Y137.87140 F240
M400
M5
M42 P13 S0 (OFF - LASER)
G00 Z0.25000 ( retract )

G00 X218.54180 Y137.87140 F2000 (rapid move to begin)
F1000.00000
G01 Z0.00000
F2000.00000
G0 X218.54180 Y137.87140 F240
G0 X218.54180 Y137.38880 F240
G0 X218.21160 Y137.38880 F240
G0 X218.21160 Y137.89680 F240
G0 X218.54180 Y137.89680 F240
G0 X218.54180 Y137.87140 F240
M400
M5
M42 P13 S0 (OFF - LASER)
G00 Z0.25000 ( retract )

G00 X227.50800 Y138.20160 F2000 (rapid move to begin)
F1000.00000
G01 Z0.00000
F2000.00000
G0 X227.50800 Y138.20160 F240
G0 X227.50800 Y137.71900 F240
G0 X227.20320 Y137.71900 F240
G0 X227.20320 Y138.22700 F240
G0 X227.50800 Y138.22700 F240
G0 X227.50800 Y138.20160 F240
M400
M5
M42 P13 S0 (OFF - LASER)
G00 Z0.25000 ( retract )

G00 X228.32080 Y138.20160 F2000 (rapid move to begin)
F1000.00000
G01 Z0.00000
F2000.00000
G0 X228.32080 Y138.20160 F240
G0 X228.32080 Y137.71900 F240
G0 X227.99060 Y137.71900 F240
G0 X227.99060 Y138.22700 F240
G0 X228.32080 Y138.22700 F240
G0 X228.32080 Y138.20160 F240
M400
M5
M42 P13 S0 (OFF - LASER)
G00 Z0.25000 ( retract )

G00 X236.16940 Y137.87140 F2000 (rapid move to begin)
F1000.00000
G01 Z0.00000
F2000.00000
G0 X236.16940 Y137.87140 F240
G0 X236.16940 Y137.38880 F240
G0 X235.83920 Y137.38880 F240
G0 X235.83920 Y137.89680 F240
G0 X236.16940 Y137.89680 F240
G0 X236.16940 Y137.87140 F240
M400
M5
M42 P13 S0 (OFF - LASER)
G00 Z0.25000 ( retract )

G00 X236.95680 Y137.87140 F2000 (rapid move to begin)
F1000.00000
G01 Z0.00000
F2000.00000
G0 X236.95680 Y137.87140 F240
G0 X236.95680 Y137.38880 F240
G0 X236.62660 Y137.38880 F240
G0 X236.62660 Y137.89680 F240
G0 X236.95680 Y137.89680 F240
G0 X236.95680 Y137.87140 F240
M400
M5
M42 P13 S0 (OFF - LASER)
G00 Z0.25000 ( retract )

G00 X237.36320 Y171.55180 F2000 (rapid move to begin)
F1000.00000
G01 Z0.00000
F2000.00000
G0 X237.36320 Y171.55180 F240
G0 X237.36320 Y171.04380 F240
G0 X237.05840 Y171.04380 F240
G0 X237.05840 Y171.57720 F240
G0 X237.36320 Y171.57720 F240
G0 X237.36320 Y171.55180 F240
M400
M5
M42 P13 S0 (OFF - LASER)
G00 Z0.25000 ( retract )

G00 X238.17600 Y171.55180 F2000 (rapid move to begin)
F1000.00000
G01 Z0.00000
F2000.00000
G0 X238.17600 Y171.55180 F240
G0 X238.17600 Y171.04380 F240
G0 X237.84580 Y171.04380 F240
G0 X237.84580 Y171.57720 F240
G0 X238.17600 Y171.57720 F240
G0 X238.17600 Y171.55180 F240
M400
M5
M42 P13 S0 (OFF - LASER)
G00 Z0.25000 ( retract )

G00 X229.54000 Y171.88200 F2000 (rapid move to begin)
F1000.00000
G01 Z0.00000
F2000.00000
G0 X229.54000 Y171.88200 F240
G0 X229.54000 Y171.39940 F240
G0 X229.20980 Y171.39940 F240
G0 X229.20980 Y171.90740 F240
G0 X229.54000 Y171.90740 F240
G0 X229.54000 Y171.88200 F240
M400
M5
M42 P13 S0 (OFF - LASER)
G00 Z0.25000 ( retract )

G00 X228.72720 Y171.88200 F2000 (rapid move to begin)
F1000.00000
G01 Z0.00000
F2000.00000
G0 X228.72720 Y171.88200 F240
G0 X228.72720 Y171.39940 F240
G0 X228.39700 Y171.39940 F240
G0 X228.39700 Y171.90740 F240
G0 X228.72720 Y171.90740 F240
G0 X228.72720 Y171.88200 F240
M400
M5
M42 P13 S0 (OFF - LASER)
G00 Z0.25000 ( retract )

G00 X219.76100 Y171.55180 F2000 (rapid move to begin)
F1000.00000
G01 Z0.00000
F2000.00000
G0 X219.76100 Y171.55180 F240
G0 X219.76100 Y171.04380 F240
G0 X219.43080 Y171.04380 F240
G0 X219.43080 Y171.57720 F240
G0 X219.76100 Y171.57720 F240
G0 X219.76100 Y171.55180 F240
M400
M5
M42 P13 S0 (OFF - LASER)
G00 Z0.25000 ( retract )

G00 X218.94820 Y171.55180 F2000 (rapid move to begin)
F1000.00000
G01 Z0.00000
F2000.00000
G0 X218.94820 Y171.55180 F240
G0 X218.94820 Y171.04380 F240
G0 X218.64340 Y171.04380 F240
G0 X218.64340 Y171.57720 F240
G0 X218.94820 Y171.57720 F240
G0 X218.94820 Y171.55180 F240
M400
M5
M42 P13 S0 (OFF - LASER)
G00 Z0.25000 ( retract )

G00 X211.12500 Y171.88200 F2000 (rapid move to begin)
F1000.00000
G01 Z0.00000
F2000.00000
G0 X211.12500 Y171.88200 F240
G0 X211.12500 Y171.39940 F240
G0 X210.79480 Y171.39940 F240
G0 X210.79480 Y171.90740 F240
G0 X211.12500 Y171.90740 F240
G0 X211.12500 Y171.88200 F240
M400
M5
M42 P13 S0 (OFF - LASER)
G00 Z0.25000 ( retract )

G00 X210.31220 Y171.88200 F2000 (rapid move to begin)
F1000.00000
G01 Z0.00000
F2000.00000
G0 X210.31220 Y171.88200 F240
G0 X210.31220 Y171.39940 F240
G0 X209.98200 Y171.39940 F240
G0 X209.98200 Y171.90740 F240
G0 X210.31220 Y171.90740 F240
G0 X210.31220 Y171.88200 F240
M400
M5
M42 P13 S0 (OFF - LASER)
G00 Z0.25000 ( retract )

G00 X201.34600 Y171.55180 F2000 (rapid move to begin)
F1000.00000
G01 Z0.00000
F2000.00000
G0 X201.34600 Y171.55180 F240
G0 X201.34600 Y171.04380 F240
G0 X201.01580 Y171.04380 F240
G0 X201.01580 Y171.57720 F240
G0 X201.34600 Y171.57720 F240
G0 X201.34600 Y171.55180 F240
M400
M5
M42 P13 S0 (OFF - LASER)
G00 Z0.25000 ( retract )

G00 X200.53320 Y171.55180 F2000 (rapid move to begin)
F1000.00000
G01 Z0.00000
F2000.00000
G0 X200.53320 Y171.55180 F240
G0 X200.53320 Y171.04380 F240
G0 X200.22840 Y171.04380 F240
G0 X200.22840 Y171.57720 F240
G0 X200.53320 Y171.57720 F240
G0 X200.53320 Y171.55180 F240
M400
M5
M42 P13 S0 (OFF - LASER)
G00 Z0.25000 ( retract )

G00 X192.71000 Y171.88200 F2000 (rapid move to begin)
F1000.00000
G01 Z0.00000
F2000.00000
G0 X192.71000 Y171.88200 F240
G0 X192.71000 Y171.39940 F240
G0 X192.37980 Y171.39940 F240
G0 X192.37980 Y171.90740 F240
G0 X192.71000 Y171.90740 F240
G0 X192.71000 Y171.88200 F240
M400
M5
M42 P13 S0 (OFF - LASER)
G00 Z0.25000 ( retract )

G00 X191.89720 Y171.88200 F2000 (rapid move to begin)
F1000.00000
G01 Z0.00000
F2000.00000
G0 X191.89720 Y171.88200 F240
G0 X191.89720 Y171.39940 F240
G0 X191.56700 Y171.39940 F240
G0 X191.56700 Y171.90740 F240
G0 X191.89720 Y171.90740 F240
G0 X191.89720 Y171.88200 F240
M400
M5
M42 P13 S0 (OFF - LASER)
G00 Z0.25000 ( retract )

G00 X182.93100 Y171.55180 F2000 (rapid move to begin)
F1000.00000
G01 Z0.00000
F2000.00000
G0 X182.93100 Y171.55180 F240
G0 X182.93100 Y171.04380 F240
G0 X182.60080 Y171.04380 F240
G0 X182.60080 Y171.57720 F240
G0 X182.93100 Y171.57720 F240
G0 X182.93100 Y171.55180 F240
M400
M5
M42 P13 S0 (OFF - LASER)
G00 Z0.25000 ( retract )

G00 X182.11820 Y171.55180 F2000 (rapid move to begin)
F1000.00000
G01 Z0.00000
F2000.00000
G0 X182.11820 Y171.55180 F240
G0 X182.11820 Y171.04380 F240
G0 X181.81340 Y171.04380 F240
G0 X181.81340 Y171.57720 F240
G0 X182.11820 Y171.57720 F240
G0 X182.11820 Y171.55180 F240
M400
M5
M42 P13 S0 (OFF - LASER)
G00 Z0.25000 ( retract )

G00 X174.29500 Y171.88200 F2000 (rapid move to begin)
F1000.00000
G01 Z0.00000
F2000.00000
G0 X174.29500 Y171.88200 F240
G0 X174.29500 Y171.39940 F240
G0 X173.96480 Y171.39940 F240
G0 X173.96480 Y171.90740 F240
G0 X174.29500 Y171.90740 F240
G0 X174.29500 Y171.88200 F240
M400
M5
M42 P13 S0 (OFF - LASER)
G00 Z0.25000 ( retract )

G00 X173.48220 Y171.88200 F2000 (rapid move to begin)
F1000.00000
G01 Z0.00000
F2000.00000
G0 X173.48220 Y171.88200 F240
G0 X173.48220 Y171.39940 F240
G0 X173.15200 Y171.39940 F240
G0 X173.15200 Y171.90740 F240
G0 X173.48220 Y171.90740 F240
G0 X173.48220 Y171.88200 F240
M400
M5
M42 P13 S0 (OFF - LASER)
G00 Z0.25000 ( retract )

G00 X164.51600 Y171.55180 F2000 (rapid move to begin)
F1000.00000
G01 Z0.00000
F2000.00000
G0 X164.51600 Y171.55180 F240
G0 X164.51600 Y171.04380 F240
G0 X164.18580 Y171.04380 F240
G0 X164.18580 Y171.57720 F240
G0 X164.51600 Y171.57720 F240
G0 X164.51600 Y171.55180 F240
M400
M5
M42 P13 S0 (OFF - LASER)
G00 Z0.25000 ( retract )

G00 X163.70320 Y171.55180 F2000 (rapid move to begin)
F1000.00000
G01 Z0.00000
F2000.00000
G0 X163.70320 Y171.55180 F240
G0 X163.70320 Y171.04380 F240
G0 X163.39840 Y171.04380 F240
G0 X163.39840 Y171.57720 F240
G0 X163.70320 Y171.57720 F240
G0 X163.70320 Y171.55180 F240
M400
M5
M42 P13 S0 (OFF - LASER)
G00 Z0.25000 ( retract )

G00 X155.88000 Y171.88200 F2000 (rapid move to begin)
F1000.00000
G01 Z0.00000
F2000.00000
G0 X155.88000 Y171.88200 F240
G0 X155.88000 Y171.39940 F240
G0 X155.54980 Y171.39940 F240
G0 X155.54980 Y171.90740 F240
G0 X155.88000 Y171.90740 F240
G0 X155.88000 Y171.88200 F240
M400
M5
M42 P13 S0 (OFF - LASER)
G00 Z0.25000 ( retract )

G00 X155.06720 Y171.88200 F2000 (rapid move to begin)
F1000.00000
G01 Z0.00000
F2000.00000
G0 X155.06720 Y171.88200 F240
G0 X155.06720 Y171.39940 F240
G0 X154.73700 Y171.39940 F240
G0 X154.73700 Y171.90740 F240
G0 X155.06720 Y171.90740 F240
G0 X155.06720 Y171.88200 F240
M400
M5
M42 P13 S0 (OFF - LASER)
G00 Z0.25000 ( retract )

G00 X146.10100 Y171.55180 F2000 (rapid move to begin)
F1000.00000
G01 Z0.00000
F2000.00000
G0 X146.10100 Y171.55180 F240
G0 X146.10100 Y171.04380 F240
G0 X145.77080 Y171.04380 F240
G0 X145.77080 Y171.57720 F240
G0 X146.10100 Y171.57720 F240
G0 X146.10100 Y171.55180 F240
M400
M5
M42 P13 S0 (OFF - LASER)
G00 Z0.25000 ( retract )

G00 X145.28820 Y171.55180 F2000 (rapid move to begin)
F1000.00000
G01 Z0.00000
F2000.00000
G0 X145.28820 Y171.55180 F240
G0 X145.28820 Y171.04380 F240
G0 X144.98340 Y171.04380 F240
G0 X144.98340 Y171.57720 F240
G0 X145.28820 Y171.57720 F240
G0 X145.28820 Y171.55180 F240
M400
M5
M42 P13 S0 (OFF - LASER)
G00 Z0.25000 ( retract )

G00 X137.46500 Y171.88200 F2000 (rapid move to begin)
F1000.00000
G01 Z0.00000
F2000.00000
G0 X137.46500 Y171.88200 F240
G0 X137.46500 Y171.39940 F240
G0 X137.13480 Y171.39940 F240
G0 X137.13480 Y171.90740 F240
G0 X137.46500 Y171.90740 F240
G0 X137.46500 Y171.88200 F240
M400
M5
M42 P13 S0 (OFF - LASER)
G00 Z0.25000 ( retract )

G00 X136.65220 Y171.88200 F2000 (rapid move to begin)
F1000.00000
G01 Z0.00000
F2000.00000
G0 X136.65220 Y171.88200 F240
G0 X136.65220 Y171.39940 F240
G0 X136.32200 Y171.39940 F240
G0 X136.32200 Y171.90740 F240
G0 X136.65220 Y171.90740 F240
G0 X136.65220 Y171.88200 F240

M400
M5
M42 P13 S0 (OFF - LASER)
G00 Z0.25000 ( retract )

M5 ( Spindle off. )
M9 ( Coolant off. )

M106 S0 (Fan off.)
