M106 S255 (Fan on.)
G0 x100 y100 f2000 (  Set origin and speed.  )
( pcb2gcode 1.2.2 )
( Software-independent Gcode )





S10000 ( RPM spindle speed. )
G64 P0.00200 ( set maximum deviation from commanded toolpath )
F2000.00000 ( Feedrate. )

F2000.00000 ( Feedrate. )
M400
M5
M42 P13 S0 (OFF - LASER)
G00 Z0.25000 ( retract )

G00 X135.45840 Y138.22700 F2000 (rapid move to begin)
F1000.00000
G01 Z0.00000
F2000.00000
G0 X135.45840 Y138.22700 F240
G0 X135.45840 Y137.69360 F240
G0 X135.10280 Y137.69360 F240
G0 X135.10280 Y138.25240 F240
G0 X135.45840 Y138.25240 F240
G0 X135.45840 Y138.22700 F240
M400
M5
M42 P13 S0 (OFF - LASER)
G00 Z0.25000 ( retract )

G00 X136.27120 Y138.22700 F2000 (rapid move to begin)
F1000.00000
G01 Z0.00000
F2000.00000
G0 X136.27120 Y138.22700 F240
G0 X136.27120 Y137.69360 F240
G0 X135.89020 Y137.69360 F240
G0 X135.89020 Y138.25240 F240
G0 X136.27120 Y138.25240 F240
G0 X136.27120 Y138.22700 F240
M400
M5
M42 P13 S0 (OFF - LASER)
G00 Z0.25000 ( retract )

G00 X144.11980 Y137.89680 F2000 (rapid move to begin)
F1000.00000
G01 Z0.00000
F2000.00000
G0 X144.11980 Y137.89680 F240
G0 X144.11980 Y137.33800 F240
G0 X143.73880 Y137.33800 F240
G0 X143.73880 Y137.92220 F240
G0 X144.11980 Y137.92220 F240
G0 X144.11980 Y137.89680 F240
M400
M5
M42 P13 S0 (OFF - LASER)
G00 Z0.25000 ( retract )

G00 X144.90720 Y137.89680 F2000 (rapid move to begin)
F1000.00000
G01 Z0.00000
F2000.00000
G0 X144.90720 Y137.89680 F240
G0 X144.90720 Y137.33800 F240
G0 X144.52620 Y137.33800 F240
G0 X144.52620 Y137.92220 F240
G0 X144.90720 Y137.92220 F240
G0 X144.90720 Y137.89680 F240
M400
M5
M42 P13 S0 (OFF - LASER)
G00 Z0.25000 ( retract )

G00 X153.87340 Y138.22700 F2000 (rapid move to begin)
F1000.00000
G01 Z0.00000
F2000.00000
G0 X153.87340 Y138.22700 F240
G0 X153.87340 Y137.69360 F240
G0 X153.51780 Y137.69360 F240
G0 X153.51780 Y138.25240 F240
G0 X153.87340 Y138.25240 F240
G0 X153.87340 Y138.22700 F240
M400
M5
M42 P13 S0 (OFF - LASER)
G00 Z0.25000 ( retract )

G00 X154.68620 Y138.22700 F2000 (rapid move to begin)
F1000.00000
G01 Z0.00000
F2000.00000
G0 X154.68620 Y138.22700 F240
G0 X154.68620 Y137.69360 F240
G0 X154.30520 Y137.69360 F240
G0 X154.30520 Y138.25240 F240
G0 X154.68620 Y138.25240 F240
G0 X154.68620 Y138.22700 F240
M400
M5
M42 P13 S0 (OFF - LASER)
G00 Z0.25000 ( retract )

G00 X162.53480 Y137.89680 F2000 (rapid move to begin)
F1000.00000
G01 Z0.00000
F2000.00000
G0 X162.53480 Y137.89680 F240
G0 X162.53480 Y137.33800 F240
G0 X162.15380 Y137.33800 F240
G0 X162.15380 Y137.92220 F240
G0 X162.53480 Y137.92220 F240
G0 X162.53480 Y137.89680 F240
M400
M5
M42 P13 S0 (OFF - LASER)
G00 Z0.25000 ( retract )

G00 X163.32220 Y137.89680 F2000 (rapid move to begin)
F1000.00000
G01 Z0.00000
F2000.00000
G0 X163.32220 Y137.89680 F240
G0 X163.32220 Y137.33800 F240
G0 X162.94120 Y137.33800 F240
G0 X162.94120 Y137.92220 F240
G0 X163.32220 Y137.92220 F240
G0 X163.32220 Y137.89680 F240
M400
M5
M42 P13 S0 (OFF - LASER)
G00 Z0.25000 ( retract )

G00 X172.28840 Y138.22700 F2000 (rapid move to begin)
F1000.00000
G01 Z0.00000
F2000.00000
G0 X172.28840 Y138.22700 F240
G0 X172.28840 Y137.69360 F240
G0 X171.93280 Y137.69360 F240
G0 X171.93280 Y138.25240 F240
G0 X172.28840 Y138.25240 F240
G0 X172.28840 Y138.22700 F240
M400
M5
M42 P13 S0 (OFF - LASER)
G00 Z0.25000 ( retract )

G00 X173.10120 Y138.22700 F2000 (rapid move to begin)
F1000.00000
G01 Z0.00000
F2000.00000
G0 X173.10120 Y138.22700 F240
G0 X173.10120 Y137.69360 F240
G0 X172.72020 Y137.69360 F240
G0 X172.72020 Y138.25240 F240
G0 X173.10120 Y138.25240 F240
G0 X173.10120 Y138.22700 F240
M400
M5
M42 P13 S0 (OFF - LASER)
G00 Z0.25000 ( retract )

G00 X180.94980 Y137.89680 F2000 (rapid move to begin)
F1000.00000
G01 Z0.00000
F2000.00000
G0 X180.94980 Y137.89680 F240
G0 X180.94980 Y137.33800 F240
G0 X180.56880 Y137.33800 F240
G0 X180.56880 Y137.92220 F240
G0 X180.94980 Y137.92220 F240
G0 X180.94980 Y137.89680 F240
M400
M5
M42 P13 S0 (OFF - LASER)
G00 Z0.25000 ( retract )

G00 X181.73720 Y137.89680 F2000 (rapid move to begin)
F1000.00000
G01 Z0.00000
F2000.00000
G0 X181.73720 Y137.89680 F240
G0 X181.73720 Y137.33800 F240
G0 X181.35620 Y137.33800 F240
G0 X181.35620 Y137.92220 F240
G0 X181.73720 Y137.92220 F240
G0 X181.73720 Y137.89680 F240
M400
M5
M42 P13 S0 (OFF - LASER)
G00 Z0.25000 ( retract )

G00 X190.70340 Y138.22700 F2000 (rapid move to begin)
F1000.00000
G01 Z0.00000
F2000.00000
G0 X190.70340 Y138.22700 F240
G0 X190.70340 Y137.69360 F240
G0 X190.34780 Y137.69360 F240
G0 X190.34780 Y138.25240 F240
G0 X190.70340 Y138.25240 F240
G0 X190.70340 Y138.22700 F240
M400
M5
M42 P13 S0 (OFF - LASER)
G00 Z0.25000 ( retract )

G00 X191.51620 Y138.22700 F2000 (rapid move to begin)
F1000.00000
G01 Z0.00000
F2000.00000
G0 X191.51620 Y138.22700 F240
G0 X191.51620 Y137.69360 F240
G0 X191.13520 Y137.69360 F240
G0 X191.13520 Y138.25240 F240
G0 X191.51620 Y138.25240 F240
G0 X191.51620 Y138.22700 F240
M400
M5
M42 P13 S0 (OFF - LASER)
G00 Z0.25000 ( retract )

G00 X199.36480 Y137.89680 F2000 (rapid move to begin)
F1000.00000
G01 Z0.00000
F2000.00000
G0 X199.36480 Y137.89680 F240
G0 X199.36480 Y137.33800 F240
G0 X198.98380 Y137.33800 F240
G0 X198.98380 Y137.92220 F240
G0 X199.36480 Y137.92220 F240
G0 X199.36480 Y137.89680 F240
M400
M5
M42 P13 S0 (OFF - LASER)
G00 Z0.25000 ( retract )

G00 X200.15220 Y137.89680 F2000 (rapid move to begin)
F1000.00000
G01 Z0.00000
F2000.00000
G0 X200.15220 Y137.89680 F240
G0 X200.15220 Y137.33800 F240
G0 X199.77120 Y137.33800 F240
G0 X199.77120 Y137.92220 F240
G0 X200.15220 Y137.92220 F240
G0 X200.15220 Y137.89680 F240
M400
M5
M42 P13 S0 (OFF - LASER)
G00 Z0.25000 ( retract )

G00 X209.11840 Y138.22700 F2000 (rapid move to begin)
F1000.00000
G01 Z0.00000
F2000.00000
G0 X209.11840 Y138.22700 F240
G0 X209.11840 Y137.69360 F240
G0 X208.76280 Y137.69360 F240
G0 X208.76280 Y138.25240 F240
G0 X209.11840 Y138.25240 F240
G0 X209.11840 Y138.22700 F240
M400
M5
M42 P13 S0 (OFF - LASER)
G00 Z0.25000 ( retract )

G00 X209.93120 Y138.22700 F2000 (rapid move to begin)
F1000.00000
G01 Z0.00000
F2000.00000
G0 X209.93120 Y138.22700 F240
G0 X209.93120 Y137.69360 F240
G0 X209.55020 Y137.69360 F240
G0 X209.55020 Y138.25240 F240
G0 X209.93120 Y138.25240 F240
G0 X209.93120 Y138.22700 F240
M400
M5
M42 P13 S0 (OFF - LASER)
G00 Z0.25000 ( retract )

G00 X217.77980 Y137.89680 F2000 (rapid move to begin)
F1000.00000
G01 Z0.00000
F2000.00000
G0 X217.77980 Y137.89680 F240
G0 X217.77980 Y137.33800 F240
G0 X217.39880 Y137.33800 F240
G0 X217.39880 Y137.92220 F240
G0 X217.77980 Y137.92220 F240
G0 X217.77980 Y137.89680 F240
M400
M5
M42 P13 S0 (OFF - LASER)
G00 Z0.25000 ( retract )

G00 X218.56720 Y137.89680 F2000 (rapid move to begin)
F1000.00000
G01 Z0.00000
F2000.00000
G0 X218.56720 Y137.89680 F240
G0 X218.56720 Y137.33800 F240
G0 X218.18620 Y137.33800 F240
G0 X218.18620 Y137.92220 F240
G0 X218.56720 Y137.92220 F240
G0 X218.56720 Y137.89680 F240
M400
M5
M42 P13 S0 (OFF - LASER)
G00 Z0.25000 ( retract )

G00 X227.53340 Y138.22700 F2000 (rapid move to begin)
F1000.00000
G01 Z0.00000
F2000.00000
G0 X227.53340 Y138.22700 F240
G0 X227.53340 Y137.69360 F240
G0 X227.17780 Y137.69360 F240
G0 X227.17780 Y138.25240 F240
G0 X227.53340 Y138.25240 F240
G0 X227.53340 Y138.22700 F240
M400
M5
M42 P13 S0 (OFF - LASER)
G00 Z0.25000 ( retract )

G00 X228.34620 Y138.22700 F2000 (rapid move to begin)
F1000.00000
G01 Z0.00000
F2000.00000
G0 X228.34620 Y138.22700 F240
G0 X228.34620 Y137.69360 F240
G0 X227.96520 Y137.69360 F240
G0 X227.96520 Y138.25240 F240
G0 X228.34620 Y138.25240 F240
G0 X228.34620 Y138.22700 F240
M400
M5
M42 P13 S0 (OFF - LASER)
G00 Z0.25000 ( retract )

G00 X236.19480 Y137.89680 F2000 (rapid move to begin)
F1000.00000
G01 Z0.00000
F2000.00000
G0 X236.19480 Y137.89680 F240
G0 X236.19480 Y137.33800 F240
G0 X235.81380 Y137.33800 F240
G0 X235.81380 Y137.92220 F240
G0 X236.19480 Y137.92220 F240
G0 X236.19480 Y137.89680 F240
M400
M5
M42 P13 S0 (OFF - LASER)
G00 Z0.25000 ( retract )

G00 X236.98220 Y137.89680 F2000 (rapid move to begin)
F1000.00000
G01 Z0.00000
F2000.00000
G0 X236.98220 Y137.89680 F240
G0 X236.98220 Y137.33800 F240
G0 X236.60120 Y137.33800 F240
G0 X236.60120 Y137.92220 F240
G0 X236.98220 Y137.92220 F240
G0 X236.98220 Y137.89680 F240
M400
M5
M42 P13 S0 (OFF - LASER)
G00 Z0.25000 ( retract )

G00 X237.38860 Y171.57720 F2000 (rapid move to begin)
F1000.00000
G01 Z0.00000
F2000.00000
G0 X237.38860 Y171.57720 F240
G0 X237.38860 Y171.01840 F240
G0 X237.03300 Y171.01840 F240
G0 X237.03300 Y171.60260 F240
G0 X237.38860 Y171.60260 F240
G0 X237.38860 Y171.57720 F240
M400
M5
M42 P13 S0 (OFF - LASER)
G00 Z0.25000 ( retract )

G00 X238.20140 Y171.57720 F2000 (rapid move to begin)
F1000.00000
G01 Z0.00000
F2000.00000
G0 X238.20140 Y171.57720 F240
G0 X238.20140 Y171.01840 F240
G0 X237.82040 Y171.01840 F240
G0 X237.82040 Y171.60260 F240
G0 X238.20140 Y171.60260 F240
G0 X238.20140 Y171.57720 F240
M400
M5
M42 P13 S0 (OFF - LASER)
G00 Z0.25000 ( retract )

G00 X229.56540 Y171.90740 F2000 (rapid move to begin)
F1000.00000
G01 Z0.00000
F2000.00000
G0 X229.56540 Y171.90740 F240
G0 X229.56540 Y171.34860 F240
G0 X229.18440 Y171.34860 F240
G0 X229.18440 Y171.93280 F240
G0 X229.56540 Y171.93280 F240
G0 X229.56540 Y171.90740 F240
M400
M5
M42 P13 S0 (OFF - LASER)
G00 Z0.25000 ( retract )

G00 X228.75260 Y171.90740 F2000 (rapid move to begin)
F1000.00000
G01 Z0.00000
F2000.00000
G0 X228.75260 Y171.90740 F240
G0 X228.75260 Y171.34860 F240
G0 X228.37160 Y171.34860 F240
G0 X228.37160 Y171.93280 F240
G0 X228.75260 Y171.93280 F240
G0 X228.75260 Y171.90740 F240
M400
M5
M42 P13 S0 (OFF - LASER)
G00 Z0.25000 ( retract )

G00 X219.78640 Y171.57720 F2000 (rapid move to begin)
F1000.00000
G01 Z0.00000
F2000.00000
G0 X219.78640 Y171.57720 F240
G0 X219.78640 Y171.01840 F240
G0 X219.40540 Y171.01840 F240
G0 X219.40540 Y171.60260 F240
G0 X219.78640 Y171.60260 F240
G0 X219.78640 Y171.57720 F240
M400
M5
M42 P13 S0 (OFF - LASER)
G00 Z0.25000 ( retract )

G00 X218.97360 Y171.57720 F2000 (rapid move to begin)
F1000.00000
G01 Z0.00000
F2000.00000
G0 X218.97360 Y171.57720 F240
G0 X218.97360 Y171.01840 F240
G0 X218.61800 Y171.01840 F240
G0 X218.61800 Y171.60260 F240
G0 X218.97360 Y171.60260 F240
G0 X218.97360 Y171.57720 F240
M400
M5
M42 P13 S0 (OFF - LASER)
G00 Z0.25000 ( retract )

G00 X211.15040 Y171.90740 F2000 (rapid move to begin)
F1000.00000
G01 Z0.00000
F2000.00000
G0 X211.15040 Y171.90740 F240
G0 X211.15040 Y171.34860 F240
G0 X210.76940 Y171.34860 F240
G0 X210.76940 Y171.93280 F240
G0 X211.15040 Y171.93280 F240
G0 X211.15040 Y171.90740 F240
M400
M5
M42 P13 S0 (OFF - LASER)
G00 Z0.25000 ( retract )

G00 X210.33760 Y171.90740 F2000 (rapid move to begin)
F1000.00000
G01 Z0.00000
F2000.00000
G0 X210.33760 Y171.90740 F240
G0 X210.33760 Y171.34860 F240
G0 X209.95660 Y171.34860 F240
G0 X209.95660 Y171.93280 F240
G0 X210.33760 Y171.93280 F240
G0 X210.33760 Y171.90740 F240
M400
M5
M42 P13 S0 (OFF - LASER)
G00 Z0.25000 ( retract )

G00 X201.37140 Y171.57720 F2000 (rapid move to begin)
F1000.00000
G01 Z0.00000
F2000.00000
G0 X201.37140 Y171.57720 F240
G0 X201.37140 Y171.01840 F240
G0 X200.99040 Y171.01840 F240
G0 X200.99040 Y171.60260 F240
G0 X201.37140 Y171.60260 F240
G0 X201.37140 Y171.57720 F240
M400
M5
M42 P13 S0 (OFF - LASER)
G00 Z0.25000 ( retract )

G00 X200.55860 Y171.57720 F2000 (rapid move to begin)
F1000.00000
G01 Z0.00000
F2000.00000
G0 X200.55860 Y171.57720 F240
G0 X200.55860 Y171.01840 F240
G0 X200.20300 Y171.01840 F240
G0 X200.20300 Y171.60260 F240
G0 X200.55860 Y171.60260 F240
G0 X200.55860 Y171.57720 F240
M400
M5
M42 P13 S0 (OFF - LASER)
G00 Z0.25000 ( retract )

G00 X192.73540 Y171.90740 F2000 (rapid move to begin)
F1000.00000
G01 Z0.00000
F2000.00000
G0 X192.73540 Y171.90740 F240
G0 X192.73540 Y171.34860 F240
G0 X192.35440 Y171.34860 F240
G0 X192.35440 Y171.93280 F240
G0 X192.73540 Y171.93280 F240
G0 X192.73540 Y171.90740 F240
M400
M5
M42 P13 S0 (OFF - LASER)
G00 Z0.25000 ( retract )

G00 X191.92260 Y171.90740 F2000 (rapid move to begin)
F1000.00000
G01 Z0.00000
F2000.00000
G0 X191.92260 Y171.90740 F240
G0 X191.92260 Y171.34860 F240
G0 X191.54160 Y171.34860 F240
G0 X191.54160 Y171.93280 F240
G0 X191.92260 Y171.93280 F240
G0 X191.92260 Y171.90740 F240
M400
M5
M42 P13 S0 (OFF - LASER)
G00 Z0.25000 ( retract )

G00 X182.95640 Y171.57720 F2000 (rapid move to begin)
F1000.00000
G01 Z0.00000
F2000.00000
G0 X182.95640 Y171.57720 F240
G0 X182.95640 Y171.01840 F240
G0 X182.57540 Y171.01840 F240
G0 X182.57540 Y171.60260 F240
G0 X182.95640 Y171.60260 F240
G0 X182.95640 Y171.57720 F240
M400
M5
M42 P13 S0 (OFF - LASER)
G00 Z0.25000 ( retract )

G00 X182.14360 Y171.57720 F2000 (rapid move to begin)
F1000.00000
G01 Z0.00000
F2000.00000
G0 X182.14360 Y171.57720 F240
G0 X182.14360 Y171.01840 F240
G0 X181.78800 Y171.01840 F240
G0 X181.78800 Y171.60260 F240
G0 X182.14360 Y171.60260 F240
G0 X182.14360 Y171.57720 F240
M400
M5
M42 P13 S0 (OFF - LASER)
G00 Z0.25000 ( retract )

G00 X174.32040 Y171.90740 F2000 (rapid move to begin)
F1000.00000
G01 Z0.00000
F2000.00000
G0 X174.32040 Y171.90740 F240
G0 X174.32040 Y171.34860 F240
G0 X173.93940 Y171.34860 F240
G0 X173.93940 Y171.93280 F240
G0 X174.32040 Y171.93280 F240
G0 X174.32040 Y171.90740 F240
M400
M5
M42 P13 S0 (OFF - LASER)
G00 Z0.25000 ( retract )

G00 X173.50760 Y171.90740 F2000 (rapid move to begin)
F1000.00000
G01 Z0.00000
F2000.00000
G0 X173.50760 Y171.90740 F240
G0 X173.50760 Y171.34860 F240
G0 X173.12660 Y171.34860 F240
G0 X173.12660 Y171.93280 F240
G0 X173.50760 Y171.93280 F240
G0 X173.50760 Y171.90740 F240
M400
M5
M42 P13 S0 (OFF - LASER)
G00 Z0.25000 ( retract )

G00 X164.54140 Y171.57720 F2000 (rapid move to begin)
F1000.00000
G01 Z0.00000
F2000.00000
G0 X164.54140 Y171.57720 F240
G0 X164.54140 Y171.01840 F240
G0 X164.16040 Y171.01840 F240
G0 X164.16040 Y171.60260 F240
G0 X164.54140 Y171.60260 F240
G0 X164.54140 Y171.57720 F240
M400
M5
M42 P13 S0 (OFF - LASER)
G00 Z0.25000 ( retract )

G00 X163.72860 Y171.57720 F2000 (rapid move to begin)
F1000.00000
G01 Z0.00000
F2000.00000
G0 X163.72860 Y171.57720 F240
G0 X163.72860 Y171.01840 F240
G0 X163.37300 Y171.01840 F240
G0 X163.37300 Y171.60260 F240
G0 X163.72860 Y171.60260 F240
G0 X163.72860 Y171.57720 F240
M400
M5
M42 P13 S0 (OFF - LASER)
G00 Z0.25000 ( retract )

G00 X155.90540 Y171.90740 F2000 (rapid move to begin)
F1000.00000
G01 Z0.00000
F2000.00000
G0 X155.90540 Y171.90740 F240
G0 X155.90540 Y171.34860 F240
G0 X155.52440 Y171.34860 F240
G0 X155.52440 Y171.93280 F240
G0 X155.90540 Y171.93280 F240
G0 X155.90540 Y171.90740 F240
M400
M5
M42 P13 S0 (OFF - LASER)
G00 Z0.25000 ( retract )

G00 X155.09260 Y171.90740 F2000 (rapid move to begin)
F1000.00000
G01 Z0.00000
F2000.00000
G0 X155.09260 Y171.90740 F240
G0 X155.09260 Y171.34860 F240
G0 X154.71160 Y171.34860 F240
G0 X154.71160 Y171.93280 F240
G0 X155.09260 Y171.93280 F240
G0 X155.09260 Y171.90740 F240
M400
M5
M42 P13 S0 (OFF - LASER)
G00 Z0.25000 ( retract )

G00 X146.12640 Y171.57720 F2000 (rapid move to begin)
F1000.00000
G01 Z0.00000
F2000.00000
G0 X146.12640 Y171.57720 F240
G0 X146.12640 Y171.01840 F240
G0 X145.74540 Y171.01840 F240
G0 X145.74540 Y171.60260 F240
G0 X146.12640 Y171.60260 F240
G0 X146.12640 Y171.57720 F240
M400
M5
M42 P13 S0 (OFF - LASER)
G00 Z0.25000 ( retract )

G00 X145.31360 Y171.57720 F2000 (rapid move to begin)
F1000.00000
G01 Z0.00000
F2000.00000
G0 X145.31360 Y171.57720 F240
G0 X145.31360 Y171.01840 F240
G0 X144.95800 Y171.01840 F240
G0 X144.95800 Y171.60260 F240
G0 X145.31360 Y171.60260 F240
G0 X145.31360 Y171.57720 F240
M400
M5
M42 P13 S0 (OFF - LASER)
G00 Z0.25000 ( retract )

G00 X137.49040 Y171.90740 F2000 (rapid move to begin)
F1000.00000
G01 Z0.00000
F2000.00000
G0 X137.49040 Y171.90740 F240
G0 X137.49040 Y171.34860 F240
G0 X137.10940 Y171.34860 F240
G0 X137.10940 Y171.93280 F240
G0 X137.49040 Y171.93280 F240
G0 X137.49040 Y171.90740 F240
M400
M5
M42 P13 S0 (OFF - LASER)
G00 Z0.25000 ( retract )

G00 X136.67760 Y171.90740 F2000 (rapid move to begin)
F1000.00000
G01 Z0.00000
F2000.00000
G0 X136.67760 Y171.90740 F240
G0 X136.67760 Y171.34860 F240
G0 X136.29660 Y171.34860 F240
G0 X136.29660 Y171.93280 F240
G0 X136.67760 Y171.93280 F240
G0 X136.67760 Y171.90740 F240

M400
M5
M42 P13 S0 (OFF - LASER)
G00 Z0.25000 ( retract )

M5 ( Spindle off. )
M9 ( Coolant off. )

M106 S0 (Fan off.)
