M106 S255 (Fan on.)
G0 x100 y100 f2000 (  Set origin and speed.  )
( pcb2gcode 1.2.2 )
( Software-independent Gcode )





S10000 ( RPM spindle speed. )
G64 P0.00200 ( set maximum deviation from commanded toolpath )
F2000.00000 ( Feedrate. )

F2000.00000 ( Feedrate. )
M400
M5
M42 P13 S0 (OFF - LASER)
G00 Z0.25000 ( retract )

G00 X135.48380 Y138.25240 F2000 (rapid move to begin)
F1000.00000
G01 Z0.00000
F2000.00000
G0 X135.48380 Y138.25240 F240
G0 X135.48380 Y137.69360 F240
G0 X135.10280 Y137.69360 F240
G0 X135.10280 Y138.27780 F240
G0 X135.48380 Y138.27780 F240
G0 X135.48380 Y138.25240 F240
M400
M5
M42 P13 S0 (OFF - LASER)
G00 Z0.25000 ( retract )

G00 X136.29660 Y138.25240 F2000 (rapid move to begin)
F1000.00000
G01 Z0.00000
F2000.00000
G0 X136.29660 Y138.25240 F240
G0 X136.29660 Y137.69360 F240
G0 X135.89020 Y137.69360 F240
G0 X135.89020 Y138.27780 F240
G0 X136.29660 Y138.27780 F240
G0 X136.29660 Y138.25240 F240
M400
M5
M42 P13 S0 (OFF - LASER)
G00 Z0.25000 ( retract )

G00 X144.14520 Y137.92220 F2000 (rapid move to begin)
F1000.00000
G01 Z0.00000
F2000.00000
G0 X144.14520 Y137.92220 F240
G0 X144.14520 Y137.36340 F240
G0 X143.73880 Y137.36340 F240
G0 X143.73880 Y137.94760 F240
G0 X144.14520 Y137.94760 F240
G0 X144.14520 Y137.92220 F240
M400
M5
M42 P13 S0 (OFF - LASER)
G00 Z0.25000 ( retract )

G00 X144.93260 Y137.92220 F2000 (rapid move to begin)
F1000.00000
G01 Z0.00000
F2000.00000
G0 X144.93260 Y137.92220 F240
G0 X144.93260 Y137.36340 F240
G0 X144.52620 Y137.36340 F240
G0 X144.52620 Y137.94760 F240
G0 X144.93260 Y137.94760 F240
G0 X144.93260 Y137.92220 F240
M400
M5
M42 P13 S0 (OFF - LASER)
G00 Z0.25000 ( retract )

G00 X153.89880 Y138.25240 F2000 (rapid move to begin)
F1000.00000
G01 Z0.00000
F2000.00000
G0 X153.89880 Y138.25240 F240
G0 X153.89880 Y137.69360 F240
G0 X153.51780 Y137.69360 F240
G0 X153.51780 Y138.27780 F240
G0 X153.89880 Y138.27780 F240
G0 X153.89880 Y138.25240 F240
M400
M5
M42 P13 S0 (OFF - LASER)
G00 Z0.25000 ( retract )

G00 X154.71160 Y138.25240 F2000 (rapid move to begin)
F1000.00000
G01 Z0.00000
F2000.00000
G0 X154.71160 Y138.25240 F240
G0 X154.71160 Y137.69360 F240
G0 X154.30520 Y137.69360 F240
G0 X154.30520 Y138.27780 F240
G0 X154.71160 Y138.27780 F240
G0 X154.71160 Y138.25240 F240
M400
M5
M42 P13 S0 (OFF - LASER)
G00 Z0.25000 ( retract )

G00 X162.56020 Y137.92220 F2000 (rapid move to begin)
F1000.00000
G01 Z0.00000
F2000.00000
G0 X162.56020 Y137.92220 F240
G0 X162.56020 Y137.36340 F240
G0 X162.15380 Y137.36340 F240
G0 X162.15380 Y137.94760 F240
G0 X162.56020 Y137.94760 F240
G0 X162.56020 Y137.92220 F240
M400
M5
M42 P13 S0 (OFF - LASER)
G00 Z0.25000 ( retract )

G00 X163.34760 Y137.92220 F2000 (rapid move to begin)
F1000.00000
G01 Z0.00000
F2000.00000
G0 X163.34760 Y137.92220 F240
G0 X163.34760 Y137.36340 F240
G0 X162.94120 Y137.36340 F240
G0 X162.94120 Y137.94760 F240
G0 X163.34760 Y137.94760 F240
G0 X163.34760 Y137.92220 F240
M400
M5
M42 P13 S0 (OFF - LASER)
G00 Z0.25000 ( retract )

G00 X172.31380 Y138.25240 F2000 (rapid move to begin)
F1000.00000
G01 Z0.00000
F2000.00000
G0 X172.31380 Y138.25240 F240
G0 X172.31380 Y137.69360 F240
G0 X171.93280 Y137.69360 F240
G0 X171.93280 Y138.27780 F240
G0 X172.31380 Y138.27780 F240
G0 X172.31380 Y138.25240 F240
M400
M5
M42 P13 S0 (OFF - LASER)
G00 Z0.25000 ( retract )

G00 X173.12660 Y138.25240 F2000 (rapid move to begin)
F1000.00000
G01 Z0.00000
F2000.00000
G0 X173.12660 Y138.25240 F240
G0 X173.12660 Y137.69360 F240
G0 X172.72020 Y137.69360 F240
G0 X172.72020 Y138.27780 F240
G0 X173.12660 Y138.27780 F240
G0 X173.12660 Y138.25240 F240
M400
M5
M42 P13 S0 (OFF - LASER)
G00 Z0.25000 ( retract )

G00 X180.97520 Y137.92220 F2000 (rapid move to begin)
F1000.00000
G01 Z0.00000
F2000.00000
G0 X180.97520 Y137.92220 F240
G0 X180.97520 Y137.36340 F240
G0 X180.56880 Y137.36340 F240
G0 X180.56880 Y137.94760 F240
G0 X180.97520 Y137.94760 F240
G0 X180.97520 Y137.92220 F240
M400
M5
M42 P13 S0 (OFF - LASER)
G00 Z0.25000 ( retract )

G00 X181.76260 Y137.92220 F2000 (rapid move to begin)
F1000.00000
G01 Z0.00000
F2000.00000
G0 X181.76260 Y137.92220 F240
G0 X181.76260 Y137.36340 F240
G0 X181.35620 Y137.36340 F240
G0 X181.35620 Y137.94760 F240
G0 X181.76260 Y137.94760 F240
G0 X181.76260 Y137.92220 F240
M400
M5
M42 P13 S0 (OFF - LASER)
G00 Z0.25000 ( retract )

G00 X190.72880 Y138.25240 F2000 (rapid move to begin)
F1000.00000
G01 Z0.00000
F2000.00000
G0 X190.72880 Y138.25240 F240
G0 X190.72880 Y137.69360 F240
G0 X190.34780 Y137.69360 F240
G0 X190.34780 Y138.27780 F240
G0 X190.72880 Y138.27780 F240
G0 X190.72880 Y138.25240 F240
M400
M5
M42 P13 S0 (OFF - LASER)
G00 Z0.25000 ( retract )

G00 X191.54160 Y138.25240 F2000 (rapid move to begin)
F1000.00000
G01 Z0.00000
F2000.00000
G0 X191.54160 Y138.25240 F240
G0 X191.54160 Y137.69360 F240
G0 X191.13520 Y137.69360 F240
G0 X191.13520 Y138.27780 F240
G0 X191.54160 Y138.27780 F240
G0 X191.54160 Y138.25240 F240
M400
M5
M42 P13 S0 (OFF - LASER)
G00 Z0.25000 ( retract )

G00 X199.39020 Y137.92220 F2000 (rapid move to begin)
F1000.00000
G01 Z0.00000
F2000.00000
G0 X199.39020 Y137.92220 F240
G0 X199.39020 Y137.36340 F240
G0 X198.98380 Y137.36340 F240
G0 X198.98380 Y137.94760 F240
G0 X199.39020 Y137.94760 F240
G0 X199.39020 Y137.92220 F240
M400
M5
M42 P13 S0 (OFF - LASER)
G00 Z0.25000 ( retract )

G00 X200.17760 Y137.92220 F2000 (rapid move to begin)
F1000.00000
G01 Z0.00000
F2000.00000
G0 X200.17760 Y137.92220 F240
G0 X200.17760 Y137.36340 F240
G0 X199.77120 Y137.36340 F240
G0 X199.77120 Y137.94760 F240
G0 X200.17760 Y137.94760 F240
G0 X200.17760 Y137.92220 F240
M400
M5
M42 P13 S0 (OFF - LASER)
G00 Z0.25000 ( retract )

G00 X209.14380 Y138.25240 F2000 (rapid move to begin)
F1000.00000
G01 Z0.00000
F2000.00000
G0 X209.14380 Y138.25240 F240
G0 X209.14380 Y137.69360 F240
G0 X208.76280 Y137.69360 F240
G0 X208.76280 Y138.27780 F240
G0 X209.14380 Y138.27780 F240
G0 X209.14380 Y138.25240 F240
M400
M5
M42 P13 S0 (OFF - LASER)
G00 Z0.25000 ( retract )

G00 X209.95660 Y138.25240 F2000 (rapid move to begin)
F1000.00000
G01 Z0.00000
F2000.00000
G0 X209.95660 Y138.25240 F240
G0 X209.95660 Y137.69360 F240
G0 X209.55020 Y137.69360 F240
G0 X209.55020 Y138.27780 F240
G0 X209.95660 Y138.27780 F240
G0 X209.95660 Y138.25240 F240
M400
M5
M42 P13 S0 (OFF - LASER)
G00 Z0.25000 ( retract )

G00 X217.80520 Y137.92220 F2000 (rapid move to begin)
F1000.00000
G01 Z0.00000
F2000.00000
G0 X217.80520 Y137.92220 F240
G0 X217.80520 Y137.36340 F240
G0 X217.39880 Y137.36340 F240
G0 X217.39880 Y137.94760 F240
G0 X217.80520 Y137.94760 F240
G0 X217.80520 Y137.92220 F240
M400
M5
M42 P13 S0 (OFF - LASER)
G00 Z0.25000 ( retract )

G00 X218.59260 Y137.92220 F2000 (rapid move to begin)
F1000.00000
G01 Z0.00000
F2000.00000
G0 X218.59260 Y137.92220 F240
G0 X218.59260 Y137.36340 F240
G0 X218.18620 Y137.36340 F240
G0 X218.18620 Y137.94760 F240
G0 X218.59260 Y137.94760 F240
G0 X218.59260 Y137.92220 F240
M400
M5
M42 P13 S0 (OFF - LASER)
G00 Z0.25000 ( retract )

G00 X227.55880 Y138.25240 F2000 (rapid move to begin)
F1000.00000
G01 Z0.00000
F2000.00000
G0 X227.55880 Y138.25240 F240
G0 X227.55880 Y137.69360 F240
G0 X227.17780 Y137.69360 F240
G0 X227.17780 Y138.27780 F240
G0 X227.55880 Y138.27780 F240
G0 X227.55880 Y138.25240 F240
M400
M5
M42 P13 S0 (OFF - LASER)
G00 Z0.25000 ( retract )

G00 X228.37160 Y138.25240 F2000 (rapid move to begin)
F1000.00000
G01 Z0.00000
F2000.00000
G0 X228.37160 Y138.25240 F240
G0 X228.37160 Y137.69360 F240
G0 X227.96520 Y137.69360 F240
G0 X227.96520 Y138.27780 F240
G0 X228.37160 Y138.27780 F240
G0 X228.37160 Y138.25240 F240
M400
M5
M42 P13 S0 (OFF - LASER)
G00 Z0.25000 ( retract )

G00 X236.22020 Y137.92220 F2000 (rapid move to begin)
F1000.00000
G01 Z0.00000
F2000.00000
G0 X236.22020 Y137.92220 F240
G0 X236.22020 Y137.36340 F240
G0 X235.81380 Y137.36340 F240
G0 X235.81380 Y137.94760 F240
G0 X236.22020 Y137.94760 F240
G0 X236.22020 Y137.92220 F240
M400
M5
M42 P13 S0 (OFF - LASER)
G00 Z0.25000 ( retract )

G00 X237.00760 Y137.92220 F2000 (rapid move to begin)
F1000.00000
G01 Z0.00000
F2000.00000
G0 X237.00760 Y137.92220 F240
G0 X237.00760 Y137.36340 F240
G0 X236.60120 Y137.36340 F240
G0 X236.60120 Y137.94760 F240
G0 X237.00760 Y137.94760 F240
G0 X237.00760 Y137.92220 F240
M400
M5
M42 P13 S0 (OFF - LASER)
G00 Z0.25000 ( retract )

G00 X237.41400 Y171.60260 F2000 (rapid move to begin)
F1000.00000
G01 Z0.00000
F2000.00000
G0 X237.41400 Y171.60260 F240
G0 X237.41400 Y171.01840 F240
G0 X237.03300 Y171.01840 F240
G0 X237.03300 Y171.62800 F240
G0 X237.41400 Y171.62800 F240
G0 X237.41400 Y171.60260 F240
M400
M5
M42 P13 S0 (OFF - LASER)
G00 Z0.25000 ( retract )

G00 X238.22680 Y171.60260 F2000 (rapid move to begin)
F1000.00000
G01 Z0.00000
F2000.00000
G0 X238.22680 Y171.60260 F240
G0 X238.22680 Y171.01840 F240
G0 X237.82040 Y171.01840 F240
G0 X237.82040 Y171.62800 F240
G0 X238.22680 Y171.62800 F240
G0 X238.22680 Y171.60260 F240
M400
M5
M42 P13 S0 (OFF - LASER)
G00 Z0.25000 ( retract )

G00 X229.59080 Y171.93280 F2000 (rapid move to begin)
F1000.00000
G01 Z0.00000
F2000.00000
G0 X229.59080 Y171.93280 F240
G0 X229.59080 Y171.37400 F240
G0 X229.18440 Y171.37400 F240
G0 X229.18440 Y171.95820 F240
G0 X229.59080 Y171.95820 F240
G0 X229.59080 Y171.93280 F240
M400
M5
M42 P13 S0 (OFF - LASER)
G00 Z0.25000 ( retract )

G00 X228.77800 Y171.93280 F2000 (rapid move to begin)
F1000.00000
G01 Z0.00000
F2000.00000
G0 X228.77800 Y171.93280 F240
G0 X228.77800 Y171.37400 F240
G0 X228.37160 Y171.37400 F240
G0 X228.37160 Y171.95820 F240
G0 X228.77800 Y171.95820 F240
G0 X228.77800 Y171.93280 F240
M400
M5
M42 P13 S0 (OFF - LASER)
G00 Z0.25000 ( retract )

G00 X219.81180 Y171.60260 F2000 (rapid move to begin)
F1000.00000
G01 Z0.00000
F2000.00000
G0 X219.81180 Y171.60260 F240
G0 X219.81180 Y171.01840 F240
G0 X219.40540 Y171.01840 F240
G0 X219.40540 Y171.62800 F240
G0 X219.81180 Y171.62800 F240
G0 X219.81180 Y171.60260 F240
M400
M5
M42 P13 S0 (OFF - LASER)
G00 Z0.25000 ( retract )

G00 X218.99900 Y171.60260 F2000 (rapid move to begin)
F1000.00000
G01 Z0.00000
F2000.00000
G0 X218.99900 Y171.60260 F240
G0 X218.99900 Y171.01840 F240
G0 X218.61800 Y171.01840 F240
G0 X218.61800 Y171.62800 F240
G0 X218.99900 Y171.62800 F240
G0 X218.99900 Y171.60260 F240
M400
M5
M42 P13 S0 (OFF - LASER)
G00 Z0.25000 ( retract )

G00 X211.17580 Y171.93280 F2000 (rapid move to begin)
F1000.00000
G01 Z0.00000
F2000.00000
G0 X211.17580 Y171.93280 F240
G0 X211.17580 Y171.37400 F240
G0 X210.76940 Y171.37400 F240
G0 X210.76940 Y171.95820 F240
G0 X211.17580 Y171.95820 F240
G0 X211.17580 Y171.93280 F240
M400
M5
M42 P13 S0 (OFF - LASER)
G00 Z0.25000 ( retract )

G00 X210.36300 Y171.93280 F2000 (rapid move to begin)
F1000.00000
G01 Z0.00000
F2000.00000
G0 X210.36300 Y171.93280 F240
G0 X210.36300 Y171.37400 F240
G0 X209.95660 Y171.37400 F240
G0 X209.95660 Y171.95820 F240
G0 X210.36300 Y171.95820 F240
G0 X210.36300 Y171.93280 F240
M400
M5
M42 P13 S0 (OFF - LASER)
G00 Z0.25000 ( retract )

G00 X201.39680 Y171.60260 F2000 (rapid move to begin)
F1000.00000
G01 Z0.00000
F2000.00000
G0 X201.39680 Y171.60260 F240
G0 X201.39680 Y171.01840 F240
G0 X200.99040 Y171.01840 F240
G0 X200.99040 Y171.62800 F240
G0 X201.39680 Y171.62800 F240
G0 X201.39680 Y171.60260 F240
M400
M5
M42 P13 S0 (OFF - LASER)
G00 Z0.25000 ( retract )

G00 X200.58400 Y171.60260 F2000 (rapid move to begin)
F1000.00000
G01 Z0.00000
F2000.00000
G0 X200.58400 Y171.60260 F240
G0 X200.58400 Y171.01840 F240
G0 X200.20300 Y171.01840 F240
G0 X200.20300 Y171.62800 F240
G0 X200.58400 Y171.62800 F240
G0 X200.58400 Y171.60260 F240
M400
M5
M42 P13 S0 (OFF - LASER)
G00 Z0.25000 ( retract )

G00 X192.76080 Y171.93280 F2000 (rapid move to begin)
F1000.00000
G01 Z0.00000
F2000.00000
G0 X192.76080 Y171.93280 F240
G0 X192.76080 Y171.37400 F240
G0 X192.35440 Y171.37400 F240
G0 X192.35440 Y171.95820 F240
G0 X192.76080 Y171.95820 F240
G0 X192.76080 Y171.93280 F240
M400
M5
M42 P13 S0 (OFF - LASER)
G00 Z0.25000 ( retract )

G00 X191.94800 Y171.93280 F2000 (rapid move to begin)
F1000.00000
G01 Z0.00000
F2000.00000
G0 X191.94800 Y171.93280 F240
G0 X191.94800 Y171.37400 F240
G0 X191.54160 Y171.37400 F240
G0 X191.54160 Y171.95820 F240
G0 X191.94800 Y171.95820 F240
G0 X191.94800 Y171.93280 F240
M400
M5
M42 P13 S0 (OFF - LASER)
G00 Z0.25000 ( retract )

G00 X182.98180 Y171.60260 F2000 (rapid move to begin)
F1000.00000
G01 Z0.00000
F2000.00000
G0 X182.98180 Y171.60260 F240
G0 X182.98180 Y171.01840 F240
G0 X182.57540 Y171.01840 F240
G0 X182.57540 Y171.62800 F240
G0 X182.98180 Y171.62800 F240
G0 X182.98180 Y171.60260 F240
M400
M5
M42 P13 S0 (OFF - LASER)
G00 Z0.25000 ( retract )

G00 X182.16900 Y171.60260 F2000 (rapid move to begin)
F1000.00000
G01 Z0.00000
F2000.00000
G0 X182.16900 Y171.60260 F240
G0 X182.16900 Y171.01840 F240
G0 X181.78800 Y171.01840 F240
G0 X181.78800 Y171.62800 F240
G0 X182.16900 Y171.62800 F240
G0 X182.16900 Y171.60260 F240
M400
M5
M42 P13 S0 (OFF - LASER)
G00 Z0.25000 ( retract )

G00 X174.34580 Y171.93280 F2000 (rapid move to begin)
F1000.00000
G01 Z0.00000
F2000.00000
G0 X174.34580 Y171.93280 F240
G0 X174.34580 Y171.37400 F240
G0 X173.93940 Y171.37400 F240
G0 X173.93940 Y171.95820 F240
G0 X174.34580 Y171.95820 F240
G0 X174.34580 Y171.93280 F240
M400
M5
M42 P13 S0 (OFF - LASER)
G00 Z0.25000 ( retract )

G00 X173.53300 Y171.93280 F2000 (rapid move to begin)
F1000.00000
G01 Z0.00000
F2000.00000
G0 X173.53300 Y171.93280 F240
G0 X173.53300 Y171.37400 F240
G0 X173.12660 Y171.37400 F240
G0 X173.12660 Y171.95820 F240
G0 X173.53300 Y171.95820 F240
G0 X173.53300 Y171.93280 F240
M400
M5
M42 P13 S0 (OFF - LASER)
G00 Z0.25000 ( retract )

G00 X164.56680 Y171.60260 F2000 (rapid move to begin)
F1000.00000
G01 Z0.00000
F2000.00000
G0 X164.56680 Y171.60260 F240
G0 X164.56680 Y171.01840 F240
G0 X164.16040 Y171.01840 F240
G0 X164.16040 Y171.62800 F240
G0 X164.56680 Y171.62800 F240
G0 X164.56680 Y171.60260 F240
M400
M5
M42 P13 S0 (OFF - LASER)
G00 Z0.25000 ( retract )

G00 X163.75400 Y171.60260 F2000 (rapid move to begin)
F1000.00000
G01 Z0.00000
F2000.00000
G0 X163.75400 Y171.60260 F240
G0 X163.75400 Y171.01840 F240
G0 X163.37300 Y171.01840 F240
G0 X163.37300 Y171.62800 F240
G0 X163.75400 Y171.62800 F240
G0 X163.75400 Y171.60260 F240
M400
M5
M42 P13 S0 (OFF - LASER)
G00 Z0.25000 ( retract )

G00 X155.93080 Y171.93280 F2000 (rapid move to begin)
F1000.00000
G01 Z0.00000
F2000.00000
G0 X155.93080 Y171.93280 F240
G0 X155.93080 Y171.37400 F240
G0 X155.52440 Y171.37400 F240
G0 X155.52440 Y171.95820 F240
G0 X155.93080 Y171.95820 F240
G0 X155.93080 Y171.93280 F240
M400
M5
M42 P13 S0 (OFF - LASER)
G00 Z0.25000 ( retract )

G00 X155.11800 Y171.93280 F2000 (rapid move to begin)
F1000.00000
G01 Z0.00000
F2000.00000
G0 X155.11800 Y171.93280 F240
G0 X155.11800 Y171.37400 F240
G0 X154.71160 Y171.37400 F240
G0 X154.71160 Y171.95820 F240
G0 X155.11800 Y171.95820 F240
G0 X155.11800 Y171.93280 F240
M400
M5
M42 P13 S0 (OFF - LASER)
G00 Z0.25000 ( retract )

G00 X146.15180 Y171.60260 F2000 (rapid move to begin)
F1000.00000
G01 Z0.00000
F2000.00000
G0 X146.15180 Y171.60260 F240
G0 X146.15180 Y171.01840 F240
G0 X145.74540 Y171.01840 F240
G0 X145.74540 Y171.62800 F240
G0 X146.15180 Y171.62800 F240
G0 X146.15180 Y171.60260 F240
M400
M5
M42 P13 S0 (OFF - LASER)
G00 Z0.25000 ( retract )

G00 X145.33900 Y171.60260 F2000 (rapid move to begin)
F1000.00000
G01 Z0.00000
F2000.00000
G0 X145.33900 Y171.60260 F240
G0 X145.33900 Y171.01840 F240
G0 X144.95800 Y171.01840 F240
G0 X144.95800 Y171.62800 F240
G0 X145.33900 Y171.62800 F240
G0 X145.33900 Y171.60260 F240
M400
M5
M42 P13 S0 (OFF - LASER)
G00 Z0.25000 ( retract )

G00 X137.51580 Y171.93280 F2000 (rapid move to begin)
F1000.00000
G01 Z0.00000
F2000.00000
G0 X137.51580 Y171.93280 F240
G0 X137.51580 Y171.37400 F240
G0 X137.10940 Y171.37400 F240
G0 X137.10940 Y171.95820 F240
G0 X137.51580 Y171.95820 F240
G0 X137.51580 Y171.93280 F240
M400
M5
M42 P13 S0 (OFF - LASER)
G00 Z0.25000 ( retract )

G00 X136.70300 Y171.93280 F2000 (rapid move to begin)
F1000.00000
G01 Z0.00000
F2000.00000
G0 X136.70300 Y171.93280 F240
G0 X136.70300 Y171.37400 F240
G0 X136.29660 Y171.37400 F240
G0 X136.29660 Y171.95820 F240
G0 X136.70300 Y171.95820 F240
G0 X136.70300 Y171.93280 F240

M400
M5
M42 P13 S0 (OFF - LASER)
G00 Z0.25000 ( retract )

M5 ( Spindle off. )
M9 ( Coolant off. )

M106 S0 (Fan off.)
