( pcb2gcode 1.2.2 )
( Software-independent Gcode )
      
G94 ( Inches per minute feed rate. )
G20 ( Units == INCHES. )

G90 ( Absolute coordinates. )
S10000 ( RPM spindle speed. )
G64 P0.00200 ( set maximum deviation from commanded toolpath )
F1.75000 ( Feedrate. )

F1.75000 ( Feedrate. )
M3 ( Spindle on clockwise. )
G04 P0 ( dwell for no time -- G64 should not smooth over this point )
G00 Z0.02000 ( retract )

G00 X1.36700 Y1.09600 ( rapid move to begin. )
G01 Z-0.01500 F0.87500 ( plunge. )
G04 P0 ( dwell for no time -- G64 should not smooth over this point )
F1.75000
X1.36700 Y1.09600
X1.36700 Y0.78800
X1.36600 Y0.78800
X1.36600 Y0.78600
X1.36500 Y0.78600
X1.36500 Y0.78500
X1.36400 Y0.78500
X1.36400 Y0.78400
X1.36300 Y0.78400
X1.36300 Y0.78300
X1.36200 Y0.78300
X1.36200 Y0.78200
X1.36100 Y0.78200
X1.36100 Y0.78100
X1.36000 Y0.78100
X1.36000 Y0.78000
X1.35900 Y0.78000
X1.35900 Y0.77900
X1.35800 Y0.77900
X1.35800 Y0.77800
X1.35700 Y0.77800
X1.35700 Y0.77700
X1.35600 Y0.77700
X1.35600 Y0.77600
X1.35500 Y0.77600
X1.35500 Y0.77500
X1.35400 Y0.77500
X1.35400 Y0.77400
X1.35300 Y0.77400
X1.35300 Y0.77300
X1.35200 Y0.77300
X1.35200 Y0.77200
X1.35100 Y0.77200
X1.35100 Y0.77100
X1.35000 Y0.77100
X1.35000 Y0.77000
X1.34900 Y0.77000
X1.34900 Y0.76900
X1.34800 Y0.76900
X1.34800 Y0.76800
X1.34700 Y0.76800
X1.34700 Y0.76700
X1.34600 Y0.76700
X1.34600 Y0.76600
X1.34500 Y0.76600
X1.34500 Y0.76500
X1.34300 Y0.76500
X1.34300 Y0.76400
X0.95300 Y0.76400
X0.95300 Y0.76300
X0.95200 Y0.76300
X0.95200 Y0.76200
X0.95100 Y0.76200
X0.95100 Y0.76100
X0.95000 Y0.76100
X0.95000 Y0.76000
X0.94900 Y0.76000
X0.94900 Y0.75900
X0.94800 Y0.75900
X0.94800 Y0.75800
X0.94700 Y0.75800
X0.94700 Y0.75700
X0.94600 Y0.75700
X0.94600 Y0.75600
X0.94500 Y0.75600
X0.94500 Y0.75500
X0.94400 Y0.75500
X0.94400 Y0.75400
X0.94300 Y0.75400
X0.94300 Y0.75300
X0.94200 Y0.75300
X0.94200 Y0.75200
X0.94100 Y0.75200
X0.94100 Y0.75100
X0.94000 Y0.75100
X0.94000 Y0.75000
X0.93900 Y0.75000
X0.93900 Y0.74900
X0.93800 Y0.74900
X0.93800 Y0.74800
X0.93700 Y0.74800
X0.93700 Y0.74700
X0.93600 Y0.74700
X0.93600 Y0.74600
X0.93500 Y0.74600
X0.93500 Y0.74500
X0.93400 Y0.74500
X0.93400 Y0.74400
X0.93300 Y0.74400
X0.93300 Y0.74300
X0.93200 Y0.74300
X0.93200 Y0.74200
X0.93100 Y0.74200
X0.93100 Y0.74100
X0.93000 Y0.74100
X0.93000 Y0.74000
X0.92900 Y0.74000
X0.92900 Y0.73900
X0.92800 Y0.73900
X0.92800 Y0.73800
X0.92700 Y0.73800
X0.92700 Y0.73700
X0.92600 Y0.73700
X0.92600 Y0.73600
X0.92500 Y0.73600
X0.92500 Y0.73500
X0.92400 Y0.73500
X0.92400 Y0.73400
X0.92300 Y0.73400
X0.92300 Y0.73300
X0.92200 Y0.73300
X0.92200 Y0.73200
X0.92100 Y0.73200
X0.92100 Y0.73100
X0.92000 Y0.73100
X0.92000 Y0.73000
X0.91900 Y0.73000
X0.91900 Y0.72900
X0.91800 Y0.72900
X0.91800 Y0.72800
X0.91700 Y0.72800
X0.91700 Y0.72700
X0.91600 Y0.72700
X0.91600 Y0.72600
X0.91500 Y0.72600
X0.91500 Y0.72500
X0.91400 Y0.72500
X0.91400 Y0.72400
X0.91300 Y0.72400
X0.91300 Y0.72300
X0.91200 Y0.72300
X0.91200 Y0.72200
X0.91100 Y0.72200
X0.91100 Y0.72100
X0.91000 Y0.72100
X0.91000 Y0.72000
X0.90900 Y0.72000
X0.90900 Y0.71900
X0.90800 Y0.71900
X0.90800 Y0.71800
X0.90700 Y0.71800
X0.90700 Y0.71700
X0.90600 Y0.71700
X0.90600 Y0.71600
X0.90500 Y0.71600
X0.90500 Y0.71500
X0.90400 Y0.71500
X0.90400 Y0.71400
X0.90300 Y0.71400
X0.90300 Y0.71300
X0.90200 Y0.71300
X0.90200 Y0.71200
X0.90100 Y0.71200
X0.90100 Y0.71100
X0.90000 Y0.71100
X0.90000 Y0.71000
X0.89900 Y0.71000
X0.89900 Y0.70900
X0.89800 Y0.70900
X0.89800 Y0.70800
X0.89700 Y0.70800
X0.89700 Y-0.04200
X0.89600 Y-0.04200
X0.89600 Y-0.04400
X0.89500 Y-0.04400
X0.89500 Y-0.04500
X0.89300 Y-0.04500
X0.89300 Y-0.04600
X-0.07200 Y-0.04600
X-0.07200 Y-0.04500
X-0.07400 Y-0.04500
X-0.07400 Y-0.04400
X-0.07500 Y-0.04400
X-0.07500 Y-0.04200
X-0.07600 Y-0.04200
X-0.07600 Y0.76800
X-0.07700 Y0.76800
X-0.07700 Y0.76900
X-0.07800 Y0.76900
X-0.07800 Y0.77000
X-0.07900 Y0.77000
X-0.07900 Y0.77100
X-0.08000 Y0.77100
X-0.08000 Y0.77200
X-0.08100 Y0.77200
X-0.08100 Y0.77300
X-0.08200 Y0.77300
X-0.08200 Y0.77400
X-0.08300 Y0.77400
X-0.08300 Y0.77500
X-0.08400 Y0.77500
X-0.08400 Y0.77600
X-0.08500 Y0.77600
X-0.08500 Y0.77700
X-0.08600 Y0.77700
X-0.08600 Y0.77800
X-0.08700 Y0.77800
X-0.08700 Y0.77900
X-0.08800 Y0.77900
X-0.08800 Y0.78000
X-0.08900 Y0.78000
X-0.08900 Y0.78100
X-0.09000 Y0.78100
X-0.09000 Y0.78200
X-0.09100 Y0.78200
X-0.09100 Y0.78300
X-0.09200 Y0.78300
X-0.09200 Y0.78400
X-0.09300 Y0.78400
X-0.09300 Y0.78500
X-0.09400 Y0.78500
X-0.09400 Y0.78600
X-0.09500 Y0.78600
X-0.09500 Y0.78800
X-0.09600 Y0.78800
X-0.09600 Y1.19300
X-0.09500 Y1.19300
X-0.09500 Y1.19500
X-0.09400 Y1.19500
X-0.09400 Y1.19600
X-0.09200 Y1.19600
X-0.09200 Y1.19700
X1.36300 Y1.19700
X1.36300 Y1.19600
X1.36500 Y1.19600
X1.36500 Y1.19500
X1.36600 Y1.19500
X1.36600 Y1.19300
X1.36700 Y1.19300
X1.36700 Y1.09600
G01 Z-0.05000 F0.87500 ( plunge. )
G04 P0 ( dwell for no time -- G64 should not smooth over this point )
F1.75000
X1.36700 Y1.09600
X1.36700 Y0.78800
X1.36600 Y0.78800
X1.36600 Y0.78600
X1.36500 Y0.78600
X1.36500 Y0.78500
X1.36400 Y0.78500
X1.36400 Y0.78400
X1.36300 Y0.78400
X1.36300 Y0.78300
X1.36200 Y0.78300
X1.36200 Y0.78200
X1.36100 Y0.78200
X1.36100 Y0.78100
X1.36000 Y0.78100
X1.36000 Y0.78000
X1.35900 Y0.78000
X1.35900 Y0.77900
X1.35800 Y0.77900
X1.35800 Y0.77800
X1.35700 Y0.77800
X1.35700 Y0.77700
X1.35600 Y0.77700
X1.35600 Y0.77600
X1.35500 Y0.77600
X1.35500 Y0.77500
X1.35400 Y0.77500
X1.35400 Y0.77400
X1.35300 Y0.77400
X1.35300 Y0.77300
X1.35200 Y0.77300
X1.35200 Y0.77200
X1.35100 Y0.77200
X1.35100 Y0.77100
X1.35000 Y0.77100
X1.35000 Y0.77000
X1.34900 Y0.77000
X1.34900 Y0.76900
X1.34800 Y0.76900
X1.34800 Y0.76800
X1.34700 Y0.76800
X1.34700 Y0.76700
X1.34600 Y0.76700
X1.34600 Y0.76600
X1.34500 Y0.76600
X1.34500 Y0.76500
X1.34300 Y0.76500
X1.34300 Y0.76400
X0.95300 Y0.76400
X0.95300 Y0.76300
X0.95200 Y0.76300
X0.95200 Y0.76200
X0.95100 Y0.76200
X0.95100 Y0.76100
X0.95000 Y0.76100
X0.95000 Y0.76000
X0.94900 Y0.76000
X0.94900 Y0.75900
X0.94800 Y0.75900
X0.94800 Y0.75800
X0.94700 Y0.75800
X0.94700 Y0.75700
X0.94600 Y0.75700
X0.94600 Y0.75600
X0.94500 Y0.75600
X0.94500 Y0.75500
X0.94400 Y0.75500
X0.94400 Y0.75400
X0.94300 Y0.75400
X0.94300 Y0.75300
X0.94200 Y0.75300
X0.94200 Y0.75200
X0.94100 Y0.75200
X0.94100 Y0.75100
X0.94000 Y0.75100
X0.94000 Y0.75000
X0.93900 Y0.75000
X0.93900 Y0.74900
X0.93800 Y0.74900
X0.93800 Y0.74800
X0.93700 Y0.74800
X0.93700 Y0.74700
X0.93600 Y0.74700
X0.93600 Y0.74600
X0.93500 Y0.74600
X0.93500 Y0.74500
X0.93400 Y0.74500
X0.93400 Y0.74400
X0.93300 Y0.74400
X0.93300 Y0.74300
X0.93200 Y0.74300
X0.93200 Y0.74200
X0.93100 Y0.74200
X0.93100 Y0.74100
X0.93000 Y0.74100
X0.93000 Y0.74000
X0.92900 Y0.74000
X0.92900 Y0.73900
X0.92800 Y0.73900
X0.92800 Y0.73800
X0.92700 Y0.73800
X0.92700 Y0.73700
X0.92600 Y0.73700
X0.92600 Y0.73600
X0.92500 Y0.73600
X0.92500 Y0.73500
X0.92400 Y0.73500
X0.92400 Y0.73400
X0.92300 Y0.73400
X0.92300 Y0.73300
X0.92200 Y0.73300
X0.92200 Y0.73200
X0.92100 Y0.73200
X0.92100 Y0.73100
X0.92000 Y0.73100
X0.92000 Y0.73000
X0.91900 Y0.73000
X0.91900 Y0.72900
X0.91800 Y0.72900
X0.91800 Y0.72800
X0.91700 Y0.72800
X0.91700 Y0.72700
X0.91600 Y0.72700
X0.91600 Y0.72600
X0.91500 Y0.72600
X0.91500 Y0.72500
X0.91400 Y0.72500
X0.91400 Y0.72400
X0.91300 Y0.72400
X0.91300 Y0.72300
X0.91200 Y0.72300
X0.91200 Y0.72200
X0.91100 Y0.72200
X0.91100 Y0.72100
X0.91000 Y0.72100
X0.91000 Y0.72000
X0.90900 Y0.72000
X0.90900 Y0.71900
X0.90800 Y0.71900
X0.90800 Y0.71800
X0.90700 Y0.71800
X0.90700 Y0.71700
X0.90600 Y0.71700
X0.90600 Y0.71600
X0.90500 Y0.71600
X0.90500 Y0.71500
X0.90400 Y0.71500
X0.90400 Y0.71400
X0.90300 Y0.71400
X0.90300 Y0.71300
X0.90200 Y0.71300
X0.90200 Y0.71200
X0.90100 Y0.71200
X0.90100 Y0.71100
X0.90000 Y0.71100
X0.90000 Y0.71000
X0.89900 Y0.71000
X0.89900 Y0.70900
X0.89800 Y0.70900
X0.89800 Y0.70800
X0.89700 Y0.70800
X0.89700 Y-0.04200
X0.89600 Y-0.04200
X0.89600 Y-0.04400
X0.89500 Y-0.04400
X0.89500 Y-0.04500
X0.89300 Y-0.04500
X0.89300 Y-0.04600
X-0.07200 Y-0.04600
X-0.07200 Y-0.04500
X-0.07400 Y-0.04500
X-0.07400 Y-0.04400
X-0.07500 Y-0.04400
X-0.07500 Y-0.04200
X-0.07600 Y-0.04200
X-0.07600 Y0.76800
X-0.07700 Y0.76800
X-0.07700 Y0.76900
X-0.07800 Y0.76900
X-0.07800 Y0.77000
X-0.07900 Y0.77000
X-0.07900 Y0.77100
X-0.08000 Y0.77100
X-0.08000 Y0.77200
X-0.08100 Y0.77200
X-0.08100 Y0.77300
X-0.08200 Y0.77300
X-0.08200 Y0.77400
X-0.08300 Y0.77400
X-0.08300 Y0.77500
X-0.08400 Y0.77500
X-0.08400 Y0.77600
X-0.08500 Y0.77600
X-0.08500 Y0.77700
X-0.08600 Y0.77700
X-0.08600 Y0.77800
X-0.08700 Y0.77800
X-0.08700 Y0.77900
X-0.08800 Y0.77900
X-0.08800 Y0.78000
X-0.08900 Y0.78000
X-0.08900 Y0.78100
X-0.09000 Y0.78100
X-0.09000 Y0.78200
X-0.09100 Y0.78200
X-0.09100 Y0.78300
X-0.09200 Y0.78300
X-0.09200 Y0.78400
X-0.09300 Y0.78400
X-0.09300 Y0.78500
X-0.09400 Y0.78500
X-0.09400 Y0.78600
X-0.09500 Y0.78600
X-0.09500 Y0.78800
X-0.09600 Y0.78800
X-0.09600 Y1.19300
X-0.09500 Y1.19300
X-0.09500 Y1.19500
X-0.09400 Y1.19500
X-0.09400 Y1.19600
X-0.09200 Y1.19600
X-0.09200 Y1.19700
X1.36300 Y1.19700
X1.36300 Y1.19600
X1.36500 Y1.19600
X1.36500 Y1.19500
X1.36600 Y1.19500
X1.36600 Y1.19300
X1.36700 Y1.19300
X1.36700 Y1.09600
G01 Z-0.08500 F0.87500 ( plunge. )
G04 P0 ( dwell for no time -- G64 should not smooth over this point )
F1.75000
X1.36700 Y1.09600
X1.36700 Y0.78800
X1.36600 Y0.78800
X1.36600 Y0.78600
X1.36500 Y0.78600
X1.36500 Y0.78500
X1.36400 Y0.78500
X1.36400 Y0.78400
X1.36300 Y0.78400
X1.36300 Y0.78300
X1.36200 Y0.78300
X1.36200 Y0.78200
X1.36100 Y0.78200
X1.36100 Y0.78100
X1.36000 Y0.78100
X1.36000 Y0.78000
X1.35900 Y0.78000
X1.35900 Y0.77900
X1.35800 Y0.77900
X1.35800 Y0.77800
X1.35700 Y0.77800
X1.35700 Y0.77700
X1.35600 Y0.77700
X1.35600 Y0.77600
X1.35500 Y0.77600
X1.35500 Y0.77500
X1.35400 Y0.77500
X1.35400 Y0.77400
X1.35300 Y0.77400
X1.35300 Y0.77300
X1.35200 Y0.77300
X1.35200 Y0.77200
X1.35100 Y0.77200
X1.35100 Y0.77100
X1.35000 Y0.77100
X1.35000 Y0.77000
X1.34900 Y0.77000
X1.34900 Y0.76900
X1.34800 Y0.76900
X1.34800 Y0.76800
X1.34700 Y0.76800
X1.34700 Y0.76700
X1.34600 Y0.76700
X1.34600 Y0.76600
X1.34500 Y0.76600
X1.34500 Y0.76500
X1.34300 Y0.76500
X1.34300 Y0.76400
X0.95300 Y0.76400
X0.95300 Y0.76300
X0.95200 Y0.76300
X0.95200 Y0.76200
X0.95100 Y0.76200
X0.95100 Y0.76100
X0.95000 Y0.76100
X0.95000 Y0.76000
X0.94900 Y0.76000
X0.94900 Y0.75900
X0.94800 Y0.75900
X0.94800 Y0.75800
X0.94700 Y0.75800
X0.94700 Y0.75700
X0.94600 Y0.75700
X0.94600 Y0.75600
X0.94500 Y0.75600
X0.94500 Y0.75500
X0.94400 Y0.75500
X0.94400 Y0.75400
X0.94300 Y0.75400
X0.94300 Y0.75300
X0.94200 Y0.75300
X0.94200 Y0.75200
X0.94100 Y0.75200
X0.94100 Y0.75100
X0.94000 Y0.75100
X0.94000 Y0.75000
X0.93900 Y0.75000
X0.93900 Y0.74900
X0.93800 Y0.74900
X0.93800 Y0.74800
X0.93700 Y0.74800
X0.93700 Y0.74700
X0.93600 Y0.74700
X0.93600 Y0.74600
X0.93500 Y0.74600
X0.93500 Y0.74500
X0.93400 Y0.74500
X0.93400 Y0.74400
X0.93300 Y0.74400
X0.93300 Y0.74300
X0.93200 Y0.74300
X0.93200 Y0.74200
X0.93100 Y0.74200
X0.93100 Y0.74100
X0.93000 Y0.74100
X0.93000 Y0.74000
X0.92900 Y0.74000
X0.92900 Y0.73900
X0.92800 Y0.73900
X0.92800 Y0.73800
X0.92700 Y0.73800
X0.92700 Y0.73700
X0.92600 Y0.73700
X0.92600 Y0.73600
X0.92500 Y0.73600
X0.92500 Y0.73500
X0.92400 Y0.73500
X0.92400 Y0.73400
X0.92300 Y0.73400
X0.92300 Y0.73300
X0.92200 Y0.73300
X0.92200 Y0.73200
X0.92100 Y0.73200
X0.92100 Y0.73100
X0.92000 Y0.73100
X0.92000 Y0.73000
X0.91900 Y0.73000
X0.91900 Y0.72900
X0.91800 Y0.72900
X0.91800 Y0.72800
X0.91700 Y0.72800
X0.91700 Y0.72700
X0.91600 Y0.72700
X0.91600 Y0.72600
X0.91500 Y0.72600
X0.91500 Y0.72500
X0.91400 Y0.72500
X0.91400 Y0.72400
X0.91300 Y0.72400
X0.91300 Y0.72300
X0.91200 Y0.72300
X0.91200 Y0.72200
X0.91100 Y0.72200
X0.91100 Y0.72100
X0.91000 Y0.72100
X0.91000 Y0.72000
X0.90900 Y0.72000
X0.90900 Y0.71900
X0.90800 Y0.71900
X0.90800 Y0.71800
X0.90700 Y0.71800
X0.90700 Y0.71700
X0.90600 Y0.71700
X0.90600 Y0.71600
X0.90500 Y0.71600
X0.90500 Y0.71500
X0.90400 Y0.71500
X0.90400 Y0.71400
X0.90300 Y0.71400
X0.90300 Y0.71300
X0.90200 Y0.71300
X0.90200 Y0.71200
X0.90100 Y0.71200
X0.90100 Y0.71100
X0.90000 Y0.71100
X0.90000 Y0.71000
X0.89900 Y0.71000
X0.89900 Y0.70900
X0.89800 Y0.70900
X0.89800 Y0.70800
X0.89700 Y0.70800
X0.89700 Y-0.04200
X0.89600 Y-0.04200
X0.89600 Y-0.04400
X0.89500 Y-0.04400
X0.89500 Y-0.04500
X0.89300 Y-0.04500
X0.89300 Y-0.04600
X-0.07200 Y-0.04600
X-0.07200 Y-0.04500
X-0.07400 Y-0.04500
X-0.07400 Y-0.04400
X-0.07500 Y-0.04400
X-0.07500 Y-0.04200
X-0.07600 Y-0.04200
X-0.07600 Y0.76800
X-0.07700 Y0.76800
X-0.07700 Y0.76900
X-0.07800 Y0.76900
X-0.07800 Y0.77000
X-0.07900 Y0.77000
X-0.07900 Y0.77100
X-0.08000 Y0.77100
X-0.08000 Y0.77200
X-0.08100 Y0.77200
X-0.08100 Y0.77300
X-0.08200 Y0.77300
X-0.08200 Y0.77400
X-0.08300 Y0.77400
X-0.08300 Y0.77500
X-0.08400 Y0.77500
X-0.08400 Y0.77600
X-0.08500 Y0.77600
X-0.08500 Y0.77700
X-0.08600 Y0.77700
X-0.08600 Y0.77800
X-0.08700 Y0.77800
X-0.08700 Y0.77900
X-0.08800 Y0.77900
X-0.08800 Y0.78000
X-0.08900 Y0.78000
X-0.08900 Y0.78100
X-0.09000 Y0.78100
X-0.09000 Y0.78200
X-0.09100 Y0.78200
X-0.09100 Y0.78300
X-0.09200 Y0.78300
X-0.09200 Y0.78400
X-0.09300 Y0.78400
X-0.09300 Y0.78500
X-0.09400 Y0.78500
X-0.09400 Y0.78600
X-0.09500 Y0.78600
X-0.09500 Y0.78800
X-0.09600 Y0.78800
X-0.09600 Y1.19300
X-0.09500 Y1.19300
X-0.09500 Y1.19500
X-0.09400 Y1.19500
X-0.09400 Y1.19600
X-0.09200 Y1.19600
X-0.09200 Y1.19700
X1.36300 Y1.19700
X1.36300 Y1.19600
X1.36500 Y1.19600
X1.36500 Y1.19500
X1.36600 Y1.19500
X1.36600 Y1.19300
X1.36700 Y1.19300
X1.36700 Y1.09600

G04 P0 ( dwell for no time -- G64 should not smooth over this point )
G00 Z0.02000 ( retract )

M5 ( Spindle off. )
M9 ( Coolant off. )
M2 ( Program end. )

