( pcb2gcode 1.2.2 )

( This file uses a mill head of 0.03000inch to drill the 7bit sizes. )
( Bit sizes: [0.03500] [0.12800] [0.06300] [0.02800] [0.03800] [0.18700] [0.01300] )

G94       (Inches per minute feed rate.)
G20       (Units == INCHES.)
G90       (Absolute coordinates.)
S10000    (RPM spindle speed.)
M3
G91.1
G0 Z0.10000
F1.00000 (Feedrate)

G00 Z0.02000
G0 X0.20250 Y0.57500
G1 Z[-0.10000+12*0.00800]
G2 I-0.00250 J0
G1 Z[-0.10000+11*0.00800]
G2 I-0.00250 J0
G1 Z[-0.10000+10*0.00800]
G2 I-0.00250 J0
G1 Z[-0.10000+9*0.00800]
G2 I-0.00250 J0
G1 Z[-0.10000+8*0.00800]
G2 I-0.00250 J0
G1 Z[-0.10000+7*0.00800]
G2 I-0.00250 J0
G1 Z[-0.10000+6*0.00800]
G2 I-0.00250 J0
G1 Z[-0.10000+5*0.00800]
G2 I-0.00250 J0
G1 Z[-0.10000+4*0.00800]
G2 I-0.00250 J0
G1 Z[-0.10000+3*0.00800]
G2 I-0.00250 J0
G1 Z[-0.10000+2*0.00800]
G2 I-0.00250 J0
G1 Z[-0.10000+1*0.00800]
G2 I-0.00250 J0
G0 Z0.02000

G0 X0.30250 Y0.57500
G1 Z[-0.10000+12*0.00800]
G2 I-0.00250 J0
G1 Z[-0.10000+11*0.00800]
G2 I-0.00250 J0
G1 Z[-0.10000+10*0.00800]
G2 I-0.00250 J0
G1 Z[-0.10000+9*0.00800]
G2 I-0.00250 J0
G1 Z[-0.10000+8*0.00800]
G2 I-0.00250 J0
G1 Z[-0.10000+7*0.00800]
G2 I-0.00250 J0
G1 Z[-0.10000+6*0.00800]
G2 I-0.00250 J0
G1 Z[-0.10000+5*0.00800]
G2 I-0.00250 J0
G1 Z[-0.10000+4*0.00800]
G2 I-0.00250 J0
G1 Z[-0.10000+3*0.00800]
G2 I-0.00250 J0
G1 Z[-0.10000+2*0.00800]
G2 I-0.00250 J0
G1 Z[-0.10000+1*0.00800]
G2 I-0.00250 J0
G0 Z0.02000

G0 X0.40250 Y0.57500
G1 Z[-0.10000+12*0.00800]
G2 I-0.00250 J0
G1 Z[-0.10000+11*0.00800]
G2 I-0.00250 J0
G1 Z[-0.10000+10*0.00800]
G2 I-0.00250 J0
G1 Z[-0.10000+9*0.00800]
G2 I-0.00250 J0
G1 Z[-0.10000+8*0.00800]
G2 I-0.00250 J0
G1 Z[-0.10000+7*0.00800]
G2 I-0.00250 J0
G1 Z[-0.10000+6*0.00800]
G2 I-0.00250 J0
G1 Z[-0.10000+5*0.00800]
G2 I-0.00250 J0
G1 Z[-0.10000+4*0.00800]
G2 I-0.00250 J0
G1 Z[-0.10000+3*0.00800]
G2 I-0.00250 J0
G1 Z[-0.10000+2*0.00800]
G2 I-0.00250 J0
G1 Z[-0.10000+1*0.00800]
G2 I-0.00250 J0
G0 Z0.02000

G0 X0.50250 Y0.57500
G1 Z[-0.10000+12*0.00800]
G2 I-0.00250 J0
G1 Z[-0.10000+11*0.00800]
G2 I-0.00250 J0
G1 Z[-0.10000+10*0.00800]
G2 I-0.00250 J0
G1 Z[-0.10000+9*0.00800]
G2 I-0.00250 J0
G1 Z[-0.10000+8*0.00800]
G2 I-0.00250 J0
G1 Z[-0.10000+7*0.00800]
G2 I-0.00250 J0
G1 Z[-0.10000+6*0.00800]
G2 I-0.00250 J0
G1 Z[-0.10000+5*0.00800]
G2 I-0.00250 J0
G1 Z[-0.10000+4*0.00800]
G2 I-0.00250 J0
G1 Z[-0.10000+3*0.00800]
G2 I-0.00250 J0
G1 Z[-0.10000+2*0.00800]
G2 I-0.00250 J0
G1 Z[-0.10000+1*0.00800]
G2 I-0.00250 J0
G0 Z0.02000

G0 X0.55250 Y0.67500
G1 Z[-0.10000+12*0.00800]
G2 I-0.00250 J0
G1 Z[-0.10000+11*0.00800]
G2 I-0.00250 J0
G1 Z[-0.10000+10*0.00800]
G2 I-0.00250 J0
G1 Z[-0.10000+9*0.00800]
G2 I-0.00250 J0
G1 Z[-0.10000+8*0.00800]
G2 I-0.00250 J0
G1 Z[-0.10000+7*0.00800]
G2 I-0.00250 J0
G1 Z[-0.10000+6*0.00800]
G2 I-0.00250 J0
G1 Z[-0.10000+5*0.00800]
G2 I-0.00250 J0
G1 Z[-0.10000+4*0.00800]
G2 I-0.00250 J0
G1 Z[-0.10000+3*0.00800]
G2 I-0.00250 J0
G1 Z[-0.10000+2*0.00800]
G2 I-0.00250 J0
G1 Z[-0.10000+1*0.00800]
G2 I-0.00250 J0
G0 Z0.02000

G0 X0.45250 Y0.67500
G1 Z[-0.10000+12*0.00800]
G2 I-0.00250 J0
G1 Z[-0.10000+11*0.00800]
G2 I-0.00250 J0
G1 Z[-0.10000+10*0.00800]
G2 I-0.00250 J0
G1 Z[-0.10000+9*0.00800]
G2 I-0.00250 J0
G1 Z[-0.10000+8*0.00800]
G2 I-0.00250 J0
G1 Z[-0.10000+7*0.00800]
G2 I-0.00250 J0
G1 Z[-0.10000+6*0.00800]
G2 I-0.00250 J0
G1 Z[-0.10000+5*0.00800]
G2 I-0.00250 J0
G1 Z[-0.10000+4*0.00800]
G2 I-0.00250 J0
G1 Z[-0.10000+3*0.00800]
G2 I-0.00250 J0
G1 Z[-0.10000+2*0.00800]
G2 I-0.00250 J0
G1 Z[-0.10000+1*0.00800]
G2 I-0.00250 J0
G0 Z0.02000

G0 X0.35250 Y0.67500
G1 Z[-0.10000+12*0.00800]
G2 I-0.00250 J0
G1 Z[-0.10000+11*0.00800]
G2 I-0.00250 J0
G1 Z[-0.10000+10*0.00800]
G2 I-0.00250 J0
G1 Z[-0.10000+9*0.00800]
G2 I-0.00250 J0
G1 Z[-0.10000+8*0.00800]
G2 I-0.00250 J0
G1 Z[-0.10000+7*0.00800]
G2 I-0.00250 J0
G1 Z[-0.10000+6*0.00800]
G2 I-0.00250 J0
G1 Z[-0.10000+5*0.00800]
G2 I-0.00250 J0
G1 Z[-0.10000+4*0.00800]
G2 I-0.00250 J0
G1 Z[-0.10000+3*0.00800]
G2 I-0.00250 J0
G1 Z[-0.10000+2*0.00800]
G2 I-0.00250 J0
G1 Z[-0.10000+1*0.00800]
G2 I-0.00250 J0
G0 Z0.02000

G0 X0.25250 Y0.67500
G1 Z[-0.10000+12*0.00800]
G2 I-0.00250 J0
G1 Z[-0.10000+11*0.00800]
G2 I-0.00250 J0
G1 Z[-0.10000+10*0.00800]
G2 I-0.00250 J0
G1 Z[-0.10000+9*0.00800]
G2 I-0.00250 J0
G1 Z[-0.10000+8*0.00800]
G2 I-0.00250 J0
G1 Z[-0.10000+7*0.00800]
G2 I-0.00250 J0
G1 Z[-0.10000+6*0.00800]
G2 I-0.00250 J0
G1 Z[-0.10000+5*0.00800]
G2 I-0.00250 J0
G1 Z[-0.10000+4*0.00800]
G2 I-0.00250 J0
G1 Z[-0.10000+3*0.00800]
G2 I-0.00250 J0
G1 Z[-0.10000+2*0.00800]
G2 I-0.00250 J0
G1 Z[-0.10000+1*0.00800]
G2 I-0.00250 J0
G0 Z0.02000

G0 X0.25250 Y1.17500
G1 Z[-0.10000+12*0.00800]
G2 I-0.00250 J0
G1 Z[-0.10000+11*0.00800]
G2 I-0.00250 J0
G1 Z[-0.10000+10*0.00800]
G2 I-0.00250 J0
G1 Z[-0.10000+9*0.00800]
G2 I-0.00250 J0
G1 Z[-0.10000+8*0.00800]
G2 I-0.00250 J0
G1 Z[-0.10000+7*0.00800]
G2 I-0.00250 J0
G1 Z[-0.10000+6*0.00800]
G2 I-0.00250 J0
G1 Z[-0.10000+5*0.00800]
G2 I-0.00250 J0
G1 Z[-0.10000+4*0.00800]
G2 I-0.00250 J0
G1 Z[-0.10000+3*0.00800]
G2 I-0.00250 J0
G1 Z[-0.10000+2*0.00800]
G2 I-0.00250 J0
G1 Z[-0.10000+1*0.00800]
G2 I-0.00250 J0
G0 Z0.02000

G0 X0.35250 Y1.17500
G1 Z[-0.10000+12*0.00800]
G2 I-0.00250 J0
G1 Z[-0.10000+11*0.00800]
G2 I-0.00250 J0
G1 Z[-0.10000+10*0.00800]
G2 I-0.00250 J0
G1 Z[-0.10000+9*0.00800]
G2 I-0.00250 J0
G1 Z[-0.10000+8*0.00800]
G2 I-0.00250 J0
G1 Z[-0.10000+7*0.00800]
G2 I-0.00250 J0
G1 Z[-0.10000+6*0.00800]
G2 I-0.00250 J0
G1 Z[-0.10000+5*0.00800]
G2 I-0.00250 J0
G1 Z[-0.10000+4*0.00800]
G2 I-0.00250 J0
G1 Z[-0.10000+3*0.00800]
G2 I-0.00250 J0
G1 Z[-0.10000+2*0.00800]
G2 I-0.00250 J0
G1 Z[-0.10000+1*0.00800]
G2 I-0.00250 J0
G0 Z0.02000

G0 X0.45250 Y1.17500
G1 Z[-0.10000+12*0.00800]
G2 I-0.00250 J0
G1 Z[-0.10000+11*0.00800]
G2 I-0.00250 J0
G1 Z[-0.10000+10*0.00800]
G2 I-0.00250 J0
G1 Z[-0.10000+9*0.00800]
G2 I-0.00250 J0
G1 Z[-0.10000+8*0.00800]
G2 I-0.00250 J0
G1 Z[-0.10000+7*0.00800]
G2 I-0.00250 J0
G1 Z[-0.10000+6*0.00800]
G2 I-0.00250 J0
G1 Z[-0.10000+5*0.00800]
G2 I-0.00250 J0
G1 Z[-0.10000+4*0.00800]
G2 I-0.00250 J0
G1 Z[-0.10000+3*0.00800]
G2 I-0.00250 J0
G1 Z[-0.10000+2*0.00800]
G2 I-0.00250 J0
G1 Z[-0.10000+1*0.00800]
G2 I-0.00250 J0
G0 Z0.02000

G0 X0.55250 Y1.17500
G1 Z[-0.10000+12*0.00800]
G2 I-0.00250 J0
G1 Z[-0.10000+11*0.00800]
G2 I-0.00250 J0
G1 Z[-0.10000+10*0.00800]
G2 I-0.00250 J0
G1 Z[-0.10000+9*0.00800]
G2 I-0.00250 J0
G1 Z[-0.10000+8*0.00800]
G2 I-0.00250 J0
G1 Z[-0.10000+7*0.00800]
G2 I-0.00250 J0
G1 Z[-0.10000+6*0.00800]
G2 I-0.00250 J0
G1 Z[-0.10000+5*0.00800]
G2 I-0.00250 J0
G1 Z[-0.10000+4*0.00800]
G2 I-0.00250 J0
G1 Z[-0.10000+3*0.00800]
G2 I-0.00250 J0
G1 Z[-0.10000+2*0.00800]
G2 I-0.00250 J0
G1 Z[-0.10000+1*0.00800]
G2 I-0.00250 J0
G0 Z0.02000

G0 X0.50250 Y1.27500
G1 Z[-0.10000+12*0.00800]
G2 I-0.00250 J0
G1 Z[-0.10000+11*0.00800]
G2 I-0.00250 J0
G1 Z[-0.10000+10*0.00800]
G2 I-0.00250 J0
G1 Z[-0.10000+9*0.00800]
G2 I-0.00250 J0
G1 Z[-0.10000+8*0.00800]
G2 I-0.00250 J0
G1 Z[-0.10000+7*0.00800]
G2 I-0.00250 J0
G1 Z[-0.10000+6*0.00800]
G2 I-0.00250 J0
G1 Z[-0.10000+5*0.00800]
G2 I-0.00250 J0
G1 Z[-0.10000+4*0.00800]
G2 I-0.00250 J0
G1 Z[-0.10000+3*0.00800]
G2 I-0.00250 J0
G1 Z[-0.10000+2*0.00800]
G2 I-0.00250 J0
G1 Z[-0.10000+1*0.00800]
G2 I-0.00250 J0
G0 Z0.02000

G0 X0.40250 Y1.27500
G1 Z[-0.10000+12*0.00800]
G2 I-0.00250 J0
G1 Z[-0.10000+11*0.00800]
G2 I-0.00250 J0
G1 Z[-0.10000+10*0.00800]
G2 I-0.00250 J0
G1 Z[-0.10000+9*0.00800]
G2 I-0.00250 J0
G1 Z[-0.10000+8*0.00800]
G2 I-0.00250 J0
G1 Z[-0.10000+7*0.00800]
G2 I-0.00250 J0
G1 Z[-0.10000+6*0.00800]
G2 I-0.00250 J0
G1 Z[-0.10000+5*0.00800]
G2 I-0.00250 J0
G1 Z[-0.10000+4*0.00800]
G2 I-0.00250 J0
G1 Z[-0.10000+3*0.00800]
G2 I-0.00250 J0
G1 Z[-0.10000+2*0.00800]
G2 I-0.00250 J0
G1 Z[-0.10000+1*0.00800]
G2 I-0.00250 J0
G0 Z0.02000

G0 X0.30250 Y1.27500
G1 Z[-0.10000+12*0.00800]
G2 I-0.00250 J0
G1 Z[-0.10000+11*0.00800]
G2 I-0.00250 J0
G1 Z[-0.10000+10*0.00800]
G2 I-0.00250 J0
G1 Z[-0.10000+9*0.00800]
G2 I-0.00250 J0
G1 Z[-0.10000+8*0.00800]
G2 I-0.00250 J0
G1 Z[-0.10000+7*0.00800]
G2 I-0.00250 J0
G1 Z[-0.10000+6*0.00800]
G2 I-0.00250 J0
G1 Z[-0.10000+5*0.00800]
G2 I-0.00250 J0
G1 Z[-0.10000+4*0.00800]
G2 I-0.00250 J0
G1 Z[-0.10000+3*0.00800]
G2 I-0.00250 J0
G1 Z[-0.10000+2*0.00800]
G2 I-0.00250 J0
G1 Z[-0.10000+1*0.00800]
G2 I-0.00250 J0
G0 Z0.02000

G0 X0.20250 Y1.27500
G1 Z[-0.10000+12*0.00800]
G2 I-0.00250 J0
G1 Z[-0.10000+11*0.00800]
G2 I-0.00250 J0
G1 Z[-0.10000+10*0.00800]
G2 I-0.00250 J0
G1 Z[-0.10000+9*0.00800]
G2 I-0.00250 J0
G1 Z[-0.10000+8*0.00800]
G2 I-0.00250 J0
G1 Z[-0.10000+7*0.00800]
G2 I-0.00250 J0
G1 Z[-0.10000+6*0.00800]
G2 I-0.00250 J0
G1 Z[-0.10000+5*0.00800]
G2 I-0.00250 J0
G1 Z[-0.10000+4*0.00800]
G2 I-0.00250 J0
G1 Z[-0.10000+3*0.00800]
G2 I-0.00250 J0
G1 Z[-0.10000+2*0.00800]
G2 I-0.00250 J0
G1 Z[-0.10000+1*0.00800]
G2 I-0.00250 J0
G0 Z0.02000

G0 X0.92750 Y1.27500
G1 Z[-0.10000+12*0.00800]
G2 I-0.00250 J0
G1 Z[-0.10000+11*0.00800]
G2 I-0.00250 J0
G1 Z[-0.10000+10*0.00800]
G2 I-0.00250 J0
G1 Z[-0.10000+9*0.00800]
G2 I-0.00250 J0
G1 Z[-0.10000+8*0.00800]
G2 I-0.00250 J0
G1 Z[-0.10000+7*0.00800]
G2 I-0.00250 J0
G1 Z[-0.10000+6*0.00800]
G2 I-0.00250 J0
G1 Z[-0.10000+5*0.00800]
G2 I-0.00250 J0
G1 Z[-0.10000+4*0.00800]
G2 I-0.00250 J0
G1 Z[-0.10000+3*0.00800]
G2 I-0.00250 J0
G1 Z[-0.10000+2*0.00800]
G2 I-0.00250 J0
G1 Z[-0.10000+1*0.00800]
G2 I-0.00250 J0
G0 Z0.02000

G0 X1.02750 Y1.27500
G1 Z[-0.10000+12*0.00800]
G2 I-0.00250 J0
G1 Z[-0.10000+11*0.00800]
G2 I-0.00250 J0
G1 Z[-0.10000+10*0.00800]
G2 I-0.00250 J0
G1 Z[-0.10000+9*0.00800]
G2 I-0.00250 J0
G1 Z[-0.10000+8*0.00800]
G2 I-0.00250 J0
G1 Z[-0.10000+7*0.00800]
G2 I-0.00250 J0
G1 Z[-0.10000+6*0.00800]
G2 I-0.00250 J0
G1 Z[-0.10000+5*0.00800]
G2 I-0.00250 J0
G1 Z[-0.10000+4*0.00800]
G2 I-0.00250 J0
G1 Z[-0.10000+3*0.00800]
G2 I-0.00250 J0
G1 Z[-0.10000+2*0.00800]
G2 I-0.00250 J0
G1 Z[-0.10000+1*0.00800]
G2 I-0.00250 J0
G0 Z0.02000

G0 X1.12750 Y1.27500
G1 Z[-0.10000+12*0.00800]
G2 I-0.00250 J0
G1 Z[-0.10000+11*0.00800]
G2 I-0.00250 J0
G1 Z[-0.10000+10*0.00800]
G2 I-0.00250 J0
G1 Z[-0.10000+9*0.00800]
G2 I-0.00250 J0
G1 Z[-0.10000+8*0.00800]
G2 I-0.00250 J0
G1 Z[-0.10000+7*0.00800]
G2 I-0.00250 J0
G1 Z[-0.10000+6*0.00800]
G2 I-0.00250 J0
G1 Z[-0.10000+5*0.00800]
G2 I-0.00250 J0
G1 Z[-0.10000+4*0.00800]
G2 I-0.00250 J0
G1 Z[-0.10000+3*0.00800]
G2 I-0.00250 J0
G1 Z[-0.10000+2*0.00800]
G2 I-0.00250 J0
G1 Z[-0.10000+1*0.00800]
G2 I-0.00250 J0
G0 Z0.02000

G0 X1.22750 Y1.27500
G1 Z[-0.10000+12*0.00800]
G2 I-0.00250 J0
G1 Z[-0.10000+11*0.00800]
G2 I-0.00250 J0
G1 Z[-0.10000+10*0.00800]
G2 I-0.00250 J0
G1 Z[-0.10000+9*0.00800]
G2 I-0.00250 J0
G1 Z[-0.10000+8*0.00800]
G2 I-0.00250 J0
G1 Z[-0.10000+7*0.00800]
G2 I-0.00250 J0
G1 Z[-0.10000+6*0.00800]
G2 I-0.00250 J0
G1 Z[-0.10000+5*0.00800]
G2 I-0.00250 J0
G1 Z[-0.10000+4*0.00800]
G2 I-0.00250 J0
G1 Z[-0.10000+3*0.00800]
G2 I-0.00250 J0
G1 Z[-0.10000+2*0.00800]
G2 I-0.00250 J0
G1 Z[-0.10000+1*0.00800]
G2 I-0.00250 J0
G0 Z0.02000

G0 X1.27750 Y1.17500
G1 Z[-0.10000+12*0.00800]
G2 I-0.00250 J0
G1 Z[-0.10000+11*0.00800]
G2 I-0.00250 J0
G1 Z[-0.10000+10*0.00800]
G2 I-0.00250 J0
G1 Z[-0.10000+9*0.00800]
G2 I-0.00250 J0
G1 Z[-0.10000+8*0.00800]
G2 I-0.00250 J0
G1 Z[-0.10000+7*0.00800]
G2 I-0.00250 J0
G1 Z[-0.10000+6*0.00800]
G2 I-0.00250 J0
G1 Z[-0.10000+5*0.00800]
G2 I-0.00250 J0
G1 Z[-0.10000+4*0.00800]
G2 I-0.00250 J0
G1 Z[-0.10000+3*0.00800]
G2 I-0.00250 J0
G1 Z[-0.10000+2*0.00800]
G2 I-0.00250 J0
G1 Z[-0.10000+1*0.00800]
G2 I-0.00250 J0
G0 Z0.02000

G0 X1.17750 Y1.17500
G1 Z[-0.10000+12*0.00800]
G2 I-0.00250 J0
G1 Z[-0.10000+11*0.00800]
G2 I-0.00250 J0
G1 Z[-0.10000+10*0.00800]
G2 I-0.00250 J0
G1 Z[-0.10000+9*0.00800]
G2 I-0.00250 J0
G1 Z[-0.10000+8*0.00800]
G2 I-0.00250 J0
G1 Z[-0.10000+7*0.00800]
G2 I-0.00250 J0
G1 Z[-0.10000+6*0.00800]
G2 I-0.00250 J0
G1 Z[-0.10000+5*0.00800]
G2 I-0.00250 J0
G1 Z[-0.10000+4*0.00800]
G2 I-0.00250 J0
G1 Z[-0.10000+3*0.00800]
G2 I-0.00250 J0
G1 Z[-0.10000+2*0.00800]
G2 I-0.00250 J0
G1 Z[-0.10000+1*0.00800]
G2 I-0.00250 J0
G0 Z0.02000

G0 X1.07750 Y1.17500
G1 Z[-0.10000+12*0.00800]
G2 I-0.00250 J0
G1 Z[-0.10000+11*0.00800]
G2 I-0.00250 J0
G1 Z[-0.10000+10*0.00800]
G2 I-0.00250 J0
G1 Z[-0.10000+9*0.00800]
G2 I-0.00250 J0
G1 Z[-0.10000+8*0.00800]
G2 I-0.00250 J0
G1 Z[-0.10000+7*0.00800]
G2 I-0.00250 J0
G1 Z[-0.10000+6*0.00800]
G2 I-0.00250 J0
G1 Z[-0.10000+5*0.00800]
G2 I-0.00250 J0
G1 Z[-0.10000+4*0.00800]
G2 I-0.00250 J0
G1 Z[-0.10000+3*0.00800]
G2 I-0.00250 J0
G1 Z[-0.10000+2*0.00800]
G2 I-0.00250 J0
G1 Z[-0.10000+1*0.00800]
G2 I-0.00250 J0
G0 Z0.02000

G0 X0.97750 Y1.17500
G1 Z[-0.10000+12*0.00800]
G2 I-0.00250 J0
G1 Z[-0.10000+11*0.00800]
G2 I-0.00250 J0
G1 Z[-0.10000+10*0.00800]
G2 I-0.00250 J0
G1 Z[-0.10000+9*0.00800]
G2 I-0.00250 J0
G1 Z[-0.10000+8*0.00800]
G2 I-0.00250 J0
G1 Z[-0.10000+7*0.00800]
G2 I-0.00250 J0
G1 Z[-0.10000+6*0.00800]
G2 I-0.00250 J0
G1 Z[-0.10000+5*0.00800]
G2 I-0.00250 J0
G1 Z[-0.10000+4*0.00800]
G2 I-0.00250 J0
G1 Z[-0.10000+3*0.00800]
G2 I-0.00250 J0
G1 Z[-0.10000+2*0.00800]
G2 I-0.00250 J0
G1 Z[-0.10000+1*0.00800]
G2 I-0.00250 J0
G0 Z0.02000

G0 X0.97750 Y0.67500
G1 Z[-0.10000+12*0.00800]
G2 I-0.00250 J0
G1 Z[-0.10000+11*0.00800]
G2 I-0.00250 J0
G1 Z[-0.10000+10*0.00800]
G2 I-0.00250 J0
G1 Z[-0.10000+9*0.00800]
G2 I-0.00250 J0
G1 Z[-0.10000+8*0.00800]
G2 I-0.00250 J0
G1 Z[-0.10000+7*0.00800]
G2 I-0.00250 J0
G1 Z[-0.10000+6*0.00800]
G2 I-0.00250 J0
G1 Z[-0.10000+5*0.00800]
G2 I-0.00250 J0
G1 Z[-0.10000+4*0.00800]
G2 I-0.00250 J0
G1 Z[-0.10000+3*0.00800]
G2 I-0.00250 J0
G1 Z[-0.10000+2*0.00800]
G2 I-0.00250 J0
G1 Z[-0.10000+1*0.00800]
G2 I-0.00250 J0
G0 Z0.02000

G0 X1.07750 Y0.67500
G1 Z[-0.10000+12*0.00800]
G2 I-0.00250 J0
G1 Z[-0.10000+11*0.00800]
G2 I-0.00250 J0
G1 Z[-0.10000+10*0.00800]
G2 I-0.00250 J0
G1 Z[-0.10000+9*0.00800]
G2 I-0.00250 J0
G1 Z[-0.10000+8*0.00800]
G2 I-0.00250 J0
G1 Z[-0.10000+7*0.00800]
G2 I-0.00250 J0
G1 Z[-0.10000+6*0.00800]
G2 I-0.00250 J0
G1 Z[-0.10000+5*0.00800]
G2 I-0.00250 J0
G1 Z[-0.10000+4*0.00800]
G2 I-0.00250 J0
G1 Z[-0.10000+3*0.00800]
G2 I-0.00250 J0
G1 Z[-0.10000+2*0.00800]
G2 I-0.00250 J0
G1 Z[-0.10000+1*0.00800]
G2 I-0.00250 J0
G0 Z0.02000

G0 X1.17750 Y0.67500
G1 Z[-0.10000+12*0.00800]
G2 I-0.00250 J0
G1 Z[-0.10000+11*0.00800]
G2 I-0.00250 J0
G1 Z[-0.10000+10*0.00800]
G2 I-0.00250 J0
G1 Z[-0.10000+9*0.00800]
G2 I-0.00250 J0
G1 Z[-0.10000+8*0.00800]
G2 I-0.00250 J0
G1 Z[-0.10000+7*0.00800]
G2 I-0.00250 J0
G1 Z[-0.10000+6*0.00800]
G2 I-0.00250 J0
G1 Z[-0.10000+5*0.00800]
G2 I-0.00250 J0
G1 Z[-0.10000+4*0.00800]
G2 I-0.00250 J0
G1 Z[-0.10000+3*0.00800]
G2 I-0.00250 J0
G1 Z[-0.10000+2*0.00800]
G2 I-0.00250 J0
G1 Z[-0.10000+1*0.00800]
G2 I-0.00250 J0
G0 Z0.02000

G0 X1.27750 Y0.67500
G1 Z[-0.10000+12*0.00800]
G2 I-0.00250 J0
G1 Z[-0.10000+11*0.00800]
G2 I-0.00250 J0
G1 Z[-0.10000+10*0.00800]
G2 I-0.00250 J0
G1 Z[-0.10000+9*0.00800]
G2 I-0.00250 J0
G1 Z[-0.10000+8*0.00800]
G2 I-0.00250 J0
G1 Z[-0.10000+7*0.00800]
G2 I-0.00250 J0
G1 Z[-0.10000+6*0.00800]
G2 I-0.00250 J0
G1 Z[-0.10000+5*0.00800]
G2 I-0.00250 J0
G1 Z[-0.10000+4*0.00800]
G2 I-0.00250 J0
G1 Z[-0.10000+3*0.00800]
G2 I-0.00250 J0
G1 Z[-0.10000+2*0.00800]
G2 I-0.00250 J0
G1 Z[-0.10000+1*0.00800]
G2 I-0.00250 J0
G0 Z0.02000

G0 X1.22750 Y0.57500
G1 Z[-0.10000+12*0.00800]
G2 I-0.00250 J0
G1 Z[-0.10000+11*0.00800]
G2 I-0.00250 J0
G1 Z[-0.10000+10*0.00800]
G2 I-0.00250 J0
G1 Z[-0.10000+9*0.00800]
G2 I-0.00250 J0
G1 Z[-0.10000+8*0.00800]
G2 I-0.00250 J0
G1 Z[-0.10000+7*0.00800]
G2 I-0.00250 J0
G1 Z[-0.10000+6*0.00800]
G2 I-0.00250 J0
G1 Z[-0.10000+5*0.00800]
G2 I-0.00250 J0
G1 Z[-0.10000+4*0.00800]
G2 I-0.00250 J0
G1 Z[-0.10000+3*0.00800]
G2 I-0.00250 J0
G1 Z[-0.10000+2*0.00800]
G2 I-0.00250 J0
G1 Z[-0.10000+1*0.00800]
G2 I-0.00250 J0
G0 Z0.02000

G0 X1.12750 Y0.57500
G1 Z[-0.10000+12*0.00800]
G2 I-0.00250 J0
G1 Z[-0.10000+11*0.00800]
G2 I-0.00250 J0
G1 Z[-0.10000+10*0.00800]
G2 I-0.00250 J0
G1 Z[-0.10000+9*0.00800]
G2 I-0.00250 J0
G1 Z[-0.10000+8*0.00800]
G2 I-0.00250 J0
G1 Z[-0.10000+7*0.00800]
G2 I-0.00250 J0
G1 Z[-0.10000+6*0.00800]
G2 I-0.00250 J0
G1 Z[-0.10000+5*0.00800]
G2 I-0.00250 J0
G1 Z[-0.10000+4*0.00800]
G2 I-0.00250 J0
G1 Z[-0.10000+3*0.00800]
G2 I-0.00250 J0
G1 Z[-0.10000+2*0.00800]
G2 I-0.00250 J0
G1 Z[-0.10000+1*0.00800]
G2 I-0.00250 J0
G0 Z0.02000

G0 X1.02750 Y0.57500
G1 Z[-0.10000+12*0.00800]
G2 I-0.00250 J0
G1 Z[-0.10000+11*0.00800]
G2 I-0.00250 J0
G1 Z[-0.10000+10*0.00800]
G2 I-0.00250 J0
G1 Z[-0.10000+9*0.00800]
G2 I-0.00250 J0
G1 Z[-0.10000+8*0.00800]
G2 I-0.00250 J0
G1 Z[-0.10000+7*0.00800]
G2 I-0.00250 J0
G1 Z[-0.10000+6*0.00800]
G2 I-0.00250 J0
G1 Z[-0.10000+5*0.00800]
G2 I-0.00250 J0
G1 Z[-0.10000+4*0.00800]
G2 I-0.00250 J0
G1 Z[-0.10000+3*0.00800]
G2 I-0.00250 J0
G1 Z[-0.10000+2*0.00800]
G2 I-0.00250 J0
G1 Z[-0.10000+1*0.00800]
G2 I-0.00250 J0
G0 Z0.02000

G0 X0.92750 Y0.57500
G1 Z[-0.10000+12*0.00800]
G2 I-0.00250 J0
G1 Z[-0.10000+11*0.00800]
G2 I-0.00250 J0
G1 Z[-0.10000+10*0.00800]
G2 I-0.00250 J0
G1 Z[-0.10000+9*0.00800]
G2 I-0.00250 J0
G1 Z[-0.10000+8*0.00800]
G2 I-0.00250 J0
G1 Z[-0.10000+7*0.00800]
G2 I-0.00250 J0
G1 Z[-0.10000+6*0.00800]
G2 I-0.00250 J0
G1 Z[-0.10000+5*0.00800]
G2 I-0.00250 J0
G1 Z[-0.10000+4*0.00800]
G2 I-0.00250 J0
G1 Z[-0.10000+3*0.00800]
G2 I-0.00250 J0
G1 Z[-0.10000+2*0.00800]
G2 I-0.00250 J0
G1 Z[-0.10000+1*0.00800]
G2 I-0.00250 J0
G0 Z0.02000

G0 X1.65250 Y0.57500
G1 Z[-0.10000+12*0.00800]
G2 I-0.00250 J0
G1 Z[-0.10000+11*0.00800]
G2 I-0.00250 J0
G1 Z[-0.10000+10*0.00800]
G2 I-0.00250 J0
G1 Z[-0.10000+9*0.00800]
G2 I-0.00250 J0
G1 Z[-0.10000+8*0.00800]
G2 I-0.00250 J0
G1 Z[-0.10000+7*0.00800]
G2 I-0.00250 J0
G1 Z[-0.10000+6*0.00800]
G2 I-0.00250 J0
G1 Z[-0.10000+5*0.00800]
G2 I-0.00250 J0
G1 Z[-0.10000+4*0.00800]
G2 I-0.00250 J0
G1 Z[-0.10000+3*0.00800]
G2 I-0.00250 J0
G1 Z[-0.10000+2*0.00800]
G2 I-0.00250 J0
G1 Z[-0.10000+1*0.00800]
G2 I-0.00250 J0
G0 Z0.02000

G0 X1.75250 Y0.57500
G1 Z[-0.10000+12*0.00800]
G2 I-0.00250 J0
G1 Z[-0.10000+11*0.00800]
G2 I-0.00250 J0
G1 Z[-0.10000+10*0.00800]
G2 I-0.00250 J0
G1 Z[-0.10000+9*0.00800]
G2 I-0.00250 J0
G1 Z[-0.10000+8*0.00800]
G2 I-0.00250 J0
G1 Z[-0.10000+7*0.00800]
G2 I-0.00250 J0
G1 Z[-0.10000+6*0.00800]
G2 I-0.00250 J0
G1 Z[-0.10000+5*0.00800]
G2 I-0.00250 J0
G1 Z[-0.10000+4*0.00800]
G2 I-0.00250 J0
G1 Z[-0.10000+3*0.00800]
G2 I-0.00250 J0
G1 Z[-0.10000+2*0.00800]
G2 I-0.00250 J0
G1 Z[-0.10000+1*0.00800]
G2 I-0.00250 J0
G0 Z0.02000

G0 X1.85250 Y0.57500
G1 Z[-0.10000+12*0.00800]
G2 I-0.00250 J0
G1 Z[-0.10000+11*0.00800]
G2 I-0.00250 J0
G1 Z[-0.10000+10*0.00800]
G2 I-0.00250 J0
G1 Z[-0.10000+9*0.00800]
G2 I-0.00250 J0
G1 Z[-0.10000+8*0.00800]
G2 I-0.00250 J0
G1 Z[-0.10000+7*0.00800]
G2 I-0.00250 J0
G1 Z[-0.10000+6*0.00800]
G2 I-0.00250 J0
G1 Z[-0.10000+5*0.00800]
G2 I-0.00250 J0
G1 Z[-0.10000+4*0.00800]
G2 I-0.00250 J0
G1 Z[-0.10000+3*0.00800]
G2 I-0.00250 J0
G1 Z[-0.10000+2*0.00800]
G2 I-0.00250 J0
G1 Z[-0.10000+1*0.00800]
G2 I-0.00250 J0
G0 Z0.02000

G0 X1.95250 Y0.57500
G1 Z[-0.10000+12*0.00800]
G2 I-0.00250 J0
G1 Z[-0.10000+11*0.00800]
G2 I-0.00250 J0
G1 Z[-0.10000+10*0.00800]
G2 I-0.00250 J0
G1 Z[-0.10000+9*0.00800]
G2 I-0.00250 J0
G1 Z[-0.10000+8*0.00800]
G2 I-0.00250 J0
G1 Z[-0.10000+7*0.00800]
G2 I-0.00250 J0
G1 Z[-0.10000+6*0.00800]
G2 I-0.00250 J0
G1 Z[-0.10000+5*0.00800]
G2 I-0.00250 J0
G1 Z[-0.10000+4*0.00800]
G2 I-0.00250 J0
G1 Z[-0.10000+3*0.00800]
G2 I-0.00250 J0
G1 Z[-0.10000+2*0.00800]
G2 I-0.00250 J0
G1 Z[-0.10000+1*0.00800]
G2 I-0.00250 J0
G0 Z0.02000

G0 X2.00250 Y0.67500
G1 Z[-0.10000+12*0.00800]
G2 I-0.00250 J0
G1 Z[-0.10000+11*0.00800]
G2 I-0.00250 J0
G1 Z[-0.10000+10*0.00800]
G2 I-0.00250 J0
G1 Z[-0.10000+9*0.00800]
G2 I-0.00250 J0
G1 Z[-0.10000+8*0.00800]
G2 I-0.00250 J0
G1 Z[-0.10000+7*0.00800]
G2 I-0.00250 J0
G1 Z[-0.10000+6*0.00800]
G2 I-0.00250 J0
G1 Z[-0.10000+5*0.00800]
G2 I-0.00250 J0
G1 Z[-0.10000+4*0.00800]
G2 I-0.00250 J0
G1 Z[-0.10000+3*0.00800]
G2 I-0.00250 J0
G1 Z[-0.10000+2*0.00800]
G2 I-0.00250 J0
G1 Z[-0.10000+1*0.00800]
G2 I-0.00250 J0
G0 Z0.02000

G0 X1.90250 Y0.67500
G1 Z[-0.10000+12*0.00800]
G2 I-0.00250 J0
G1 Z[-0.10000+11*0.00800]
G2 I-0.00250 J0
G1 Z[-0.10000+10*0.00800]
G2 I-0.00250 J0
G1 Z[-0.10000+9*0.00800]
G2 I-0.00250 J0
G1 Z[-0.10000+8*0.00800]
G2 I-0.00250 J0
G1 Z[-0.10000+7*0.00800]
G2 I-0.00250 J0
G1 Z[-0.10000+6*0.00800]
G2 I-0.00250 J0
G1 Z[-0.10000+5*0.00800]
G2 I-0.00250 J0
G1 Z[-0.10000+4*0.00800]
G2 I-0.00250 J0
G1 Z[-0.10000+3*0.00800]
G2 I-0.00250 J0
G1 Z[-0.10000+2*0.00800]
G2 I-0.00250 J0
G1 Z[-0.10000+1*0.00800]
G2 I-0.00250 J0
G0 Z0.02000

G0 X1.80250 Y0.67500
G1 Z[-0.10000+12*0.00800]
G2 I-0.00250 J0
G1 Z[-0.10000+11*0.00800]
G2 I-0.00250 J0
G1 Z[-0.10000+10*0.00800]
G2 I-0.00250 J0
G1 Z[-0.10000+9*0.00800]
G2 I-0.00250 J0
G1 Z[-0.10000+8*0.00800]
G2 I-0.00250 J0
G1 Z[-0.10000+7*0.00800]
G2 I-0.00250 J0
G1 Z[-0.10000+6*0.00800]
G2 I-0.00250 J0
G1 Z[-0.10000+5*0.00800]
G2 I-0.00250 J0
G1 Z[-0.10000+4*0.00800]
G2 I-0.00250 J0
G1 Z[-0.10000+3*0.00800]
G2 I-0.00250 J0
G1 Z[-0.10000+2*0.00800]
G2 I-0.00250 J0
G1 Z[-0.10000+1*0.00800]
G2 I-0.00250 J0
G0 Z0.02000

G0 X1.70250 Y0.67500
G1 Z[-0.10000+12*0.00800]
G2 I-0.00250 J0
G1 Z[-0.10000+11*0.00800]
G2 I-0.00250 J0
G1 Z[-0.10000+10*0.00800]
G2 I-0.00250 J0
G1 Z[-0.10000+9*0.00800]
G2 I-0.00250 J0
G1 Z[-0.10000+8*0.00800]
G2 I-0.00250 J0
G1 Z[-0.10000+7*0.00800]
G2 I-0.00250 J0
G1 Z[-0.10000+6*0.00800]
G2 I-0.00250 J0
G1 Z[-0.10000+5*0.00800]
G2 I-0.00250 J0
G1 Z[-0.10000+4*0.00800]
G2 I-0.00250 J0
G1 Z[-0.10000+3*0.00800]
G2 I-0.00250 J0
G1 Z[-0.10000+2*0.00800]
G2 I-0.00250 J0
G1 Z[-0.10000+1*0.00800]
G2 I-0.00250 J0
G0 Z0.02000

G0 X1.70250 Y1.17500
G1 Z[-0.10000+12*0.00800]
G2 I-0.00250 J0
G1 Z[-0.10000+11*0.00800]
G2 I-0.00250 J0
G1 Z[-0.10000+10*0.00800]
G2 I-0.00250 J0
G1 Z[-0.10000+9*0.00800]
G2 I-0.00250 J0
G1 Z[-0.10000+8*0.00800]
G2 I-0.00250 J0
G1 Z[-0.10000+7*0.00800]
G2 I-0.00250 J0
G1 Z[-0.10000+6*0.00800]
G2 I-0.00250 J0
G1 Z[-0.10000+5*0.00800]
G2 I-0.00250 J0
G1 Z[-0.10000+4*0.00800]
G2 I-0.00250 J0
G1 Z[-0.10000+3*0.00800]
G2 I-0.00250 J0
G1 Z[-0.10000+2*0.00800]
G2 I-0.00250 J0
G1 Z[-0.10000+1*0.00800]
G2 I-0.00250 J0
G0 Z0.02000

G0 X1.80250 Y1.17500
G1 Z[-0.10000+12*0.00800]
G2 I-0.00250 J0
G1 Z[-0.10000+11*0.00800]
G2 I-0.00250 J0
G1 Z[-0.10000+10*0.00800]
G2 I-0.00250 J0
G1 Z[-0.10000+9*0.00800]
G2 I-0.00250 J0
G1 Z[-0.10000+8*0.00800]
G2 I-0.00250 J0
G1 Z[-0.10000+7*0.00800]
G2 I-0.00250 J0
G1 Z[-0.10000+6*0.00800]
G2 I-0.00250 J0
G1 Z[-0.10000+5*0.00800]
G2 I-0.00250 J0
G1 Z[-0.10000+4*0.00800]
G2 I-0.00250 J0
G1 Z[-0.10000+3*0.00800]
G2 I-0.00250 J0
G1 Z[-0.10000+2*0.00800]
G2 I-0.00250 J0
G1 Z[-0.10000+1*0.00800]
G2 I-0.00250 J0
G0 Z0.02000

G0 X1.90250 Y1.17500
G1 Z[-0.10000+12*0.00800]
G2 I-0.00250 J0
G1 Z[-0.10000+11*0.00800]
G2 I-0.00250 J0
G1 Z[-0.10000+10*0.00800]
G2 I-0.00250 J0
G1 Z[-0.10000+9*0.00800]
G2 I-0.00250 J0
G1 Z[-0.10000+8*0.00800]
G2 I-0.00250 J0
G1 Z[-0.10000+7*0.00800]
G2 I-0.00250 J0
G1 Z[-0.10000+6*0.00800]
G2 I-0.00250 J0
G1 Z[-0.10000+5*0.00800]
G2 I-0.00250 J0
G1 Z[-0.10000+4*0.00800]
G2 I-0.00250 J0
G1 Z[-0.10000+3*0.00800]
G2 I-0.00250 J0
G1 Z[-0.10000+2*0.00800]
G2 I-0.00250 J0
G1 Z[-0.10000+1*0.00800]
G2 I-0.00250 J0
G0 Z0.02000

G0 X2.00250 Y1.17500
G1 Z[-0.10000+12*0.00800]
G2 I-0.00250 J0
G1 Z[-0.10000+11*0.00800]
G2 I-0.00250 J0
G1 Z[-0.10000+10*0.00800]
G2 I-0.00250 J0
G1 Z[-0.10000+9*0.00800]
G2 I-0.00250 J0
G1 Z[-0.10000+8*0.00800]
G2 I-0.00250 J0
G1 Z[-0.10000+7*0.00800]
G2 I-0.00250 J0
G1 Z[-0.10000+6*0.00800]
G2 I-0.00250 J0
G1 Z[-0.10000+5*0.00800]
G2 I-0.00250 J0
G1 Z[-0.10000+4*0.00800]
G2 I-0.00250 J0
G1 Z[-0.10000+3*0.00800]
G2 I-0.00250 J0
G1 Z[-0.10000+2*0.00800]
G2 I-0.00250 J0
G1 Z[-0.10000+1*0.00800]
G2 I-0.00250 J0
G0 Z0.02000

G0 X1.95250 Y1.27500
G1 Z[-0.10000+12*0.00800]
G2 I-0.00250 J0
G1 Z[-0.10000+11*0.00800]
G2 I-0.00250 J0
G1 Z[-0.10000+10*0.00800]
G2 I-0.00250 J0
G1 Z[-0.10000+9*0.00800]
G2 I-0.00250 J0
G1 Z[-0.10000+8*0.00800]
G2 I-0.00250 J0
G1 Z[-0.10000+7*0.00800]
G2 I-0.00250 J0
G1 Z[-0.10000+6*0.00800]
G2 I-0.00250 J0
G1 Z[-0.10000+5*0.00800]
G2 I-0.00250 J0
G1 Z[-0.10000+4*0.00800]
G2 I-0.00250 J0
G1 Z[-0.10000+3*0.00800]
G2 I-0.00250 J0
G1 Z[-0.10000+2*0.00800]
G2 I-0.00250 J0
G1 Z[-0.10000+1*0.00800]
G2 I-0.00250 J0
G0 Z0.02000

G0 X1.85250 Y1.27500
G1 Z[-0.10000+12*0.00800]
G2 I-0.00250 J0
G1 Z[-0.10000+11*0.00800]
G2 I-0.00250 J0
G1 Z[-0.10000+10*0.00800]
G2 I-0.00250 J0
G1 Z[-0.10000+9*0.00800]
G2 I-0.00250 J0
G1 Z[-0.10000+8*0.00800]
G2 I-0.00250 J0
G1 Z[-0.10000+7*0.00800]
G2 I-0.00250 J0
G1 Z[-0.10000+6*0.00800]
G2 I-0.00250 J0
G1 Z[-0.10000+5*0.00800]
G2 I-0.00250 J0
G1 Z[-0.10000+4*0.00800]
G2 I-0.00250 J0
G1 Z[-0.10000+3*0.00800]
G2 I-0.00250 J0
G1 Z[-0.10000+2*0.00800]
G2 I-0.00250 J0
G1 Z[-0.10000+1*0.00800]
G2 I-0.00250 J0
G0 Z0.02000

G0 X1.75250 Y1.27500
G1 Z[-0.10000+12*0.00800]
G2 I-0.00250 J0
G1 Z[-0.10000+11*0.00800]
G2 I-0.00250 J0
G1 Z[-0.10000+10*0.00800]
G2 I-0.00250 J0
G1 Z[-0.10000+9*0.00800]
G2 I-0.00250 J0
G1 Z[-0.10000+8*0.00800]
G2 I-0.00250 J0
G1 Z[-0.10000+7*0.00800]
G2 I-0.00250 J0
G1 Z[-0.10000+6*0.00800]
G2 I-0.00250 J0
G1 Z[-0.10000+5*0.00800]
G2 I-0.00250 J0
G1 Z[-0.10000+4*0.00800]
G2 I-0.00250 J0
G1 Z[-0.10000+3*0.00800]
G2 I-0.00250 J0
G1 Z[-0.10000+2*0.00800]
G2 I-0.00250 J0
G1 Z[-0.10000+1*0.00800]
G2 I-0.00250 J0
G0 Z0.02000

G0 X1.65250 Y1.27500
G1 Z[-0.10000+12*0.00800]
G2 I-0.00250 J0
G1 Z[-0.10000+11*0.00800]
G2 I-0.00250 J0
G1 Z[-0.10000+10*0.00800]
G2 I-0.00250 J0
G1 Z[-0.10000+9*0.00800]
G2 I-0.00250 J0
G1 Z[-0.10000+8*0.00800]
G2 I-0.00250 J0
G1 Z[-0.10000+7*0.00800]
G2 I-0.00250 J0
G1 Z[-0.10000+6*0.00800]
G2 I-0.00250 J0
G1 Z[-0.10000+5*0.00800]
G2 I-0.00250 J0
G1 Z[-0.10000+4*0.00800]
G2 I-0.00250 J0
G1 Z[-0.10000+3*0.00800]
G2 I-0.00250 J0
G1 Z[-0.10000+2*0.00800]
G2 I-0.00250 J0
G1 Z[-0.10000+1*0.00800]
G2 I-0.00250 J0
G0 Z0.02000

G0 X2.37750 Y1.27500
G1 Z[-0.10000+12*0.00800]
G2 I-0.00250 J0
G1 Z[-0.10000+11*0.00800]
G2 I-0.00250 J0
G1 Z[-0.10000+10*0.00800]
G2 I-0.00250 J0
G1 Z[-0.10000+9*0.00800]
G2 I-0.00250 J0
G1 Z[-0.10000+8*0.00800]
G2 I-0.00250 J0
G1 Z[-0.10000+7*0.00800]
G2 I-0.00250 J0
G1 Z[-0.10000+6*0.00800]
G2 I-0.00250 J0
G1 Z[-0.10000+5*0.00800]
G2 I-0.00250 J0
G1 Z[-0.10000+4*0.00800]
G2 I-0.00250 J0
G1 Z[-0.10000+3*0.00800]
G2 I-0.00250 J0
G1 Z[-0.10000+2*0.00800]
G2 I-0.00250 J0
G1 Z[-0.10000+1*0.00800]
G2 I-0.00250 J0
G0 Z0.02000

G0 X2.47750 Y1.27500
G1 Z[-0.10000+12*0.00800]
G2 I-0.00250 J0
G1 Z[-0.10000+11*0.00800]
G2 I-0.00250 J0
G1 Z[-0.10000+10*0.00800]
G2 I-0.00250 J0
G1 Z[-0.10000+9*0.00800]
G2 I-0.00250 J0
G1 Z[-0.10000+8*0.00800]
G2 I-0.00250 J0
G1 Z[-0.10000+7*0.00800]
G2 I-0.00250 J0
G1 Z[-0.10000+6*0.00800]
G2 I-0.00250 J0
G1 Z[-0.10000+5*0.00800]
G2 I-0.00250 J0
G1 Z[-0.10000+4*0.00800]
G2 I-0.00250 J0
G1 Z[-0.10000+3*0.00800]
G2 I-0.00250 J0
G1 Z[-0.10000+2*0.00800]
G2 I-0.00250 J0
G1 Z[-0.10000+1*0.00800]
G2 I-0.00250 J0
G0 Z0.02000

G0 X2.57750 Y1.27500
G1 Z[-0.10000+12*0.00800]
G2 I-0.00250 J0
G1 Z[-0.10000+11*0.00800]
G2 I-0.00250 J0
G1 Z[-0.10000+10*0.00800]
G2 I-0.00250 J0
G1 Z[-0.10000+9*0.00800]
G2 I-0.00250 J0
G1 Z[-0.10000+8*0.00800]
G2 I-0.00250 J0
G1 Z[-0.10000+7*0.00800]
G2 I-0.00250 J0
G1 Z[-0.10000+6*0.00800]
G2 I-0.00250 J0
G1 Z[-0.10000+5*0.00800]
G2 I-0.00250 J0
G1 Z[-0.10000+4*0.00800]
G2 I-0.00250 J0
G1 Z[-0.10000+3*0.00800]
G2 I-0.00250 J0
G1 Z[-0.10000+2*0.00800]
G2 I-0.00250 J0
G1 Z[-0.10000+1*0.00800]
G2 I-0.00250 J0
G0 Z0.02000

G0 X2.67750 Y1.27500
G1 Z[-0.10000+12*0.00800]
G2 I-0.00250 J0
G1 Z[-0.10000+11*0.00800]
G2 I-0.00250 J0
G1 Z[-0.10000+10*0.00800]
G2 I-0.00250 J0
G1 Z[-0.10000+9*0.00800]
G2 I-0.00250 J0
G1 Z[-0.10000+8*0.00800]
G2 I-0.00250 J0
G1 Z[-0.10000+7*0.00800]
G2 I-0.00250 J0
G1 Z[-0.10000+6*0.00800]
G2 I-0.00250 J0
G1 Z[-0.10000+5*0.00800]
G2 I-0.00250 J0
G1 Z[-0.10000+4*0.00800]
G2 I-0.00250 J0
G1 Z[-0.10000+3*0.00800]
G2 I-0.00250 J0
G1 Z[-0.10000+2*0.00800]
G2 I-0.00250 J0
G1 Z[-0.10000+1*0.00800]
G2 I-0.00250 J0
G0 Z0.02000

G0 X2.72750 Y1.17500
G1 Z[-0.10000+12*0.00800]
G2 I-0.00250 J0
G1 Z[-0.10000+11*0.00800]
G2 I-0.00250 J0
G1 Z[-0.10000+10*0.00800]
G2 I-0.00250 J0
G1 Z[-0.10000+9*0.00800]
G2 I-0.00250 J0
G1 Z[-0.10000+8*0.00800]
G2 I-0.00250 J0
G1 Z[-0.10000+7*0.00800]
G2 I-0.00250 J0
G1 Z[-0.10000+6*0.00800]
G2 I-0.00250 J0
G1 Z[-0.10000+5*0.00800]
G2 I-0.00250 J0
G1 Z[-0.10000+4*0.00800]
G2 I-0.00250 J0
G1 Z[-0.10000+3*0.00800]
G2 I-0.00250 J0
G1 Z[-0.10000+2*0.00800]
G2 I-0.00250 J0
G1 Z[-0.10000+1*0.00800]
G2 I-0.00250 J0
G0 Z0.02000

G0 X2.62750 Y1.17500
G1 Z[-0.10000+12*0.00800]
G2 I-0.00250 J0
G1 Z[-0.10000+11*0.00800]
G2 I-0.00250 J0
G1 Z[-0.10000+10*0.00800]
G2 I-0.00250 J0
G1 Z[-0.10000+9*0.00800]
G2 I-0.00250 J0
G1 Z[-0.10000+8*0.00800]
G2 I-0.00250 J0
G1 Z[-0.10000+7*0.00800]
G2 I-0.00250 J0
G1 Z[-0.10000+6*0.00800]
G2 I-0.00250 J0
G1 Z[-0.10000+5*0.00800]
G2 I-0.00250 J0
G1 Z[-0.10000+4*0.00800]
G2 I-0.00250 J0
G1 Z[-0.10000+3*0.00800]
G2 I-0.00250 J0
G1 Z[-0.10000+2*0.00800]
G2 I-0.00250 J0
G1 Z[-0.10000+1*0.00800]
G2 I-0.00250 J0
G0 Z0.02000

G0 X2.52750 Y1.17500
G1 Z[-0.10000+12*0.00800]
G2 I-0.00250 J0
G1 Z[-0.10000+11*0.00800]
G2 I-0.00250 J0
G1 Z[-0.10000+10*0.00800]
G2 I-0.00250 J0
G1 Z[-0.10000+9*0.00800]
G2 I-0.00250 J0
G1 Z[-0.10000+8*0.00800]
G2 I-0.00250 J0
G1 Z[-0.10000+7*0.00800]
G2 I-0.00250 J0
G1 Z[-0.10000+6*0.00800]
G2 I-0.00250 J0
G1 Z[-0.10000+5*0.00800]
G2 I-0.00250 J0
G1 Z[-0.10000+4*0.00800]
G2 I-0.00250 J0
G1 Z[-0.10000+3*0.00800]
G2 I-0.00250 J0
G1 Z[-0.10000+2*0.00800]
G2 I-0.00250 J0
G1 Z[-0.10000+1*0.00800]
G2 I-0.00250 J0
G0 Z0.02000

G0 X2.42750 Y1.17500
G1 Z[-0.10000+12*0.00800]
G2 I-0.00250 J0
G1 Z[-0.10000+11*0.00800]
G2 I-0.00250 J0
G1 Z[-0.10000+10*0.00800]
G2 I-0.00250 J0
G1 Z[-0.10000+9*0.00800]
G2 I-0.00250 J0
G1 Z[-0.10000+8*0.00800]
G2 I-0.00250 J0
G1 Z[-0.10000+7*0.00800]
G2 I-0.00250 J0
G1 Z[-0.10000+6*0.00800]
G2 I-0.00250 J0
G1 Z[-0.10000+5*0.00800]
G2 I-0.00250 J0
G1 Z[-0.10000+4*0.00800]
G2 I-0.00250 J0
G1 Z[-0.10000+3*0.00800]
G2 I-0.00250 J0
G1 Z[-0.10000+2*0.00800]
G2 I-0.00250 J0
G1 Z[-0.10000+1*0.00800]
G2 I-0.00250 J0
G0 Z0.02000

G0 X2.42750 Y0.67500
G1 Z[-0.10000+12*0.00800]
G2 I-0.00250 J0
G1 Z[-0.10000+11*0.00800]
G2 I-0.00250 J0
G1 Z[-0.10000+10*0.00800]
G2 I-0.00250 J0
G1 Z[-0.10000+9*0.00800]
G2 I-0.00250 J0
G1 Z[-0.10000+8*0.00800]
G2 I-0.00250 J0
G1 Z[-0.10000+7*0.00800]
G2 I-0.00250 J0
G1 Z[-0.10000+6*0.00800]
G2 I-0.00250 J0
G1 Z[-0.10000+5*0.00800]
G2 I-0.00250 J0
G1 Z[-0.10000+4*0.00800]
G2 I-0.00250 J0
G1 Z[-0.10000+3*0.00800]
G2 I-0.00250 J0
G1 Z[-0.10000+2*0.00800]
G2 I-0.00250 J0
G1 Z[-0.10000+1*0.00800]
G2 I-0.00250 J0
G0 Z0.02000

G0 X2.52750 Y0.67500
G1 Z[-0.10000+12*0.00800]
G2 I-0.00250 J0
G1 Z[-0.10000+11*0.00800]
G2 I-0.00250 J0
G1 Z[-0.10000+10*0.00800]
G2 I-0.00250 J0
G1 Z[-0.10000+9*0.00800]
G2 I-0.00250 J0
G1 Z[-0.10000+8*0.00800]
G2 I-0.00250 J0
G1 Z[-0.10000+7*0.00800]
G2 I-0.00250 J0
G1 Z[-0.10000+6*0.00800]
G2 I-0.00250 J0
G1 Z[-0.10000+5*0.00800]
G2 I-0.00250 J0
G1 Z[-0.10000+4*0.00800]
G2 I-0.00250 J0
G1 Z[-0.10000+3*0.00800]
G2 I-0.00250 J0
G1 Z[-0.10000+2*0.00800]
G2 I-0.00250 J0
G1 Z[-0.10000+1*0.00800]
G2 I-0.00250 J0
G0 Z0.02000

G0 X2.62750 Y0.67500
G1 Z[-0.10000+12*0.00800]
G2 I-0.00250 J0
G1 Z[-0.10000+11*0.00800]
G2 I-0.00250 J0
G1 Z[-0.10000+10*0.00800]
G2 I-0.00250 J0
G1 Z[-0.10000+9*0.00800]
G2 I-0.00250 J0
G1 Z[-0.10000+8*0.00800]
G2 I-0.00250 J0
G1 Z[-0.10000+7*0.00800]
G2 I-0.00250 J0
G1 Z[-0.10000+6*0.00800]
G2 I-0.00250 J0
G1 Z[-0.10000+5*0.00800]
G2 I-0.00250 J0
G1 Z[-0.10000+4*0.00800]
G2 I-0.00250 J0
G1 Z[-0.10000+3*0.00800]
G2 I-0.00250 J0
G1 Z[-0.10000+2*0.00800]
G2 I-0.00250 J0
G1 Z[-0.10000+1*0.00800]
G2 I-0.00250 J0
G0 Z0.02000

G0 X2.72750 Y0.67500
G1 Z[-0.10000+12*0.00800]
G2 I-0.00250 J0
G1 Z[-0.10000+11*0.00800]
G2 I-0.00250 J0
G1 Z[-0.10000+10*0.00800]
G2 I-0.00250 J0
G1 Z[-0.10000+9*0.00800]
G2 I-0.00250 J0
G1 Z[-0.10000+8*0.00800]
G2 I-0.00250 J0
G1 Z[-0.10000+7*0.00800]
G2 I-0.00250 J0
G1 Z[-0.10000+6*0.00800]
G2 I-0.00250 J0
G1 Z[-0.10000+5*0.00800]
G2 I-0.00250 J0
G1 Z[-0.10000+4*0.00800]
G2 I-0.00250 J0
G1 Z[-0.10000+3*0.00800]
G2 I-0.00250 J0
G1 Z[-0.10000+2*0.00800]
G2 I-0.00250 J0
G1 Z[-0.10000+1*0.00800]
G2 I-0.00250 J0
G0 Z0.02000

G0 X2.67750 Y0.57500
G1 Z[-0.10000+12*0.00800]
G2 I-0.00250 J0
G1 Z[-0.10000+11*0.00800]
G2 I-0.00250 J0
G1 Z[-0.10000+10*0.00800]
G2 I-0.00250 J0
G1 Z[-0.10000+9*0.00800]
G2 I-0.00250 J0
G1 Z[-0.10000+8*0.00800]
G2 I-0.00250 J0
G1 Z[-0.10000+7*0.00800]
G2 I-0.00250 J0
G1 Z[-0.10000+6*0.00800]
G2 I-0.00250 J0
G1 Z[-0.10000+5*0.00800]
G2 I-0.00250 J0
G1 Z[-0.10000+4*0.00800]
G2 I-0.00250 J0
G1 Z[-0.10000+3*0.00800]
G2 I-0.00250 J0
G1 Z[-0.10000+2*0.00800]
G2 I-0.00250 J0
G1 Z[-0.10000+1*0.00800]
G2 I-0.00250 J0
G0 Z0.02000

G0 X2.57750 Y0.57500
G1 Z[-0.10000+12*0.00800]
G2 I-0.00250 J0
G1 Z[-0.10000+11*0.00800]
G2 I-0.00250 J0
G1 Z[-0.10000+10*0.00800]
G2 I-0.00250 J0
G1 Z[-0.10000+9*0.00800]
G2 I-0.00250 J0
G1 Z[-0.10000+8*0.00800]
G2 I-0.00250 J0
G1 Z[-0.10000+7*0.00800]
G2 I-0.00250 J0
G1 Z[-0.10000+6*0.00800]
G2 I-0.00250 J0
G1 Z[-0.10000+5*0.00800]
G2 I-0.00250 J0
G1 Z[-0.10000+4*0.00800]
G2 I-0.00250 J0
G1 Z[-0.10000+3*0.00800]
G2 I-0.00250 J0
G1 Z[-0.10000+2*0.00800]
G2 I-0.00250 J0
G1 Z[-0.10000+1*0.00800]
G2 I-0.00250 J0
G0 Z0.02000

G0 X2.47750 Y0.57500
G1 Z[-0.10000+12*0.00800]
G2 I-0.00250 J0
G1 Z[-0.10000+11*0.00800]
G2 I-0.00250 J0
G1 Z[-0.10000+10*0.00800]
G2 I-0.00250 J0
G1 Z[-0.10000+9*0.00800]
G2 I-0.00250 J0
G1 Z[-0.10000+8*0.00800]
G2 I-0.00250 J0
G1 Z[-0.10000+7*0.00800]
G2 I-0.00250 J0
G1 Z[-0.10000+6*0.00800]
G2 I-0.00250 J0
G1 Z[-0.10000+5*0.00800]
G2 I-0.00250 J0
G1 Z[-0.10000+4*0.00800]
G2 I-0.00250 J0
G1 Z[-0.10000+3*0.00800]
G2 I-0.00250 J0
G1 Z[-0.10000+2*0.00800]
G2 I-0.00250 J0
G1 Z[-0.10000+1*0.00800]
G2 I-0.00250 J0
G0 Z0.02000

G0 X2.37750 Y0.57500
G1 Z[-0.10000+12*0.00800]
G2 I-0.00250 J0
G1 Z[-0.10000+11*0.00800]
G2 I-0.00250 J0
G1 Z[-0.10000+10*0.00800]
G2 I-0.00250 J0
G1 Z[-0.10000+9*0.00800]
G2 I-0.00250 J0
G1 Z[-0.10000+8*0.00800]
G2 I-0.00250 J0
G1 Z[-0.10000+7*0.00800]
G2 I-0.00250 J0
G1 Z[-0.10000+6*0.00800]
G2 I-0.00250 J0
G1 Z[-0.10000+5*0.00800]
G2 I-0.00250 J0
G1 Z[-0.10000+4*0.00800]
G2 I-0.00250 J0
G1 Z[-0.10000+3*0.00800]
G2 I-0.00250 J0
G1 Z[-0.10000+2*0.00800]
G2 I-0.00250 J0
G1 Z[-0.10000+1*0.00800]
G2 I-0.00250 J0
G0 Z0.02000

G0 X3.10250 Y0.57500
G1 Z[-0.10000+12*0.00800]
G2 I-0.00250 J0
G1 Z[-0.10000+11*0.00800]
G2 I-0.00250 J0
G1 Z[-0.10000+10*0.00800]
G2 I-0.00250 J0
G1 Z[-0.10000+9*0.00800]
G2 I-0.00250 J0
G1 Z[-0.10000+8*0.00800]
G2 I-0.00250 J0
G1 Z[-0.10000+7*0.00800]
G2 I-0.00250 J0
G1 Z[-0.10000+6*0.00800]
G2 I-0.00250 J0
G1 Z[-0.10000+5*0.00800]
G2 I-0.00250 J0
G1 Z[-0.10000+4*0.00800]
G2 I-0.00250 J0
G1 Z[-0.10000+3*0.00800]
G2 I-0.00250 J0
G1 Z[-0.10000+2*0.00800]
G2 I-0.00250 J0
G1 Z[-0.10000+1*0.00800]
G2 I-0.00250 J0
G0 Z0.02000

G0 X3.20250 Y0.57500
G1 Z[-0.10000+12*0.00800]
G2 I-0.00250 J0
G1 Z[-0.10000+11*0.00800]
G2 I-0.00250 J0
G1 Z[-0.10000+10*0.00800]
G2 I-0.00250 J0
G1 Z[-0.10000+9*0.00800]
G2 I-0.00250 J0
G1 Z[-0.10000+8*0.00800]
G2 I-0.00250 J0
G1 Z[-0.10000+7*0.00800]
G2 I-0.00250 J0
G1 Z[-0.10000+6*0.00800]
G2 I-0.00250 J0
G1 Z[-0.10000+5*0.00800]
G2 I-0.00250 J0
G1 Z[-0.10000+4*0.00800]
G2 I-0.00250 J0
G1 Z[-0.10000+3*0.00800]
G2 I-0.00250 J0
G1 Z[-0.10000+2*0.00800]
G2 I-0.00250 J0
G1 Z[-0.10000+1*0.00800]
G2 I-0.00250 J0
G0 Z0.02000

G0 X3.30250 Y0.57500
G1 Z[-0.10000+12*0.00800]
G2 I-0.00250 J0
G1 Z[-0.10000+11*0.00800]
G2 I-0.00250 J0
G1 Z[-0.10000+10*0.00800]
G2 I-0.00250 J0
G1 Z[-0.10000+9*0.00800]
G2 I-0.00250 J0
G1 Z[-0.10000+8*0.00800]
G2 I-0.00250 J0
G1 Z[-0.10000+7*0.00800]
G2 I-0.00250 J0
G1 Z[-0.10000+6*0.00800]
G2 I-0.00250 J0
G1 Z[-0.10000+5*0.00800]
G2 I-0.00250 J0
G1 Z[-0.10000+4*0.00800]
G2 I-0.00250 J0
G1 Z[-0.10000+3*0.00800]
G2 I-0.00250 J0
G1 Z[-0.10000+2*0.00800]
G2 I-0.00250 J0
G1 Z[-0.10000+1*0.00800]
G2 I-0.00250 J0
G0 Z0.02000

G0 X3.40250 Y0.57500
G1 Z[-0.10000+12*0.00800]
G2 I-0.00250 J0
G1 Z[-0.10000+11*0.00800]
G2 I-0.00250 J0
G1 Z[-0.10000+10*0.00800]
G2 I-0.00250 J0
G1 Z[-0.10000+9*0.00800]
G2 I-0.00250 J0
G1 Z[-0.10000+8*0.00800]
G2 I-0.00250 J0
G1 Z[-0.10000+7*0.00800]
G2 I-0.00250 J0
G1 Z[-0.10000+6*0.00800]
G2 I-0.00250 J0
G1 Z[-0.10000+5*0.00800]
G2 I-0.00250 J0
G1 Z[-0.10000+4*0.00800]
G2 I-0.00250 J0
G1 Z[-0.10000+3*0.00800]
G2 I-0.00250 J0
G1 Z[-0.10000+2*0.00800]
G2 I-0.00250 J0
G1 Z[-0.10000+1*0.00800]
G2 I-0.00250 J0
G0 Z0.02000

G0 X3.45250 Y0.67500
G1 Z[-0.10000+12*0.00800]
G2 I-0.00250 J0
G1 Z[-0.10000+11*0.00800]
G2 I-0.00250 J0
G1 Z[-0.10000+10*0.00800]
G2 I-0.00250 J0
G1 Z[-0.10000+9*0.00800]
G2 I-0.00250 J0
G1 Z[-0.10000+8*0.00800]
G2 I-0.00250 J0
G1 Z[-0.10000+7*0.00800]
G2 I-0.00250 J0
G1 Z[-0.10000+6*0.00800]
G2 I-0.00250 J0
G1 Z[-0.10000+5*0.00800]
G2 I-0.00250 J0
G1 Z[-0.10000+4*0.00800]
G2 I-0.00250 J0
G1 Z[-0.10000+3*0.00800]
G2 I-0.00250 J0
G1 Z[-0.10000+2*0.00800]
G2 I-0.00250 J0
G1 Z[-0.10000+1*0.00800]
G2 I-0.00250 J0
G0 Z0.02000

G0 X3.35250 Y0.67500
G1 Z[-0.10000+12*0.00800]
G2 I-0.00250 J0
G1 Z[-0.10000+11*0.00800]
G2 I-0.00250 J0
G1 Z[-0.10000+10*0.00800]
G2 I-0.00250 J0
G1 Z[-0.10000+9*0.00800]
G2 I-0.00250 J0
G1 Z[-0.10000+8*0.00800]
G2 I-0.00250 J0
G1 Z[-0.10000+7*0.00800]
G2 I-0.00250 J0
G1 Z[-0.10000+6*0.00800]
G2 I-0.00250 J0
G1 Z[-0.10000+5*0.00800]
G2 I-0.00250 J0
G1 Z[-0.10000+4*0.00800]
G2 I-0.00250 J0
G1 Z[-0.10000+3*0.00800]
G2 I-0.00250 J0
G1 Z[-0.10000+2*0.00800]
G2 I-0.00250 J0
G1 Z[-0.10000+1*0.00800]
G2 I-0.00250 J0
G0 Z0.02000

G0 X3.25250 Y0.67500
G1 Z[-0.10000+12*0.00800]
G2 I-0.00250 J0
G1 Z[-0.10000+11*0.00800]
G2 I-0.00250 J0
G1 Z[-0.10000+10*0.00800]
G2 I-0.00250 J0
G1 Z[-0.10000+9*0.00800]
G2 I-0.00250 J0
G1 Z[-0.10000+8*0.00800]
G2 I-0.00250 J0
G1 Z[-0.10000+7*0.00800]
G2 I-0.00250 J0
G1 Z[-0.10000+6*0.00800]
G2 I-0.00250 J0
G1 Z[-0.10000+5*0.00800]
G2 I-0.00250 J0
G1 Z[-0.10000+4*0.00800]
G2 I-0.00250 J0
G1 Z[-0.10000+3*0.00800]
G2 I-0.00250 J0
G1 Z[-0.10000+2*0.00800]
G2 I-0.00250 J0
G1 Z[-0.10000+1*0.00800]
G2 I-0.00250 J0
G0 Z0.02000

G0 X3.15250 Y0.67500
G1 Z[-0.10000+12*0.00800]
G2 I-0.00250 J0
G1 Z[-0.10000+11*0.00800]
G2 I-0.00250 J0
G1 Z[-0.10000+10*0.00800]
G2 I-0.00250 J0
G1 Z[-0.10000+9*0.00800]
G2 I-0.00250 J0
G1 Z[-0.10000+8*0.00800]
G2 I-0.00250 J0
G1 Z[-0.10000+7*0.00800]
G2 I-0.00250 J0
G1 Z[-0.10000+6*0.00800]
G2 I-0.00250 J0
G1 Z[-0.10000+5*0.00800]
G2 I-0.00250 J0
G1 Z[-0.10000+4*0.00800]
G2 I-0.00250 J0
G1 Z[-0.10000+3*0.00800]
G2 I-0.00250 J0
G1 Z[-0.10000+2*0.00800]
G2 I-0.00250 J0
G1 Z[-0.10000+1*0.00800]
G2 I-0.00250 J0
G0 Z0.02000

G0 X3.15250 Y1.17500
G1 Z[-0.10000+12*0.00800]
G2 I-0.00250 J0
G1 Z[-0.10000+11*0.00800]
G2 I-0.00250 J0
G1 Z[-0.10000+10*0.00800]
G2 I-0.00250 J0
G1 Z[-0.10000+9*0.00800]
G2 I-0.00250 J0
G1 Z[-0.10000+8*0.00800]
G2 I-0.00250 J0
G1 Z[-0.10000+7*0.00800]
G2 I-0.00250 J0
G1 Z[-0.10000+6*0.00800]
G2 I-0.00250 J0
G1 Z[-0.10000+5*0.00800]
G2 I-0.00250 J0
G1 Z[-0.10000+4*0.00800]
G2 I-0.00250 J0
G1 Z[-0.10000+3*0.00800]
G2 I-0.00250 J0
G1 Z[-0.10000+2*0.00800]
G2 I-0.00250 J0
G1 Z[-0.10000+1*0.00800]
G2 I-0.00250 J0
G0 Z0.02000

G0 X3.25250 Y1.17500
G1 Z[-0.10000+12*0.00800]
G2 I-0.00250 J0
G1 Z[-0.10000+11*0.00800]
G2 I-0.00250 J0
G1 Z[-0.10000+10*0.00800]
G2 I-0.00250 J0
G1 Z[-0.10000+9*0.00800]
G2 I-0.00250 J0
G1 Z[-0.10000+8*0.00800]
G2 I-0.00250 J0
G1 Z[-0.10000+7*0.00800]
G2 I-0.00250 J0
G1 Z[-0.10000+6*0.00800]
G2 I-0.00250 J0
G1 Z[-0.10000+5*0.00800]
G2 I-0.00250 J0
G1 Z[-0.10000+4*0.00800]
G2 I-0.00250 J0
G1 Z[-0.10000+3*0.00800]
G2 I-0.00250 J0
G1 Z[-0.10000+2*0.00800]
G2 I-0.00250 J0
G1 Z[-0.10000+1*0.00800]
G2 I-0.00250 J0
G0 Z0.02000

G0 X3.35250 Y1.17500
G1 Z[-0.10000+12*0.00800]
G2 I-0.00250 J0
G1 Z[-0.10000+11*0.00800]
G2 I-0.00250 J0
G1 Z[-0.10000+10*0.00800]
G2 I-0.00250 J0
G1 Z[-0.10000+9*0.00800]
G2 I-0.00250 J0
G1 Z[-0.10000+8*0.00800]
G2 I-0.00250 J0
G1 Z[-0.10000+7*0.00800]
G2 I-0.00250 J0
G1 Z[-0.10000+6*0.00800]
G2 I-0.00250 J0
G1 Z[-0.10000+5*0.00800]
G2 I-0.00250 J0
G1 Z[-0.10000+4*0.00800]
G2 I-0.00250 J0
G1 Z[-0.10000+3*0.00800]
G2 I-0.00250 J0
G1 Z[-0.10000+2*0.00800]
G2 I-0.00250 J0
G1 Z[-0.10000+1*0.00800]
G2 I-0.00250 J0
G0 Z0.02000

G0 X3.45250 Y1.17500
G1 Z[-0.10000+12*0.00800]
G2 I-0.00250 J0
G1 Z[-0.10000+11*0.00800]
G2 I-0.00250 J0
G1 Z[-0.10000+10*0.00800]
G2 I-0.00250 J0
G1 Z[-0.10000+9*0.00800]
G2 I-0.00250 J0
G1 Z[-0.10000+8*0.00800]
G2 I-0.00250 J0
G1 Z[-0.10000+7*0.00800]
G2 I-0.00250 J0
G1 Z[-0.10000+6*0.00800]
G2 I-0.00250 J0
G1 Z[-0.10000+5*0.00800]
G2 I-0.00250 J0
G1 Z[-0.10000+4*0.00800]
G2 I-0.00250 J0
G1 Z[-0.10000+3*0.00800]
G2 I-0.00250 J0
G1 Z[-0.10000+2*0.00800]
G2 I-0.00250 J0
G1 Z[-0.10000+1*0.00800]
G2 I-0.00250 J0
G0 Z0.02000

G0 X3.40250 Y1.27500
G1 Z[-0.10000+12*0.00800]
G2 I-0.00250 J0
G1 Z[-0.10000+11*0.00800]
G2 I-0.00250 J0
G1 Z[-0.10000+10*0.00800]
G2 I-0.00250 J0
G1 Z[-0.10000+9*0.00800]
G2 I-0.00250 J0
G1 Z[-0.10000+8*0.00800]
G2 I-0.00250 J0
G1 Z[-0.10000+7*0.00800]
G2 I-0.00250 J0
G1 Z[-0.10000+6*0.00800]
G2 I-0.00250 J0
G1 Z[-0.10000+5*0.00800]
G2 I-0.00250 J0
G1 Z[-0.10000+4*0.00800]
G2 I-0.00250 J0
G1 Z[-0.10000+3*0.00800]
G2 I-0.00250 J0
G1 Z[-0.10000+2*0.00800]
G2 I-0.00250 J0
G1 Z[-0.10000+1*0.00800]
G2 I-0.00250 J0
G0 Z0.02000

G0 X3.30250 Y1.27500
G1 Z[-0.10000+12*0.00800]
G2 I-0.00250 J0
G1 Z[-0.10000+11*0.00800]
G2 I-0.00250 J0
G1 Z[-0.10000+10*0.00800]
G2 I-0.00250 J0
G1 Z[-0.10000+9*0.00800]
G2 I-0.00250 J0
G1 Z[-0.10000+8*0.00800]
G2 I-0.00250 J0
G1 Z[-0.10000+7*0.00800]
G2 I-0.00250 J0
G1 Z[-0.10000+6*0.00800]
G2 I-0.00250 J0
G1 Z[-0.10000+5*0.00800]
G2 I-0.00250 J0
G1 Z[-0.10000+4*0.00800]
G2 I-0.00250 J0
G1 Z[-0.10000+3*0.00800]
G2 I-0.00250 J0
G1 Z[-0.10000+2*0.00800]
G2 I-0.00250 J0
G1 Z[-0.10000+1*0.00800]
G2 I-0.00250 J0
G0 Z0.02000

G0 X3.20250 Y1.27500
G1 Z[-0.10000+12*0.00800]
G2 I-0.00250 J0
G1 Z[-0.10000+11*0.00800]
G2 I-0.00250 J0
G1 Z[-0.10000+10*0.00800]
G2 I-0.00250 J0
G1 Z[-0.10000+9*0.00800]
G2 I-0.00250 J0
G1 Z[-0.10000+8*0.00800]
G2 I-0.00250 J0
G1 Z[-0.10000+7*0.00800]
G2 I-0.00250 J0
G1 Z[-0.10000+6*0.00800]
G2 I-0.00250 J0
G1 Z[-0.10000+5*0.00800]
G2 I-0.00250 J0
G1 Z[-0.10000+4*0.00800]
G2 I-0.00250 J0
G1 Z[-0.10000+3*0.00800]
G2 I-0.00250 J0
G1 Z[-0.10000+2*0.00800]
G2 I-0.00250 J0
G1 Z[-0.10000+1*0.00800]
G2 I-0.00250 J0
G0 Z0.02000

G0 X3.10250 Y1.27500
G1 Z[-0.10000+12*0.00800]
G2 I-0.00250 J0
G1 Z[-0.10000+11*0.00800]
G2 I-0.00250 J0
G1 Z[-0.10000+10*0.00800]
G2 I-0.00250 J0
G1 Z[-0.10000+9*0.00800]
G2 I-0.00250 J0
G1 Z[-0.10000+8*0.00800]
G2 I-0.00250 J0
G1 Z[-0.10000+7*0.00800]
G2 I-0.00250 J0
G1 Z[-0.10000+6*0.00800]
G2 I-0.00250 J0
G1 Z[-0.10000+5*0.00800]
G2 I-0.00250 J0
G1 Z[-0.10000+4*0.00800]
G2 I-0.00250 J0
G1 Z[-0.10000+3*0.00800]
G2 I-0.00250 J0
G1 Z[-0.10000+2*0.00800]
G2 I-0.00250 J0
G1 Z[-0.10000+1*0.00800]
G2 I-0.00250 J0
G0 Z0.02000

G0 X3.82750 Y1.27500
G1 Z[-0.10000+12*0.00800]
G2 I-0.00250 J0
G1 Z[-0.10000+11*0.00800]
G2 I-0.00250 J0
G1 Z[-0.10000+10*0.00800]
G2 I-0.00250 J0
G1 Z[-0.10000+9*0.00800]
G2 I-0.00250 J0
G1 Z[-0.10000+8*0.00800]
G2 I-0.00250 J0
G1 Z[-0.10000+7*0.00800]
G2 I-0.00250 J0
G1 Z[-0.10000+6*0.00800]
G2 I-0.00250 J0
G1 Z[-0.10000+5*0.00800]
G2 I-0.00250 J0
G1 Z[-0.10000+4*0.00800]
G2 I-0.00250 J0
G1 Z[-0.10000+3*0.00800]
G2 I-0.00250 J0
G1 Z[-0.10000+2*0.00800]
G2 I-0.00250 J0
G1 Z[-0.10000+1*0.00800]
G2 I-0.00250 J0
G0 Z0.02000

G0 X3.92750 Y1.27500
G1 Z[-0.10000+12*0.00800]
G2 I-0.00250 J0
G1 Z[-0.10000+11*0.00800]
G2 I-0.00250 J0
G1 Z[-0.10000+10*0.00800]
G2 I-0.00250 J0
G1 Z[-0.10000+9*0.00800]
G2 I-0.00250 J0
G1 Z[-0.10000+8*0.00800]
G2 I-0.00250 J0
G1 Z[-0.10000+7*0.00800]
G2 I-0.00250 J0
G1 Z[-0.10000+6*0.00800]
G2 I-0.00250 J0
G1 Z[-0.10000+5*0.00800]
G2 I-0.00250 J0
G1 Z[-0.10000+4*0.00800]
G2 I-0.00250 J0
G1 Z[-0.10000+3*0.00800]
G2 I-0.00250 J0
G1 Z[-0.10000+2*0.00800]
G2 I-0.00250 J0
G1 Z[-0.10000+1*0.00800]
G2 I-0.00250 J0
G0 Z0.02000

G0 X4.02750 Y1.27500
G1 Z[-0.10000+12*0.00800]
G2 I-0.00250 J0
G1 Z[-0.10000+11*0.00800]
G2 I-0.00250 J0
G1 Z[-0.10000+10*0.00800]
G2 I-0.00250 J0
G1 Z[-0.10000+9*0.00800]
G2 I-0.00250 J0
G1 Z[-0.10000+8*0.00800]
G2 I-0.00250 J0
G1 Z[-0.10000+7*0.00800]
G2 I-0.00250 J0
G1 Z[-0.10000+6*0.00800]
G2 I-0.00250 J0
G1 Z[-0.10000+5*0.00800]
G2 I-0.00250 J0
G1 Z[-0.10000+4*0.00800]
G2 I-0.00250 J0
G1 Z[-0.10000+3*0.00800]
G2 I-0.00250 J0
G1 Z[-0.10000+2*0.00800]
G2 I-0.00250 J0
G1 Z[-0.10000+1*0.00800]
G2 I-0.00250 J0
G0 Z0.02000

G0 X4.12750 Y1.27500
G1 Z[-0.10000+12*0.00800]
G2 I-0.00250 J0
G1 Z[-0.10000+11*0.00800]
G2 I-0.00250 J0
G1 Z[-0.10000+10*0.00800]
G2 I-0.00250 J0
G1 Z[-0.10000+9*0.00800]
G2 I-0.00250 J0
G1 Z[-0.10000+8*0.00800]
G2 I-0.00250 J0
G1 Z[-0.10000+7*0.00800]
G2 I-0.00250 J0
G1 Z[-0.10000+6*0.00800]
G2 I-0.00250 J0
G1 Z[-0.10000+5*0.00800]
G2 I-0.00250 J0
G1 Z[-0.10000+4*0.00800]
G2 I-0.00250 J0
G1 Z[-0.10000+3*0.00800]
G2 I-0.00250 J0
G1 Z[-0.10000+2*0.00800]
G2 I-0.00250 J0
G1 Z[-0.10000+1*0.00800]
G2 I-0.00250 J0
G0 Z0.02000

G0 X4.17750 Y1.17500
G1 Z[-0.10000+12*0.00800]
G2 I-0.00250 J0
G1 Z[-0.10000+11*0.00800]
G2 I-0.00250 J0
G1 Z[-0.10000+10*0.00800]
G2 I-0.00250 J0
G1 Z[-0.10000+9*0.00800]
G2 I-0.00250 J0
G1 Z[-0.10000+8*0.00800]
G2 I-0.00250 J0
G1 Z[-0.10000+7*0.00800]
G2 I-0.00250 J0
G1 Z[-0.10000+6*0.00800]
G2 I-0.00250 J0
G1 Z[-0.10000+5*0.00800]
G2 I-0.00250 J0
G1 Z[-0.10000+4*0.00800]
G2 I-0.00250 J0
G1 Z[-0.10000+3*0.00800]
G2 I-0.00250 J0
G1 Z[-0.10000+2*0.00800]
G2 I-0.00250 J0
G1 Z[-0.10000+1*0.00800]
G2 I-0.00250 J0
G0 Z0.02000

G0 X4.07750 Y1.17500
G1 Z[-0.10000+12*0.00800]
G2 I-0.00250 J0
G1 Z[-0.10000+11*0.00800]
G2 I-0.00250 J0
G1 Z[-0.10000+10*0.00800]
G2 I-0.00250 J0
G1 Z[-0.10000+9*0.00800]
G2 I-0.00250 J0
G1 Z[-0.10000+8*0.00800]
G2 I-0.00250 J0
G1 Z[-0.10000+7*0.00800]
G2 I-0.00250 J0
G1 Z[-0.10000+6*0.00800]
G2 I-0.00250 J0
G1 Z[-0.10000+5*0.00800]
G2 I-0.00250 J0
G1 Z[-0.10000+4*0.00800]
G2 I-0.00250 J0
G1 Z[-0.10000+3*0.00800]
G2 I-0.00250 J0
G1 Z[-0.10000+2*0.00800]
G2 I-0.00250 J0
G1 Z[-0.10000+1*0.00800]
G2 I-0.00250 J0
G0 Z0.02000

G0 X3.97750 Y1.17500
G1 Z[-0.10000+12*0.00800]
G2 I-0.00250 J0
G1 Z[-0.10000+11*0.00800]
G2 I-0.00250 J0
G1 Z[-0.10000+10*0.00800]
G2 I-0.00250 J0
G1 Z[-0.10000+9*0.00800]
G2 I-0.00250 J0
G1 Z[-0.10000+8*0.00800]
G2 I-0.00250 J0
G1 Z[-0.10000+7*0.00800]
G2 I-0.00250 J0
G1 Z[-0.10000+6*0.00800]
G2 I-0.00250 J0
G1 Z[-0.10000+5*0.00800]
G2 I-0.00250 J0
G1 Z[-0.10000+4*0.00800]
G2 I-0.00250 J0
G1 Z[-0.10000+3*0.00800]
G2 I-0.00250 J0
G1 Z[-0.10000+2*0.00800]
G2 I-0.00250 J0
G1 Z[-0.10000+1*0.00800]
G2 I-0.00250 J0
G0 Z0.02000

G0 X3.87750 Y1.17500
G1 Z[-0.10000+12*0.00800]
G2 I-0.00250 J0
G1 Z[-0.10000+11*0.00800]
G2 I-0.00250 J0
G1 Z[-0.10000+10*0.00800]
G2 I-0.00250 J0
G1 Z[-0.10000+9*0.00800]
G2 I-0.00250 J0
G1 Z[-0.10000+8*0.00800]
G2 I-0.00250 J0
G1 Z[-0.10000+7*0.00800]
G2 I-0.00250 J0
G1 Z[-0.10000+6*0.00800]
G2 I-0.00250 J0
G1 Z[-0.10000+5*0.00800]
G2 I-0.00250 J0
G1 Z[-0.10000+4*0.00800]
G2 I-0.00250 J0
G1 Z[-0.10000+3*0.00800]
G2 I-0.00250 J0
G1 Z[-0.10000+2*0.00800]
G2 I-0.00250 J0
G1 Z[-0.10000+1*0.00800]
G2 I-0.00250 J0
G0 Z0.02000

G0 X3.87750 Y0.67500
G1 Z[-0.10000+12*0.00800]
G2 I-0.00250 J0
G1 Z[-0.10000+11*0.00800]
G2 I-0.00250 J0
G1 Z[-0.10000+10*0.00800]
G2 I-0.00250 J0
G1 Z[-0.10000+9*0.00800]
G2 I-0.00250 J0
G1 Z[-0.10000+8*0.00800]
G2 I-0.00250 J0
G1 Z[-0.10000+7*0.00800]
G2 I-0.00250 J0
G1 Z[-0.10000+6*0.00800]
G2 I-0.00250 J0
G1 Z[-0.10000+5*0.00800]
G2 I-0.00250 J0
G1 Z[-0.10000+4*0.00800]
G2 I-0.00250 J0
G1 Z[-0.10000+3*0.00800]
G2 I-0.00250 J0
G1 Z[-0.10000+2*0.00800]
G2 I-0.00250 J0
G1 Z[-0.10000+1*0.00800]
G2 I-0.00250 J0
G0 Z0.02000

G0 X3.97750 Y0.67500
G1 Z[-0.10000+12*0.00800]
G2 I-0.00250 J0
G1 Z[-0.10000+11*0.00800]
G2 I-0.00250 J0
G1 Z[-0.10000+10*0.00800]
G2 I-0.00250 J0
G1 Z[-0.10000+9*0.00800]
G2 I-0.00250 J0
G1 Z[-0.10000+8*0.00800]
G2 I-0.00250 J0
G1 Z[-0.10000+7*0.00800]
G2 I-0.00250 J0
G1 Z[-0.10000+6*0.00800]
G2 I-0.00250 J0
G1 Z[-0.10000+5*0.00800]
G2 I-0.00250 J0
G1 Z[-0.10000+4*0.00800]
G2 I-0.00250 J0
G1 Z[-0.10000+3*0.00800]
G2 I-0.00250 J0
G1 Z[-0.10000+2*0.00800]
G2 I-0.00250 J0
G1 Z[-0.10000+1*0.00800]
G2 I-0.00250 J0
G0 Z0.02000

G0 X4.07750 Y0.67500
G1 Z[-0.10000+12*0.00800]
G2 I-0.00250 J0
G1 Z[-0.10000+11*0.00800]
G2 I-0.00250 J0
G1 Z[-0.10000+10*0.00800]
G2 I-0.00250 J0
G1 Z[-0.10000+9*0.00800]
G2 I-0.00250 J0
G1 Z[-0.10000+8*0.00800]
G2 I-0.00250 J0
G1 Z[-0.10000+7*0.00800]
G2 I-0.00250 J0
G1 Z[-0.10000+6*0.00800]
G2 I-0.00250 J0
G1 Z[-0.10000+5*0.00800]
G2 I-0.00250 J0
G1 Z[-0.10000+4*0.00800]
G2 I-0.00250 J0
G1 Z[-0.10000+3*0.00800]
G2 I-0.00250 J0
G1 Z[-0.10000+2*0.00800]
G2 I-0.00250 J0
G1 Z[-0.10000+1*0.00800]
G2 I-0.00250 J0
G0 Z0.02000

G0 X4.17750 Y0.67500
G1 Z[-0.10000+12*0.00800]
G2 I-0.00250 J0
G1 Z[-0.10000+11*0.00800]
G2 I-0.00250 J0
G1 Z[-0.10000+10*0.00800]
G2 I-0.00250 J0
G1 Z[-0.10000+9*0.00800]
G2 I-0.00250 J0
G1 Z[-0.10000+8*0.00800]
G2 I-0.00250 J0
G1 Z[-0.10000+7*0.00800]
G2 I-0.00250 J0
G1 Z[-0.10000+6*0.00800]
G2 I-0.00250 J0
G1 Z[-0.10000+5*0.00800]
G2 I-0.00250 J0
G1 Z[-0.10000+4*0.00800]
G2 I-0.00250 J0
G1 Z[-0.10000+3*0.00800]
G2 I-0.00250 J0
G1 Z[-0.10000+2*0.00800]
G2 I-0.00250 J0
G1 Z[-0.10000+1*0.00800]
G2 I-0.00250 J0
G0 Z0.02000

G0 X4.12750 Y0.57500
G1 Z[-0.10000+12*0.00800]
G2 I-0.00250 J0
G1 Z[-0.10000+11*0.00800]
G2 I-0.00250 J0
G1 Z[-0.10000+10*0.00800]
G2 I-0.00250 J0
G1 Z[-0.10000+9*0.00800]
G2 I-0.00250 J0
G1 Z[-0.10000+8*0.00800]
G2 I-0.00250 J0
G1 Z[-0.10000+7*0.00800]
G2 I-0.00250 J0
G1 Z[-0.10000+6*0.00800]
G2 I-0.00250 J0
G1 Z[-0.10000+5*0.00800]
G2 I-0.00250 J0
G1 Z[-0.10000+4*0.00800]
G2 I-0.00250 J0
G1 Z[-0.10000+3*0.00800]
G2 I-0.00250 J0
G1 Z[-0.10000+2*0.00800]
G2 I-0.00250 J0
G1 Z[-0.10000+1*0.00800]
G2 I-0.00250 J0
G0 Z0.02000

G0 X4.02750 Y0.57500
G1 Z[-0.10000+12*0.00800]
G2 I-0.00250 J0
G1 Z[-0.10000+11*0.00800]
G2 I-0.00250 J0
G1 Z[-0.10000+10*0.00800]
G2 I-0.00250 J0
G1 Z[-0.10000+9*0.00800]
G2 I-0.00250 J0
G1 Z[-0.10000+8*0.00800]
G2 I-0.00250 J0
G1 Z[-0.10000+7*0.00800]
G2 I-0.00250 J0
G1 Z[-0.10000+6*0.00800]
G2 I-0.00250 J0
G1 Z[-0.10000+5*0.00800]
G2 I-0.00250 J0
G1 Z[-0.10000+4*0.00800]
G2 I-0.00250 J0
G1 Z[-0.10000+3*0.00800]
G2 I-0.00250 J0
G1 Z[-0.10000+2*0.00800]
G2 I-0.00250 J0
G1 Z[-0.10000+1*0.00800]
G2 I-0.00250 J0
G0 Z0.02000

G0 X3.92750 Y0.57500
G1 Z[-0.10000+12*0.00800]
G2 I-0.00250 J0
G1 Z[-0.10000+11*0.00800]
G2 I-0.00250 J0
G1 Z[-0.10000+10*0.00800]
G2 I-0.00250 J0
G1 Z[-0.10000+9*0.00800]
G2 I-0.00250 J0
G1 Z[-0.10000+8*0.00800]
G2 I-0.00250 J0
G1 Z[-0.10000+7*0.00800]
G2 I-0.00250 J0
G1 Z[-0.10000+6*0.00800]
G2 I-0.00250 J0
G1 Z[-0.10000+5*0.00800]
G2 I-0.00250 J0
G1 Z[-0.10000+4*0.00800]
G2 I-0.00250 J0
G1 Z[-0.10000+3*0.00800]
G2 I-0.00250 J0
G1 Z[-0.10000+2*0.00800]
G2 I-0.00250 J0
G1 Z[-0.10000+1*0.00800]
G2 I-0.00250 J0
G0 Z0.02000

G0 X3.82750 Y0.57500
G1 Z[-0.10000+12*0.00800]
G2 I-0.00250 J0
G1 Z[-0.10000+11*0.00800]
G2 I-0.00250 J0
G1 Z[-0.10000+10*0.00800]
G2 I-0.00250 J0
G1 Z[-0.10000+9*0.00800]
G2 I-0.00250 J0
G1 Z[-0.10000+8*0.00800]
G2 I-0.00250 J0
G1 Z[-0.10000+7*0.00800]
G2 I-0.00250 J0
G1 Z[-0.10000+6*0.00800]
G2 I-0.00250 J0
G1 Z[-0.10000+5*0.00800]
G2 I-0.00250 J0
G1 Z[-0.10000+4*0.00800]
G2 I-0.00250 J0
G1 Z[-0.10000+3*0.00800]
G2 I-0.00250 J0
G1 Z[-0.10000+2*0.00800]
G2 I-0.00250 J0
G1 Z[-0.10000+1*0.00800]
G2 I-0.00250 J0
G0 Z0.02000

G0 X5.05250 Y0.57500
G1 Z[-0.10000+12*0.00800]
G2 I-0.00250 J0
G1 Z[-0.10000+11*0.00800]
G2 I-0.00250 J0
G1 Z[-0.10000+10*0.00800]
G2 I-0.00250 J0
G1 Z[-0.10000+9*0.00800]
G2 I-0.00250 J0
G1 Z[-0.10000+8*0.00800]
G2 I-0.00250 J0
G1 Z[-0.10000+7*0.00800]
G2 I-0.00250 J0
G1 Z[-0.10000+6*0.00800]
G2 I-0.00250 J0
G1 Z[-0.10000+5*0.00800]
G2 I-0.00250 J0
G1 Z[-0.10000+4*0.00800]
G2 I-0.00250 J0
G1 Z[-0.10000+3*0.00800]
G2 I-0.00250 J0
G1 Z[-0.10000+2*0.00800]
G2 I-0.00250 J0
G1 Z[-0.10000+1*0.00800]
G2 I-0.00250 J0
G0 Z0.02000

G0 X5.15250 Y0.57500
G1 Z[-0.10000+12*0.00800]
G2 I-0.00250 J0
G1 Z[-0.10000+11*0.00800]
G2 I-0.00250 J0
G1 Z[-0.10000+10*0.00800]
G2 I-0.00250 J0
G1 Z[-0.10000+9*0.00800]
G2 I-0.00250 J0
G1 Z[-0.10000+8*0.00800]
G2 I-0.00250 J0
G1 Z[-0.10000+7*0.00800]
G2 I-0.00250 J0
G1 Z[-0.10000+6*0.00800]
G2 I-0.00250 J0
G1 Z[-0.10000+5*0.00800]
G2 I-0.00250 J0
G1 Z[-0.10000+4*0.00800]
G2 I-0.00250 J0
G1 Z[-0.10000+3*0.00800]
G2 I-0.00250 J0
G1 Z[-0.10000+2*0.00800]
G2 I-0.00250 J0
G1 Z[-0.10000+1*0.00800]
G2 I-0.00250 J0
G0 Z0.02000

G0 X5.25250 Y0.57500
G1 Z[-0.10000+12*0.00800]
G2 I-0.00250 J0
G1 Z[-0.10000+11*0.00800]
G2 I-0.00250 J0
G1 Z[-0.10000+10*0.00800]
G2 I-0.00250 J0
G1 Z[-0.10000+9*0.00800]
G2 I-0.00250 J0
G1 Z[-0.10000+8*0.00800]
G2 I-0.00250 J0
G1 Z[-0.10000+7*0.00800]
G2 I-0.00250 J0
G1 Z[-0.10000+6*0.00800]
G2 I-0.00250 J0
G1 Z[-0.10000+5*0.00800]
G2 I-0.00250 J0
G1 Z[-0.10000+4*0.00800]
G2 I-0.00250 J0
G1 Z[-0.10000+3*0.00800]
G2 I-0.00250 J0
G1 Z[-0.10000+2*0.00800]
G2 I-0.00250 J0
G1 Z[-0.10000+1*0.00800]
G2 I-0.00250 J0
G0 Z0.02000

G0 X5.35250 Y0.57500
G1 Z[-0.10000+12*0.00800]
G2 I-0.00250 J0
G1 Z[-0.10000+11*0.00800]
G2 I-0.00250 J0
G1 Z[-0.10000+10*0.00800]
G2 I-0.00250 J0
G1 Z[-0.10000+9*0.00800]
G2 I-0.00250 J0
G1 Z[-0.10000+8*0.00800]
G2 I-0.00250 J0
G1 Z[-0.10000+7*0.00800]
G2 I-0.00250 J0
G1 Z[-0.10000+6*0.00800]
G2 I-0.00250 J0
G1 Z[-0.10000+5*0.00800]
G2 I-0.00250 J0
G1 Z[-0.10000+4*0.00800]
G2 I-0.00250 J0
G1 Z[-0.10000+3*0.00800]
G2 I-0.00250 J0
G1 Z[-0.10000+2*0.00800]
G2 I-0.00250 J0
G1 Z[-0.10000+1*0.00800]
G2 I-0.00250 J0
G0 Z0.02000

G0 X5.40250 Y0.67500
G1 Z[-0.10000+12*0.00800]
G2 I-0.00250 J0
G1 Z[-0.10000+11*0.00800]
G2 I-0.00250 J0
G1 Z[-0.10000+10*0.00800]
G2 I-0.00250 J0
G1 Z[-0.10000+9*0.00800]
G2 I-0.00250 J0
G1 Z[-0.10000+8*0.00800]
G2 I-0.00250 J0
G1 Z[-0.10000+7*0.00800]
G2 I-0.00250 J0
G1 Z[-0.10000+6*0.00800]
G2 I-0.00250 J0
G1 Z[-0.10000+5*0.00800]
G2 I-0.00250 J0
G1 Z[-0.10000+4*0.00800]
G2 I-0.00250 J0
G1 Z[-0.10000+3*0.00800]
G2 I-0.00250 J0
G1 Z[-0.10000+2*0.00800]
G2 I-0.00250 J0
G1 Z[-0.10000+1*0.00800]
G2 I-0.00250 J0
G0 Z0.02000

G0 X5.30250 Y0.67500
G1 Z[-0.10000+12*0.00800]
G2 I-0.00250 J0
G1 Z[-0.10000+11*0.00800]
G2 I-0.00250 J0
G1 Z[-0.10000+10*0.00800]
G2 I-0.00250 J0
G1 Z[-0.10000+9*0.00800]
G2 I-0.00250 J0
G1 Z[-0.10000+8*0.00800]
G2 I-0.00250 J0
G1 Z[-0.10000+7*0.00800]
G2 I-0.00250 J0
G1 Z[-0.10000+6*0.00800]
G2 I-0.00250 J0
G1 Z[-0.10000+5*0.00800]
G2 I-0.00250 J0
G1 Z[-0.10000+4*0.00800]
G2 I-0.00250 J0
G1 Z[-0.10000+3*0.00800]
G2 I-0.00250 J0
G1 Z[-0.10000+2*0.00800]
G2 I-0.00250 J0
G1 Z[-0.10000+1*0.00800]
G2 I-0.00250 J0
G0 Z0.02000

G0 X5.20250 Y0.67500
G1 Z[-0.10000+12*0.00800]
G2 I-0.00250 J0
G1 Z[-0.10000+11*0.00800]
G2 I-0.00250 J0
G1 Z[-0.10000+10*0.00800]
G2 I-0.00250 J0
G1 Z[-0.10000+9*0.00800]
G2 I-0.00250 J0
G1 Z[-0.10000+8*0.00800]
G2 I-0.00250 J0
G1 Z[-0.10000+7*0.00800]
G2 I-0.00250 J0
G1 Z[-0.10000+6*0.00800]
G2 I-0.00250 J0
G1 Z[-0.10000+5*0.00800]
G2 I-0.00250 J0
G1 Z[-0.10000+4*0.00800]
G2 I-0.00250 J0
G1 Z[-0.10000+3*0.00800]
G2 I-0.00250 J0
G1 Z[-0.10000+2*0.00800]
G2 I-0.00250 J0
G1 Z[-0.10000+1*0.00800]
G2 I-0.00250 J0
G0 Z0.02000

G0 X5.10250 Y0.67500
G1 Z[-0.10000+12*0.00800]
G2 I-0.00250 J0
G1 Z[-0.10000+11*0.00800]
G2 I-0.00250 J0
G1 Z[-0.10000+10*0.00800]
G2 I-0.00250 J0
G1 Z[-0.10000+9*0.00800]
G2 I-0.00250 J0
G1 Z[-0.10000+8*0.00800]
G2 I-0.00250 J0
G1 Z[-0.10000+7*0.00800]
G2 I-0.00250 J0
G1 Z[-0.10000+6*0.00800]
G2 I-0.00250 J0
G1 Z[-0.10000+5*0.00800]
G2 I-0.00250 J0
G1 Z[-0.10000+4*0.00800]
G2 I-0.00250 J0
G1 Z[-0.10000+3*0.00800]
G2 I-0.00250 J0
G1 Z[-0.10000+2*0.00800]
G2 I-0.00250 J0
G1 Z[-0.10000+1*0.00800]
G2 I-0.00250 J0
G0 Z0.02000

G0 X5.10250 Y1.17500
G1 Z[-0.10000+12*0.00800]
G2 I-0.00250 J0
G1 Z[-0.10000+11*0.00800]
G2 I-0.00250 J0
G1 Z[-0.10000+10*0.00800]
G2 I-0.00250 J0
G1 Z[-0.10000+9*0.00800]
G2 I-0.00250 J0
G1 Z[-0.10000+8*0.00800]
G2 I-0.00250 J0
G1 Z[-0.10000+7*0.00800]
G2 I-0.00250 J0
G1 Z[-0.10000+6*0.00800]
G2 I-0.00250 J0
G1 Z[-0.10000+5*0.00800]
G2 I-0.00250 J0
G1 Z[-0.10000+4*0.00800]
G2 I-0.00250 J0
G1 Z[-0.10000+3*0.00800]
G2 I-0.00250 J0
G1 Z[-0.10000+2*0.00800]
G2 I-0.00250 J0
G1 Z[-0.10000+1*0.00800]
G2 I-0.00250 J0
G0 Z0.02000

G0 X5.20250 Y1.17500
G1 Z[-0.10000+12*0.00800]
G2 I-0.00250 J0
G1 Z[-0.10000+11*0.00800]
G2 I-0.00250 J0
G1 Z[-0.10000+10*0.00800]
G2 I-0.00250 J0
G1 Z[-0.10000+9*0.00800]
G2 I-0.00250 J0
G1 Z[-0.10000+8*0.00800]
G2 I-0.00250 J0
G1 Z[-0.10000+7*0.00800]
G2 I-0.00250 J0
G1 Z[-0.10000+6*0.00800]
G2 I-0.00250 J0
G1 Z[-0.10000+5*0.00800]
G2 I-0.00250 J0
G1 Z[-0.10000+4*0.00800]
G2 I-0.00250 J0
G1 Z[-0.10000+3*0.00800]
G2 I-0.00250 J0
G1 Z[-0.10000+2*0.00800]
G2 I-0.00250 J0
G1 Z[-0.10000+1*0.00800]
G2 I-0.00250 J0
G0 Z0.02000

G0 X5.30250 Y1.17500
G1 Z[-0.10000+12*0.00800]
G2 I-0.00250 J0
G1 Z[-0.10000+11*0.00800]
G2 I-0.00250 J0
G1 Z[-0.10000+10*0.00800]
G2 I-0.00250 J0
G1 Z[-0.10000+9*0.00800]
G2 I-0.00250 J0
G1 Z[-0.10000+8*0.00800]
G2 I-0.00250 J0
G1 Z[-0.10000+7*0.00800]
G2 I-0.00250 J0
G1 Z[-0.10000+6*0.00800]
G2 I-0.00250 J0
G1 Z[-0.10000+5*0.00800]
G2 I-0.00250 J0
G1 Z[-0.10000+4*0.00800]
G2 I-0.00250 J0
G1 Z[-0.10000+3*0.00800]
G2 I-0.00250 J0
G1 Z[-0.10000+2*0.00800]
G2 I-0.00250 J0
G1 Z[-0.10000+1*0.00800]
G2 I-0.00250 J0
G0 Z0.02000

G0 X5.40250 Y1.17500
G1 Z[-0.10000+12*0.00800]
G2 I-0.00250 J0
G1 Z[-0.10000+11*0.00800]
G2 I-0.00250 J0
G1 Z[-0.10000+10*0.00800]
G2 I-0.00250 J0
G1 Z[-0.10000+9*0.00800]
G2 I-0.00250 J0
G1 Z[-0.10000+8*0.00800]
G2 I-0.00250 J0
G1 Z[-0.10000+7*0.00800]
G2 I-0.00250 J0
G1 Z[-0.10000+6*0.00800]
G2 I-0.00250 J0
G1 Z[-0.10000+5*0.00800]
G2 I-0.00250 J0
G1 Z[-0.10000+4*0.00800]
G2 I-0.00250 J0
G1 Z[-0.10000+3*0.00800]
G2 I-0.00250 J0
G1 Z[-0.10000+2*0.00800]
G2 I-0.00250 J0
G1 Z[-0.10000+1*0.00800]
G2 I-0.00250 J0
G0 Z0.02000

G0 X5.35250 Y1.27500
G1 Z[-0.10000+12*0.00800]
G2 I-0.00250 J0
G1 Z[-0.10000+11*0.00800]
G2 I-0.00250 J0
G1 Z[-0.10000+10*0.00800]
G2 I-0.00250 J0
G1 Z[-0.10000+9*0.00800]
G2 I-0.00250 J0
G1 Z[-0.10000+8*0.00800]
G2 I-0.00250 J0
G1 Z[-0.10000+7*0.00800]
G2 I-0.00250 J0
G1 Z[-0.10000+6*0.00800]
G2 I-0.00250 J0
G1 Z[-0.10000+5*0.00800]
G2 I-0.00250 J0
G1 Z[-0.10000+4*0.00800]
G2 I-0.00250 J0
G1 Z[-0.10000+3*0.00800]
G2 I-0.00250 J0
G1 Z[-0.10000+2*0.00800]
G2 I-0.00250 J0
G1 Z[-0.10000+1*0.00800]
G2 I-0.00250 J0
G0 Z0.02000

G0 X5.25250 Y1.27500
G1 Z[-0.10000+12*0.00800]
G2 I-0.00250 J0
G1 Z[-0.10000+11*0.00800]
G2 I-0.00250 J0
G1 Z[-0.10000+10*0.00800]
G2 I-0.00250 J0
G1 Z[-0.10000+9*0.00800]
G2 I-0.00250 J0
G1 Z[-0.10000+8*0.00800]
G2 I-0.00250 J0
G1 Z[-0.10000+7*0.00800]
G2 I-0.00250 J0
G1 Z[-0.10000+6*0.00800]
G2 I-0.00250 J0
G1 Z[-0.10000+5*0.00800]
G2 I-0.00250 J0
G1 Z[-0.10000+4*0.00800]
G2 I-0.00250 J0
G1 Z[-0.10000+3*0.00800]
G2 I-0.00250 J0
G1 Z[-0.10000+2*0.00800]
G2 I-0.00250 J0
G1 Z[-0.10000+1*0.00800]
G2 I-0.00250 J0
G0 Z0.02000

G0 X5.15250 Y1.27500
G1 Z[-0.10000+12*0.00800]
G2 I-0.00250 J0
G1 Z[-0.10000+11*0.00800]
G2 I-0.00250 J0
G1 Z[-0.10000+10*0.00800]
G2 I-0.00250 J0
G1 Z[-0.10000+9*0.00800]
G2 I-0.00250 J0
G1 Z[-0.10000+8*0.00800]
G2 I-0.00250 J0
G1 Z[-0.10000+7*0.00800]
G2 I-0.00250 J0
G1 Z[-0.10000+6*0.00800]
G2 I-0.00250 J0
G1 Z[-0.10000+5*0.00800]
G2 I-0.00250 J0
G1 Z[-0.10000+4*0.00800]
G2 I-0.00250 J0
G1 Z[-0.10000+3*0.00800]
G2 I-0.00250 J0
G1 Z[-0.10000+2*0.00800]
G2 I-0.00250 J0
G1 Z[-0.10000+1*0.00800]
G2 I-0.00250 J0
G0 Z0.02000

G0 X5.05250 Y1.27500
G1 Z[-0.10000+12*0.00800]
G2 I-0.00250 J0
G1 Z[-0.10000+11*0.00800]
G2 I-0.00250 J0
G1 Z[-0.10000+10*0.00800]
G2 I-0.00250 J0
G1 Z[-0.10000+9*0.00800]
G2 I-0.00250 J0
G1 Z[-0.10000+8*0.00800]
G2 I-0.00250 J0
G1 Z[-0.10000+7*0.00800]
G2 I-0.00250 J0
G1 Z[-0.10000+6*0.00800]
G2 I-0.00250 J0
G1 Z[-0.10000+5*0.00800]
G2 I-0.00250 J0
G1 Z[-0.10000+4*0.00800]
G2 I-0.00250 J0
G1 Z[-0.10000+3*0.00800]
G2 I-0.00250 J0
G1 Z[-0.10000+2*0.00800]
G2 I-0.00250 J0
G1 Z[-0.10000+1*0.00800]
G2 I-0.00250 J0
G0 Z0.02000

G0 X4.17750 Y3.02500
G1 Z[-0.10000+12*0.00800]
G2 I-0.00250 J0
G1 Z[-0.10000+11*0.00800]
G2 I-0.00250 J0
G1 Z[-0.10000+10*0.00800]
G2 I-0.00250 J0
G1 Z[-0.10000+9*0.00800]
G2 I-0.00250 J0
G1 Z[-0.10000+8*0.00800]
G2 I-0.00250 J0
G1 Z[-0.10000+7*0.00800]
G2 I-0.00250 J0
G1 Z[-0.10000+6*0.00800]
G2 I-0.00250 J0
G1 Z[-0.10000+5*0.00800]
G2 I-0.00250 J0
G1 Z[-0.10000+4*0.00800]
G2 I-0.00250 J0
G1 Z[-0.10000+3*0.00800]
G2 I-0.00250 J0
G1 Z[-0.10000+2*0.00800]
G2 I-0.00250 J0
G1 Z[-0.10000+1*0.00800]
G2 I-0.00250 J0
G0 Z0.02000

G0 X4.07750 Y3.02500
G1 Z[-0.10000+12*0.00800]
G2 I-0.00250 J0
G1 Z[-0.10000+11*0.00800]
G2 I-0.00250 J0
G1 Z[-0.10000+10*0.00800]
G2 I-0.00250 J0
G1 Z[-0.10000+9*0.00800]
G2 I-0.00250 J0
G1 Z[-0.10000+8*0.00800]
G2 I-0.00250 J0
G1 Z[-0.10000+7*0.00800]
G2 I-0.00250 J0
G1 Z[-0.10000+6*0.00800]
G2 I-0.00250 J0
G1 Z[-0.10000+5*0.00800]
G2 I-0.00250 J0
G1 Z[-0.10000+4*0.00800]
G2 I-0.00250 J0
G1 Z[-0.10000+3*0.00800]
G2 I-0.00250 J0
G1 Z[-0.10000+2*0.00800]
G2 I-0.00250 J0
G1 Z[-0.10000+1*0.00800]
G2 I-0.00250 J0
G0 Z0.02000

G0 X3.97750 Y3.02500
G1 Z[-0.10000+12*0.00800]
G2 I-0.00250 J0
G1 Z[-0.10000+11*0.00800]
G2 I-0.00250 J0
G1 Z[-0.10000+10*0.00800]
G2 I-0.00250 J0
G1 Z[-0.10000+9*0.00800]
G2 I-0.00250 J0
G1 Z[-0.10000+8*0.00800]
G2 I-0.00250 J0
G1 Z[-0.10000+7*0.00800]
G2 I-0.00250 J0
G1 Z[-0.10000+6*0.00800]
G2 I-0.00250 J0
G1 Z[-0.10000+5*0.00800]
G2 I-0.00250 J0
G1 Z[-0.10000+4*0.00800]
G2 I-0.00250 J0
G1 Z[-0.10000+3*0.00800]
G2 I-0.00250 J0
G1 Z[-0.10000+2*0.00800]
G2 I-0.00250 J0
G1 Z[-0.10000+1*0.00800]
G2 I-0.00250 J0
G0 Z0.02000

G0 X3.87750 Y3.02500
G1 Z[-0.10000+12*0.00800]
G2 I-0.00250 J0
G1 Z[-0.10000+11*0.00800]
G2 I-0.00250 J0
G1 Z[-0.10000+10*0.00800]
G2 I-0.00250 J0
G1 Z[-0.10000+9*0.00800]
G2 I-0.00250 J0
G1 Z[-0.10000+8*0.00800]
G2 I-0.00250 J0
G1 Z[-0.10000+7*0.00800]
G2 I-0.00250 J0
G1 Z[-0.10000+6*0.00800]
G2 I-0.00250 J0
G1 Z[-0.10000+5*0.00800]
G2 I-0.00250 J0
G1 Z[-0.10000+4*0.00800]
G2 I-0.00250 J0
G1 Z[-0.10000+3*0.00800]
G2 I-0.00250 J0
G1 Z[-0.10000+2*0.00800]
G2 I-0.00250 J0
G1 Z[-0.10000+1*0.00800]
G2 I-0.00250 J0
G0 Z0.02000

G0 X3.92750 Y3.12500
G1 Z[-0.10000+12*0.00800]
G2 I-0.00250 J0
G1 Z[-0.10000+11*0.00800]
G2 I-0.00250 J0
G1 Z[-0.10000+10*0.00800]
G2 I-0.00250 J0
G1 Z[-0.10000+9*0.00800]
G2 I-0.00250 J0
G1 Z[-0.10000+8*0.00800]
G2 I-0.00250 J0
G1 Z[-0.10000+7*0.00800]
G2 I-0.00250 J0
G1 Z[-0.10000+6*0.00800]
G2 I-0.00250 J0
G1 Z[-0.10000+5*0.00800]
G2 I-0.00250 J0
G1 Z[-0.10000+4*0.00800]
G2 I-0.00250 J0
G1 Z[-0.10000+3*0.00800]
G2 I-0.00250 J0
G1 Z[-0.10000+2*0.00800]
G2 I-0.00250 J0
G1 Z[-0.10000+1*0.00800]
G2 I-0.00250 J0
G0 Z0.02000

G0 X4.02750 Y3.12500
G1 Z[-0.10000+12*0.00800]
G2 I-0.00250 J0
G1 Z[-0.10000+11*0.00800]
G2 I-0.00250 J0
G1 Z[-0.10000+10*0.00800]
G2 I-0.00250 J0
G1 Z[-0.10000+9*0.00800]
G2 I-0.00250 J0
G1 Z[-0.10000+8*0.00800]
G2 I-0.00250 J0
G1 Z[-0.10000+7*0.00800]
G2 I-0.00250 J0
G1 Z[-0.10000+6*0.00800]
G2 I-0.00250 J0
G1 Z[-0.10000+5*0.00800]
G2 I-0.00250 J0
G1 Z[-0.10000+4*0.00800]
G2 I-0.00250 J0
G1 Z[-0.10000+3*0.00800]
G2 I-0.00250 J0
G1 Z[-0.10000+2*0.00800]
G2 I-0.00250 J0
G1 Z[-0.10000+1*0.00800]
G2 I-0.00250 J0
G0 Z0.02000

G0 X4.12750 Y3.12500
G1 Z[-0.10000+12*0.00800]
G2 I-0.00250 J0
G1 Z[-0.10000+11*0.00800]
G2 I-0.00250 J0
G1 Z[-0.10000+10*0.00800]
G2 I-0.00250 J0
G1 Z[-0.10000+9*0.00800]
G2 I-0.00250 J0
G1 Z[-0.10000+8*0.00800]
G2 I-0.00250 J0
G1 Z[-0.10000+7*0.00800]
G2 I-0.00250 J0
G1 Z[-0.10000+6*0.00800]
G2 I-0.00250 J0
G1 Z[-0.10000+5*0.00800]
G2 I-0.00250 J0
G1 Z[-0.10000+4*0.00800]
G2 I-0.00250 J0
G1 Z[-0.10000+3*0.00800]
G2 I-0.00250 J0
G1 Z[-0.10000+2*0.00800]
G2 I-0.00250 J0
G1 Z[-0.10000+1*0.00800]
G2 I-0.00250 J0
G0 Z0.02000

G0 X3.82750 Y3.12500
G1 Z[-0.10000+12*0.00800]
G2 I-0.00250 J0
G1 Z[-0.10000+11*0.00800]
G2 I-0.00250 J0
G1 Z[-0.10000+10*0.00800]
G2 I-0.00250 J0
G1 Z[-0.10000+9*0.00800]
G2 I-0.00250 J0
G1 Z[-0.10000+8*0.00800]
G2 I-0.00250 J0
G1 Z[-0.10000+7*0.00800]
G2 I-0.00250 J0
G1 Z[-0.10000+6*0.00800]
G2 I-0.00250 J0
G1 Z[-0.10000+5*0.00800]
G2 I-0.00250 J0
G1 Z[-0.10000+4*0.00800]
G2 I-0.00250 J0
G1 Z[-0.10000+3*0.00800]
G2 I-0.00250 J0
G1 Z[-0.10000+2*0.00800]
G2 I-0.00250 J0
G1 Z[-0.10000+1*0.00800]
G2 I-0.00250 J0
G0 Z0.02000

G0 X3.45250 Y3.02500
G1 Z[-0.10000+12*0.00800]
G2 I-0.00250 J0
G1 Z[-0.10000+11*0.00800]
G2 I-0.00250 J0
G1 Z[-0.10000+10*0.00800]
G2 I-0.00250 J0
G1 Z[-0.10000+9*0.00800]
G2 I-0.00250 J0
G1 Z[-0.10000+8*0.00800]
G2 I-0.00250 J0
G1 Z[-0.10000+7*0.00800]
G2 I-0.00250 J0
G1 Z[-0.10000+6*0.00800]
G2 I-0.00250 J0
G1 Z[-0.10000+5*0.00800]
G2 I-0.00250 J0
G1 Z[-0.10000+4*0.00800]
G2 I-0.00250 J0
G1 Z[-0.10000+3*0.00800]
G2 I-0.00250 J0
G1 Z[-0.10000+2*0.00800]
G2 I-0.00250 J0
G1 Z[-0.10000+1*0.00800]
G2 I-0.00250 J0
G0 Z0.02000

G0 X3.35250 Y3.02500
G1 Z[-0.10000+12*0.00800]
G2 I-0.00250 J0
G1 Z[-0.10000+11*0.00800]
G2 I-0.00250 J0
G1 Z[-0.10000+10*0.00800]
G2 I-0.00250 J0
G1 Z[-0.10000+9*0.00800]
G2 I-0.00250 J0
G1 Z[-0.10000+8*0.00800]
G2 I-0.00250 J0
G1 Z[-0.10000+7*0.00800]
G2 I-0.00250 J0
G1 Z[-0.10000+6*0.00800]
G2 I-0.00250 J0
G1 Z[-0.10000+5*0.00800]
G2 I-0.00250 J0
G1 Z[-0.10000+4*0.00800]
G2 I-0.00250 J0
G1 Z[-0.10000+3*0.00800]
G2 I-0.00250 J0
G1 Z[-0.10000+2*0.00800]
G2 I-0.00250 J0
G1 Z[-0.10000+1*0.00800]
G2 I-0.00250 J0
G0 Z0.02000

G0 X3.25250 Y3.02500
G1 Z[-0.10000+12*0.00800]
G2 I-0.00250 J0
G1 Z[-0.10000+11*0.00800]
G2 I-0.00250 J0
G1 Z[-0.10000+10*0.00800]
G2 I-0.00250 J0
G1 Z[-0.10000+9*0.00800]
G2 I-0.00250 J0
G1 Z[-0.10000+8*0.00800]
G2 I-0.00250 J0
G1 Z[-0.10000+7*0.00800]
G2 I-0.00250 J0
G1 Z[-0.10000+6*0.00800]
G2 I-0.00250 J0
G1 Z[-0.10000+5*0.00800]
G2 I-0.00250 J0
G1 Z[-0.10000+4*0.00800]
G2 I-0.00250 J0
G1 Z[-0.10000+3*0.00800]
G2 I-0.00250 J0
G1 Z[-0.10000+2*0.00800]
G2 I-0.00250 J0
G1 Z[-0.10000+1*0.00800]
G2 I-0.00250 J0
G0 Z0.02000

G0 X3.15250 Y3.02500
G1 Z[-0.10000+12*0.00800]
G2 I-0.00250 J0
G1 Z[-0.10000+11*0.00800]
G2 I-0.00250 J0
G1 Z[-0.10000+10*0.00800]
G2 I-0.00250 J0
G1 Z[-0.10000+9*0.00800]
G2 I-0.00250 J0
G1 Z[-0.10000+8*0.00800]
G2 I-0.00250 J0
G1 Z[-0.10000+7*0.00800]
G2 I-0.00250 J0
G1 Z[-0.10000+6*0.00800]
G2 I-0.00250 J0
G1 Z[-0.10000+5*0.00800]
G2 I-0.00250 J0
G1 Z[-0.10000+4*0.00800]
G2 I-0.00250 J0
G1 Z[-0.10000+3*0.00800]
G2 I-0.00250 J0
G1 Z[-0.10000+2*0.00800]
G2 I-0.00250 J0
G1 Z[-0.10000+1*0.00800]
G2 I-0.00250 J0
G0 Z0.02000

G0 X3.20250 Y3.12500
G1 Z[-0.10000+12*0.00800]
G2 I-0.00250 J0
G1 Z[-0.10000+11*0.00800]
G2 I-0.00250 J0
G1 Z[-0.10000+10*0.00800]
G2 I-0.00250 J0
G1 Z[-0.10000+9*0.00800]
G2 I-0.00250 J0
G1 Z[-0.10000+8*0.00800]
G2 I-0.00250 J0
G1 Z[-0.10000+7*0.00800]
G2 I-0.00250 J0
G1 Z[-0.10000+6*0.00800]
G2 I-0.00250 J0
G1 Z[-0.10000+5*0.00800]
G2 I-0.00250 J0
G1 Z[-0.10000+4*0.00800]
G2 I-0.00250 J0
G1 Z[-0.10000+3*0.00800]
G2 I-0.00250 J0
G1 Z[-0.10000+2*0.00800]
G2 I-0.00250 J0
G1 Z[-0.10000+1*0.00800]
G2 I-0.00250 J0
G0 Z0.02000

G0 X3.30250 Y3.12500
G1 Z[-0.10000+12*0.00800]
G2 I-0.00250 J0
G1 Z[-0.10000+11*0.00800]
G2 I-0.00250 J0
G1 Z[-0.10000+10*0.00800]
G2 I-0.00250 J0
G1 Z[-0.10000+9*0.00800]
G2 I-0.00250 J0
G1 Z[-0.10000+8*0.00800]
G2 I-0.00250 J0
G1 Z[-0.10000+7*0.00800]
G2 I-0.00250 J0
G1 Z[-0.10000+6*0.00800]
G2 I-0.00250 J0
G1 Z[-0.10000+5*0.00800]
G2 I-0.00250 J0
G1 Z[-0.10000+4*0.00800]
G2 I-0.00250 J0
G1 Z[-0.10000+3*0.00800]
G2 I-0.00250 J0
G1 Z[-0.10000+2*0.00800]
G2 I-0.00250 J0
G1 Z[-0.10000+1*0.00800]
G2 I-0.00250 J0
G0 Z0.02000

G0 X3.40250 Y3.12500
G1 Z[-0.10000+12*0.00800]
G2 I-0.00250 J0
G1 Z[-0.10000+11*0.00800]
G2 I-0.00250 J0
G1 Z[-0.10000+10*0.00800]
G2 I-0.00250 J0
G1 Z[-0.10000+9*0.00800]
G2 I-0.00250 J0
G1 Z[-0.10000+8*0.00800]
G2 I-0.00250 J0
G1 Z[-0.10000+7*0.00800]
G2 I-0.00250 J0
G1 Z[-0.10000+6*0.00800]
G2 I-0.00250 J0
G1 Z[-0.10000+5*0.00800]
G2 I-0.00250 J0
G1 Z[-0.10000+4*0.00800]
G2 I-0.00250 J0
G1 Z[-0.10000+3*0.00800]
G2 I-0.00250 J0
G1 Z[-0.10000+2*0.00800]
G2 I-0.00250 J0
G1 Z[-0.10000+1*0.00800]
G2 I-0.00250 J0
G0 Z0.02000

G0 X3.10250 Y3.12500
G1 Z[-0.10000+12*0.00800]
G2 I-0.00250 J0
G1 Z[-0.10000+11*0.00800]
G2 I-0.00250 J0
G1 Z[-0.10000+10*0.00800]
G2 I-0.00250 J0
G1 Z[-0.10000+9*0.00800]
G2 I-0.00250 J0
G1 Z[-0.10000+8*0.00800]
G2 I-0.00250 J0
G1 Z[-0.10000+7*0.00800]
G2 I-0.00250 J0
G1 Z[-0.10000+6*0.00800]
G2 I-0.00250 J0
G1 Z[-0.10000+5*0.00800]
G2 I-0.00250 J0
G1 Z[-0.10000+4*0.00800]
G2 I-0.00250 J0
G1 Z[-0.10000+3*0.00800]
G2 I-0.00250 J0
G1 Z[-0.10000+2*0.00800]
G2 I-0.00250 J0
G1 Z[-0.10000+1*0.00800]
G2 I-0.00250 J0
G0 Z0.02000

G0 X2.72750 Y3.02500
G1 Z[-0.10000+12*0.00800]
G2 I-0.00250 J0
G1 Z[-0.10000+11*0.00800]
G2 I-0.00250 J0
G1 Z[-0.10000+10*0.00800]
G2 I-0.00250 J0
G1 Z[-0.10000+9*0.00800]
G2 I-0.00250 J0
G1 Z[-0.10000+8*0.00800]
G2 I-0.00250 J0
G1 Z[-0.10000+7*0.00800]
G2 I-0.00250 J0
G1 Z[-0.10000+6*0.00800]
G2 I-0.00250 J0
G1 Z[-0.10000+5*0.00800]
G2 I-0.00250 J0
G1 Z[-0.10000+4*0.00800]
G2 I-0.00250 J0
G1 Z[-0.10000+3*0.00800]
G2 I-0.00250 J0
G1 Z[-0.10000+2*0.00800]
G2 I-0.00250 J0
G1 Z[-0.10000+1*0.00800]
G2 I-0.00250 J0
G0 Z0.02000

G0 X2.62750 Y3.02500
G1 Z[-0.10000+12*0.00800]
G2 I-0.00250 J0
G1 Z[-0.10000+11*0.00800]
G2 I-0.00250 J0
G1 Z[-0.10000+10*0.00800]
G2 I-0.00250 J0
G1 Z[-0.10000+9*0.00800]
G2 I-0.00250 J0
G1 Z[-0.10000+8*0.00800]
G2 I-0.00250 J0
G1 Z[-0.10000+7*0.00800]
G2 I-0.00250 J0
G1 Z[-0.10000+6*0.00800]
G2 I-0.00250 J0
G1 Z[-0.10000+5*0.00800]
G2 I-0.00250 J0
G1 Z[-0.10000+4*0.00800]
G2 I-0.00250 J0
G1 Z[-0.10000+3*0.00800]
G2 I-0.00250 J0
G1 Z[-0.10000+2*0.00800]
G2 I-0.00250 J0
G1 Z[-0.10000+1*0.00800]
G2 I-0.00250 J0
G0 Z0.02000

G0 X2.52750 Y3.02500
G1 Z[-0.10000+12*0.00800]
G2 I-0.00250 J0
G1 Z[-0.10000+11*0.00800]
G2 I-0.00250 J0
G1 Z[-0.10000+10*0.00800]
G2 I-0.00250 J0
G1 Z[-0.10000+9*0.00800]
G2 I-0.00250 J0
G1 Z[-0.10000+8*0.00800]
G2 I-0.00250 J0
G1 Z[-0.10000+7*0.00800]
G2 I-0.00250 J0
G1 Z[-0.10000+6*0.00800]
G2 I-0.00250 J0
G1 Z[-0.10000+5*0.00800]
G2 I-0.00250 J0
G1 Z[-0.10000+4*0.00800]
G2 I-0.00250 J0
G1 Z[-0.10000+3*0.00800]
G2 I-0.00250 J0
G1 Z[-0.10000+2*0.00800]
G2 I-0.00250 J0
G1 Z[-0.10000+1*0.00800]
G2 I-0.00250 J0
G0 Z0.02000

G0 X2.42750 Y3.02500
G1 Z[-0.10000+12*0.00800]
G2 I-0.00250 J0
G1 Z[-0.10000+11*0.00800]
G2 I-0.00250 J0
G1 Z[-0.10000+10*0.00800]
G2 I-0.00250 J0
G1 Z[-0.10000+9*0.00800]
G2 I-0.00250 J0
G1 Z[-0.10000+8*0.00800]
G2 I-0.00250 J0
G1 Z[-0.10000+7*0.00800]
G2 I-0.00250 J0
G1 Z[-0.10000+6*0.00800]
G2 I-0.00250 J0
G1 Z[-0.10000+5*0.00800]
G2 I-0.00250 J0
G1 Z[-0.10000+4*0.00800]
G2 I-0.00250 J0
G1 Z[-0.10000+3*0.00800]
G2 I-0.00250 J0
G1 Z[-0.10000+2*0.00800]
G2 I-0.00250 J0
G1 Z[-0.10000+1*0.00800]
G2 I-0.00250 J0
G0 Z0.02000

G0 X2.47750 Y3.12500
G1 Z[-0.10000+12*0.00800]
G2 I-0.00250 J0
G1 Z[-0.10000+11*0.00800]
G2 I-0.00250 J0
G1 Z[-0.10000+10*0.00800]
G2 I-0.00250 J0
G1 Z[-0.10000+9*0.00800]
G2 I-0.00250 J0
G1 Z[-0.10000+8*0.00800]
G2 I-0.00250 J0
G1 Z[-0.10000+7*0.00800]
G2 I-0.00250 J0
G1 Z[-0.10000+6*0.00800]
G2 I-0.00250 J0
G1 Z[-0.10000+5*0.00800]
G2 I-0.00250 J0
G1 Z[-0.10000+4*0.00800]
G2 I-0.00250 J0
G1 Z[-0.10000+3*0.00800]
G2 I-0.00250 J0
G1 Z[-0.10000+2*0.00800]
G2 I-0.00250 J0
G1 Z[-0.10000+1*0.00800]
G2 I-0.00250 J0
G0 Z0.02000

G0 X2.57750 Y3.12500
G1 Z[-0.10000+12*0.00800]
G2 I-0.00250 J0
G1 Z[-0.10000+11*0.00800]
G2 I-0.00250 J0
G1 Z[-0.10000+10*0.00800]
G2 I-0.00250 J0
G1 Z[-0.10000+9*0.00800]
G2 I-0.00250 J0
G1 Z[-0.10000+8*0.00800]
G2 I-0.00250 J0
G1 Z[-0.10000+7*0.00800]
G2 I-0.00250 J0
G1 Z[-0.10000+6*0.00800]
G2 I-0.00250 J0
G1 Z[-0.10000+5*0.00800]
G2 I-0.00250 J0
G1 Z[-0.10000+4*0.00800]
G2 I-0.00250 J0
G1 Z[-0.10000+3*0.00800]
G2 I-0.00250 J0
G1 Z[-0.10000+2*0.00800]
G2 I-0.00250 J0
G1 Z[-0.10000+1*0.00800]
G2 I-0.00250 J0
G0 Z0.02000

G0 X2.67750 Y3.12500
G1 Z[-0.10000+12*0.00800]
G2 I-0.00250 J0
G1 Z[-0.10000+11*0.00800]
G2 I-0.00250 J0
G1 Z[-0.10000+10*0.00800]
G2 I-0.00250 J0
G1 Z[-0.10000+9*0.00800]
G2 I-0.00250 J0
G1 Z[-0.10000+8*0.00800]
G2 I-0.00250 J0
G1 Z[-0.10000+7*0.00800]
G2 I-0.00250 J0
G1 Z[-0.10000+6*0.00800]
G2 I-0.00250 J0
G1 Z[-0.10000+5*0.00800]
G2 I-0.00250 J0
G1 Z[-0.10000+4*0.00800]
G2 I-0.00250 J0
G1 Z[-0.10000+3*0.00800]
G2 I-0.00250 J0
G1 Z[-0.10000+2*0.00800]
G2 I-0.00250 J0
G1 Z[-0.10000+1*0.00800]
G2 I-0.00250 J0
G0 Z0.02000

G0 X2.37750 Y3.12500
G1 Z[-0.10000+12*0.00800]
G2 I-0.00250 J0
G1 Z[-0.10000+11*0.00800]
G2 I-0.00250 J0
G1 Z[-0.10000+10*0.00800]
G2 I-0.00250 J0
G1 Z[-0.10000+9*0.00800]
G2 I-0.00250 J0
G1 Z[-0.10000+8*0.00800]
G2 I-0.00250 J0
G1 Z[-0.10000+7*0.00800]
G2 I-0.00250 J0
G1 Z[-0.10000+6*0.00800]
G2 I-0.00250 J0
G1 Z[-0.10000+5*0.00800]
G2 I-0.00250 J0
G1 Z[-0.10000+4*0.00800]
G2 I-0.00250 J0
G1 Z[-0.10000+3*0.00800]
G2 I-0.00250 J0
G1 Z[-0.10000+2*0.00800]
G2 I-0.00250 J0
G1 Z[-0.10000+1*0.00800]
G2 I-0.00250 J0
G0 Z0.02000

G0 X2.00250 Y3.02500
G1 Z[-0.10000+12*0.00800]
G2 I-0.00250 J0
G1 Z[-0.10000+11*0.00800]
G2 I-0.00250 J0
G1 Z[-0.10000+10*0.00800]
G2 I-0.00250 J0
G1 Z[-0.10000+9*0.00800]
G2 I-0.00250 J0
G1 Z[-0.10000+8*0.00800]
G2 I-0.00250 J0
G1 Z[-0.10000+7*0.00800]
G2 I-0.00250 J0
G1 Z[-0.10000+6*0.00800]
G2 I-0.00250 J0
G1 Z[-0.10000+5*0.00800]
G2 I-0.00250 J0
G1 Z[-0.10000+4*0.00800]
G2 I-0.00250 J0
G1 Z[-0.10000+3*0.00800]
G2 I-0.00250 J0
G1 Z[-0.10000+2*0.00800]
G2 I-0.00250 J0
G1 Z[-0.10000+1*0.00800]
G2 I-0.00250 J0
G0 Z0.02000

G0 X1.90250 Y3.02500
G1 Z[-0.10000+12*0.00800]
G2 I-0.00250 J0
G1 Z[-0.10000+11*0.00800]
G2 I-0.00250 J0
G1 Z[-0.10000+10*0.00800]
G2 I-0.00250 J0
G1 Z[-0.10000+9*0.00800]
G2 I-0.00250 J0
G1 Z[-0.10000+8*0.00800]
G2 I-0.00250 J0
G1 Z[-0.10000+7*0.00800]
G2 I-0.00250 J0
G1 Z[-0.10000+6*0.00800]
G2 I-0.00250 J0
G1 Z[-0.10000+5*0.00800]
G2 I-0.00250 J0
G1 Z[-0.10000+4*0.00800]
G2 I-0.00250 J0
G1 Z[-0.10000+3*0.00800]
G2 I-0.00250 J0
G1 Z[-0.10000+2*0.00800]
G2 I-0.00250 J0
G1 Z[-0.10000+1*0.00800]
G2 I-0.00250 J0
G0 Z0.02000

G0 X1.80250 Y3.02500
G1 Z[-0.10000+12*0.00800]
G2 I-0.00250 J0
G1 Z[-0.10000+11*0.00800]
G2 I-0.00250 J0
G1 Z[-0.10000+10*0.00800]
G2 I-0.00250 J0
G1 Z[-0.10000+9*0.00800]
G2 I-0.00250 J0
G1 Z[-0.10000+8*0.00800]
G2 I-0.00250 J0
G1 Z[-0.10000+7*0.00800]
G2 I-0.00250 J0
G1 Z[-0.10000+6*0.00800]
G2 I-0.00250 J0
G1 Z[-0.10000+5*0.00800]
G2 I-0.00250 J0
G1 Z[-0.10000+4*0.00800]
G2 I-0.00250 J0
G1 Z[-0.10000+3*0.00800]
G2 I-0.00250 J0
G1 Z[-0.10000+2*0.00800]
G2 I-0.00250 J0
G1 Z[-0.10000+1*0.00800]
G2 I-0.00250 J0
G0 Z0.02000

G0 X1.70250 Y3.02500
G1 Z[-0.10000+12*0.00800]
G2 I-0.00250 J0
G1 Z[-0.10000+11*0.00800]
G2 I-0.00250 J0
G1 Z[-0.10000+10*0.00800]
G2 I-0.00250 J0
G1 Z[-0.10000+9*0.00800]
G2 I-0.00250 J0
G1 Z[-0.10000+8*0.00800]
G2 I-0.00250 J0
G1 Z[-0.10000+7*0.00800]
G2 I-0.00250 J0
G1 Z[-0.10000+6*0.00800]
G2 I-0.00250 J0
G1 Z[-0.10000+5*0.00800]
G2 I-0.00250 J0
G1 Z[-0.10000+4*0.00800]
G2 I-0.00250 J0
G1 Z[-0.10000+3*0.00800]
G2 I-0.00250 J0
G1 Z[-0.10000+2*0.00800]
G2 I-0.00250 J0
G1 Z[-0.10000+1*0.00800]
G2 I-0.00250 J0
G0 Z0.02000

G0 X1.75250 Y3.12500
G1 Z[-0.10000+12*0.00800]
G2 I-0.00250 J0
G1 Z[-0.10000+11*0.00800]
G2 I-0.00250 J0
G1 Z[-0.10000+10*0.00800]
G2 I-0.00250 J0
G1 Z[-0.10000+9*0.00800]
G2 I-0.00250 J0
G1 Z[-0.10000+8*0.00800]
G2 I-0.00250 J0
G1 Z[-0.10000+7*0.00800]
G2 I-0.00250 J0
G1 Z[-0.10000+6*0.00800]
G2 I-0.00250 J0
G1 Z[-0.10000+5*0.00800]
G2 I-0.00250 J0
G1 Z[-0.10000+4*0.00800]
G2 I-0.00250 J0
G1 Z[-0.10000+3*0.00800]
G2 I-0.00250 J0
G1 Z[-0.10000+2*0.00800]
G2 I-0.00250 J0
G1 Z[-0.10000+1*0.00800]
G2 I-0.00250 J0
G0 Z0.02000

G0 X1.85250 Y3.12500
G1 Z[-0.10000+12*0.00800]
G2 I-0.00250 J0
G1 Z[-0.10000+11*0.00800]
G2 I-0.00250 J0
G1 Z[-0.10000+10*0.00800]
G2 I-0.00250 J0
G1 Z[-0.10000+9*0.00800]
G2 I-0.00250 J0
G1 Z[-0.10000+8*0.00800]
G2 I-0.00250 J0
G1 Z[-0.10000+7*0.00800]
G2 I-0.00250 J0
G1 Z[-0.10000+6*0.00800]
G2 I-0.00250 J0
G1 Z[-0.10000+5*0.00800]
G2 I-0.00250 J0
G1 Z[-0.10000+4*0.00800]
G2 I-0.00250 J0
G1 Z[-0.10000+3*0.00800]
G2 I-0.00250 J0
G1 Z[-0.10000+2*0.00800]
G2 I-0.00250 J0
G1 Z[-0.10000+1*0.00800]
G2 I-0.00250 J0
G0 Z0.02000

G0 X1.95250 Y3.12500
G1 Z[-0.10000+12*0.00800]
G2 I-0.00250 J0
G1 Z[-0.10000+11*0.00800]
G2 I-0.00250 J0
G1 Z[-0.10000+10*0.00800]
G2 I-0.00250 J0
G1 Z[-0.10000+9*0.00800]
G2 I-0.00250 J0
G1 Z[-0.10000+8*0.00800]
G2 I-0.00250 J0
G1 Z[-0.10000+7*0.00800]
G2 I-0.00250 J0
G1 Z[-0.10000+6*0.00800]
G2 I-0.00250 J0
G1 Z[-0.10000+5*0.00800]
G2 I-0.00250 J0
G1 Z[-0.10000+4*0.00800]
G2 I-0.00250 J0
G1 Z[-0.10000+3*0.00800]
G2 I-0.00250 J0
G1 Z[-0.10000+2*0.00800]
G2 I-0.00250 J0
G1 Z[-0.10000+1*0.00800]
G2 I-0.00250 J0
G0 Z0.02000

G0 X1.65250 Y3.12500
G1 Z[-0.10000+12*0.00800]
G2 I-0.00250 J0
G1 Z[-0.10000+11*0.00800]
G2 I-0.00250 J0
G1 Z[-0.10000+10*0.00800]
G2 I-0.00250 J0
G1 Z[-0.10000+9*0.00800]
G2 I-0.00250 J0
G1 Z[-0.10000+8*0.00800]
G2 I-0.00250 J0
G1 Z[-0.10000+7*0.00800]
G2 I-0.00250 J0
G1 Z[-0.10000+6*0.00800]
G2 I-0.00250 J0
G1 Z[-0.10000+5*0.00800]
G2 I-0.00250 J0
G1 Z[-0.10000+4*0.00800]
G2 I-0.00250 J0
G1 Z[-0.10000+3*0.00800]
G2 I-0.00250 J0
G1 Z[-0.10000+2*0.00800]
G2 I-0.00250 J0
G1 Z[-0.10000+1*0.00800]
G2 I-0.00250 J0
G0 Z0.02000

G0 X1.27750 Y3.02500
G1 Z[-0.10000+12*0.00800]
G2 I-0.00250 J0
G1 Z[-0.10000+11*0.00800]
G2 I-0.00250 J0
G1 Z[-0.10000+10*0.00800]
G2 I-0.00250 J0
G1 Z[-0.10000+9*0.00800]
G2 I-0.00250 J0
G1 Z[-0.10000+8*0.00800]
G2 I-0.00250 J0
G1 Z[-0.10000+7*0.00800]
G2 I-0.00250 J0
G1 Z[-0.10000+6*0.00800]
G2 I-0.00250 J0
G1 Z[-0.10000+5*0.00800]
G2 I-0.00250 J0
G1 Z[-0.10000+4*0.00800]
G2 I-0.00250 J0
G1 Z[-0.10000+3*0.00800]
G2 I-0.00250 J0
G1 Z[-0.10000+2*0.00800]
G2 I-0.00250 J0
G1 Z[-0.10000+1*0.00800]
G2 I-0.00250 J0
G0 Z0.02000

G0 X1.17750 Y3.02500
G1 Z[-0.10000+12*0.00800]
G2 I-0.00250 J0
G1 Z[-0.10000+11*0.00800]
G2 I-0.00250 J0
G1 Z[-0.10000+10*0.00800]
G2 I-0.00250 J0
G1 Z[-0.10000+9*0.00800]
G2 I-0.00250 J0
G1 Z[-0.10000+8*0.00800]
G2 I-0.00250 J0
G1 Z[-0.10000+7*0.00800]
G2 I-0.00250 J0
G1 Z[-0.10000+6*0.00800]
G2 I-0.00250 J0
G1 Z[-0.10000+5*0.00800]
G2 I-0.00250 J0
G1 Z[-0.10000+4*0.00800]
G2 I-0.00250 J0
G1 Z[-0.10000+3*0.00800]
G2 I-0.00250 J0
G1 Z[-0.10000+2*0.00800]
G2 I-0.00250 J0
G1 Z[-0.10000+1*0.00800]
G2 I-0.00250 J0
G0 Z0.02000

G0 X1.07750 Y3.02500
G1 Z[-0.10000+12*0.00800]
G2 I-0.00250 J0
G1 Z[-0.10000+11*0.00800]
G2 I-0.00250 J0
G1 Z[-0.10000+10*0.00800]
G2 I-0.00250 J0
G1 Z[-0.10000+9*0.00800]
G2 I-0.00250 J0
G1 Z[-0.10000+8*0.00800]
G2 I-0.00250 J0
G1 Z[-0.10000+7*0.00800]
G2 I-0.00250 J0
G1 Z[-0.10000+6*0.00800]
G2 I-0.00250 J0
G1 Z[-0.10000+5*0.00800]
G2 I-0.00250 J0
G1 Z[-0.10000+4*0.00800]
G2 I-0.00250 J0
G1 Z[-0.10000+3*0.00800]
G2 I-0.00250 J0
G1 Z[-0.10000+2*0.00800]
G2 I-0.00250 J0
G1 Z[-0.10000+1*0.00800]
G2 I-0.00250 J0
G0 Z0.02000

G0 X0.97750 Y3.02500
G1 Z[-0.10000+12*0.00800]
G2 I-0.00250 J0
G1 Z[-0.10000+11*0.00800]
G2 I-0.00250 J0
G1 Z[-0.10000+10*0.00800]
G2 I-0.00250 J0
G1 Z[-0.10000+9*0.00800]
G2 I-0.00250 J0
G1 Z[-0.10000+8*0.00800]
G2 I-0.00250 J0
G1 Z[-0.10000+7*0.00800]
G2 I-0.00250 J0
G1 Z[-0.10000+6*0.00800]
G2 I-0.00250 J0
G1 Z[-0.10000+5*0.00800]
G2 I-0.00250 J0
G1 Z[-0.10000+4*0.00800]
G2 I-0.00250 J0
G1 Z[-0.10000+3*0.00800]
G2 I-0.00250 J0
G1 Z[-0.10000+2*0.00800]
G2 I-0.00250 J0
G1 Z[-0.10000+1*0.00800]
G2 I-0.00250 J0
G0 Z0.02000

G0 X1.02750 Y3.12500
G1 Z[-0.10000+12*0.00800]
G2 I-0.00250 J0
G1 Z[-0.10000+11*0.00800]
G2 I-0.00250 J0
G1 Z[-0.10000+10*0.00800]
G2 I-0.00250 J0
G1 Z[-0.10000+9*0.00800]
G2 I-0.00250 J0
G1 Z[-0.10000+8*0.00800]
G2 I-0.00250 J0
G1 Z[-0.10000+7*0.00800]
G2 I-0.00250 J0
G1 Z[-0.10000+6*0.00800]
G2 I-0.00250 J0
G1 Z[-0.10000+5*0.00800]
G2 I-0.00250 J0
G1 Z[-0.10000+4*0.00800]
G2 I-0.00250 J0
G1 Z[-0.10000+3*0.00800]
G2 I-0.00250 J0
G1 Z[-0.10000+2*0.00800]
G2 I-0.00250 J0
G1 Z[-0.10000+1*0.00800]
G2 I-0.00250 J0
G0 Z0.02000

G0 X1.12750 Y3.12500
G1 Z[-0.10000+12*0.00800]
G2 I-0.00250 J0
G1 Z[-0.10000+11*0.00800]
G2 I-0.00250 J0
G1 Z[-0.10000+10*0.00800]
G2 I-0.00250 J0
G1 Z[-0.10000+9*0.00800]
G2 I-0.00250 J0
G1 Z[-0.10000+8*0.00800]
G2 I-0.00250 J0
G1 Z[-0.10000+7*0.00800]
G2 I-0.00250 J0
G1 Z[-0.10000+6*0.00800]
G2 I-0.00250 J0
G1 Z[-0.10000+5*0.00800]
G2 I-0.00250 J0
G1 Z[-0.10000+4*0.00800]
G2 I-0.00250 J0
G1 Z[-0.10000+3*0.00800]
G2 I-0.00250 J0
G1 Z[-0.10000+2*0.00800]
G2 I-0.00250 J0
G1 Z[-0.10000+1*0.00800]
G2 I-0.00250 J0
G0 Z0.02000

G0 X1.22750 Y3.12500
G1 Z[-0.10000+12*0.00800]
G2 I-0.00250 J0
G1 Z[-0.10000+11*0.00800]
G2 I-0.00250 J0
G1 Z[-0.10000+10*0.00800]
G2 I-0.00250 J0
G1 Z[-0.10000+9*0.00800]
G2 I-0.00250 J0
G1 Z[-0.10000+8*0.00800]
G2 I-0.00250 J0
G1 Z[-0.10000+7*0.00800]
G2 I-0.00250 J0
G1 Z[-0.10000+6*0.00800]
G2 I-0.00250 J0
G1 Z[-0.10000+5*0.00800]
G2 I-0.00250 J0
G1 Z[-0.10000+4*0.00800]
G2 I-0.00250 J0
G1 Z[-0.10000+3*0.00800]
G2 I-0.00250 J0
G1 Z[-0.10000+2*0.00800]
G2 I-0.00250 J0
G1 Z[-0.10000+1*0.00800]
G2 I-0.00250 J0
G0 Z0.02000

G0 X0.92750 Y3.12500
G1 Z[-0.10000+12*0.00800]
G2 I-0.00250 J0
G1 Z[-0.10000+11*0.00800]
G2 I-0.00250 J0
G1 Z[-0.10000+10*0.00800]
G2 I-0.00250 J0
G1 Z[-0.10000+9*0.00800]
G2 I-0.00250 J0
G1 Z[-0.10000+8*0.00800]
G2 I-0.00250 J0
G1 Z[-0.10000+7*0.00800]
G2 I-0.00250 J0
G1 Z[-0.10000+6*0.00800]
G2 I-0.00250 J0
G1 Z[-0.10000+5*0.00800]
G2 I-0.00250 J0
G1 Z[-0.10000+4*0.00800]
G2 I-0.00250 J0
G1 Z[-0.10000+3*0.00800]
G2 I-0.00250 J0
G1 Z[-0.10000+2*0.00800]
G2 I-0.00250 J0
G1 Z[-0.10000+1*0.00800]
G2 I-0.00250 J0
G0 Z0.02000

G0 X0.55250 Y3.02500
G1 Z[-0.10000+12*0.00800]
G2 I-0.00250 J0
G1 Z[-0.10000+11*0.00800]
G2 I-0.00250 J0
G1 Z[-0.10000+10*0.00800]
G2 I-0.00250 J0
G1 Z[-0.10000+9*0.00800]
G2 I-0.00250 J0
G1 Z[-0.10000+8*0.00800]
G2 I-0.00250 J0
G1 Z[-0.10000+7*0.00800]
G2 I-0.00250 J0
G1 Z[-0.10000+6*0.00800]
G2 I-0.00250 J0
G1 Z[-0.10000+5*0.00800]
G2 I-0.00250 J0
G1 Z[-0.10000+4*0.00800]
G2 I-0.00250 J0
G1 Z[-0.10000+3*0.00800]
G2 I-0.00250 J0
G1 Z[-0.10000+2*0.00800]
G2 I-0.00250 J0
G1 Z[-0.10000+1*0.00800]
G2 I-0.00250 J0
G0 Z0.02000

G0 X0.45250 Y3.02500
G1 Z[-0.10000+12*0.00800]
G2 I-0.00250 J0
G1 Z[-0.10000+11*0.00800]
G2 I-0.00250 J0
G1 Z[-0.10000+10*0.00800]
G2 I-0.00250 J0
G1 Z[-0.10000+9*0.00800]
G2 I-0.00250 J0
G1 Z[-0.10000+8*0.00800]
G2 I-0.00250 J0
G1 Z[-0.10000+7*0.00800]
G2 I-0.00250 J0
G1 Z[-0.10000+6*0.00800]
G2 I-0.00250 J0
G1 Z[-0.10000+5*0.00800]
G2 I-0.00250 J0
G1 Z[-0.10000+4*0.00800]
G2 I-0.00250 J0
G1 Z[-0.10000+3*0.00800]
G2 I-0.00250 J0
G1 Z[-0.10000+2*0.00800]
G2 I-0.00250 J0
G1 Z[-0.10000+1*0.00800]
G2 I-0.00250 J0
G0 Z0.02000

G0 X0.35250 Y3.02500
G1 Z[-0.10000+12*0.00800]
G2 I-0.00250 J0
G1 Z[-0.10000+11*0.00800]
G2 I-0.00250 J0
G1 Z[-0.10000+10*0.00800]
G2 I-0.00250 J0
G1 Z[-0.10000+9*0.00800]
G2 I-0.00250 J0
G1 Z[-0.10000+8*0.00800]
G2 I-0.00250 J0
G1 Z[-0.10000+7*0.00800]
G2 I-0.00250 J0
G1 Z[-0.10000+6*0.00800]
G2 I-0.00250 J0
G1 Z[-0.10000+5*0.00800]
G2 I-0.00250 J0
G1 Z[-0.10000+4*0.00800]
G2 I-0.00250 J0
G1 Z[-0.10000+3*0.00800]
G2 I-0.00250 J0
G1 Z[-0.10000+2*0.00800]
G2 I-0.00250 J0
G1 Z[-0.10000+1*0.00800]
G2 I-0.00250 J0
G0 Z0.02000

G0 X0.25250 Y3.02500
G1 Z[-0.10000+12*0.00800]
G2 I-0.00250 J0
G1 Z[-0.10000+11*0.00800]
G2 I-0.00250 J0
G1 Z[-0.10000+10*0.00800]
G2 I-0.00250 J0
G1 Z[-0.10000+9*0.00800]
G2 I-0.00250 J0
G1 Z[-0.10000+8*0.00800]
G2 I-0.00250 J0
G1 Z[-0.10000+7*0.00800]
G2 I-0.00250 J0
G1 Z[-0.10000+6*0.00800]
G2 I-0.00250 J0
G1 Z[-0.10000+5*0.00800]
G2 I-0.00250 J0
G1 Z[-0.10000+4*0.00800]
G2 I-0.00250 J0
G1 Z[-0.10000+3*0.00800]
G2 I-0.00250 J0
G1 Z[-0.10000+2*0.00800]
G2 I-0.00250 J0
G1 Z[-0.10000+1*0.00800]
G2 I-0.00250 J0
G0 Z0.02000

G0 X0.30250 Y3.12500
G1 Z[-0.10000+12*0.00800]
G2 I-0.00250 J0
G1 Z[-0.10000+11*0.00800]
G2 I-0.00250 J0
G1 Z[-0.10000+10*0.00800]
G2 I-0.00250 J0
G1 Z[-0.10000+9*0.00800]
G2 I-0.00250 J0
G1 Z[-0.10000+8*0.00800]
G2 I-0.00250 J0
G1 Z[-0.10000+7*0.00800]
G2 I-0.00250 J0
G1 Z[-0.10000+6*0.00800]
G2 I-0.00250 J0
G1 Z[-0.10000+5*0.00800]
G2 I-0.00250 J0
G1 Z[-0.10000+4*0.00800]
G2 I-0.00250 J0
G1 Z[-0.10000+3*0.00800]
G2 I-0.00250 J0
G1 Z[-0.10000+2*0.00800]
G2 I-0.00250 J0
G1 Z[-0.10000+1*0.00800]
G2 I-0.00250 J0
G0 Z0.02000

G0 X0.40250 Y3.12500
G1 Z[-0.10000+12*0.00800]
G2 I-0.00250 J0
G1 Z[-0.10000+11*0.00800]
G2 I-0.00250 J0
G1 Z[-0.10000+10*0.00800]
G2 I-0.00250 J0
G1 Z[-0.10000+9*0.00800]
G2 I-0.00250 J0
G1 Z[-0.10000+8*0.00800]
G2 I-0.00250 J0
G1 Z[-0.10000+7*0.00800]
G2 I-0.00250 J0
G1 Z[-0.10000+6*0.00800]
G2 I-0.00250 J0
G1 Z[-0.10000+5*0.00800]
G2 I-0.00250 J0
G1 Z[-0.10000+4*0.00800]
G2 I-0.00250 J0
G1 Z[-0.10000+3*0.00800]
G2 I-0.00250 J0
G1 Z[-0.10000+2*0.00800]
G2 I-0.00250 J0
G1 Z[-0.10000+1*0.00800]
G2 I-0.00250 J0
G0 Z0.02000

G0 X0.50250 Y3.12500
G1 Z[-0.10000+12*0.00800]
G2 I-0.00250 J0
G1 Z[-0.10000+11*0.00800]
G2 I-0.00250 J0
G1 Z[-0.10000+10*0.00800]
G2 I-0.00250 J0
G1 Z[-0.10000+9*0.00800]
G2 I-0.00250 J0
G1 Z[-0.10000+8*0.00800]
G2 I-0.00250 J0
G1 Z[-0.10000+7*0.00800]
G2 I-0.00250 J0
G1 Z[-0.10000+6*0.00800]
G2 I-0.00250 J0
G1 Z[-0.10000+5*0.00800]
G2 I-0.00250 J0
G1 Z[-0.10000+4*0.00800]
G2 I-0.00250 J0
G1 Z[-0.10000+3*0.00800]
G2 I-0.00250 J0
G1 Z[-0.10000+2*0.00800]
G2 I-0.00250 J0
G1 Z[-0.10000+1*0.00800]
G2 I-0.00250 J0
G0 Z0.02000

G0 X0.20250 Y3.12500
G1 Z[-0.10000+12*0.00800]
G2 I-0.00250 J0
G1 Z[-0.10000+11*0.00800]
G2 I-0.00250 J0
G1 Z[-0.10000+10*0.00800]
G2 I-0.00250 J0
G1 Z[-0.10000+9*0.00800]
G2 I-0.00250 J0
G1 Z[-0.10000+8*0.00800]
G2 I-0.00250 J0
G1 Z[-0.10000+7*0.00800]
G2 I-0.00250 J0
G1 Z[-0.10000+6*0.00800]
G2 I-0.00250 J0
G1 Z[-0.10000+5*0.00800]
G2 I-0.00250 J0
G1 Z[-0.10000+4*0.00800]
G2 I-0.00250 J0
G1 Z[-0.10000+3*0.00800]
G2 I-0.00250 J0
G1 Z[-0.10000+2*0.00800]
G2 I-0.00250 J0
G1 Z[-0.10000+1*0.00800]
G2 I-0.00250 J0
G0 Z0.02000

G0 X0.20250 Y3.62500
G1 Z[-0.10000+12*0.00800]
G2 I-0.00250 J0
G1 Z[-0.10000+11*0.00800]
G2 I-0.00250 J0
G1 Z[-0.10000+10*0.00800]
G2 I-0.00250 J0
G1 Z[-0.10000+9*0.00800]
G2 I-0.00250 J0
G1 Z[-0.10000+8*0.00800]
G2 I-0.00250 J0
G1 Z[-0.10000+7*0.00800]
G2 I-0.00250 J0
G1 Z[-0.10000+6*0.00800]
G2 I-0.00250 J0
G1 Z[-0.10000+5*0.00800]
G2 I-0.00250 J0
G1 Z[-0.10000+4*0.00800]
G2 I-0.00250 J0
G1 Z[-0.10000+3*0.00800]
G2 I-0.00250 J0
G1 Z[-0.10000+2*0.00800]
G2 I-0.00250 J0
G1 Z[-0.10000+1*0.00800]
G2 I-0.00250 J0
G0 Z0.02000

G0 X0.30250 Y3.62500
G1 Z[-0.10000+12*0.00800]
G2 I-0.00250 J0
G1 Z[-0.10000+11*0.00800]
G2 I-0.00250 J0
G1 Z[-0.10000+10*0.00800]
G2 I-0.00250 J0
G1 Z[-0.10000+9*0.00800]
G2 I-0.00250 J0
G1 Z[-0.10000+8*0.00800]
G2 I-0.00250 J0
G1 Z[-0.10000+7*0.00800]
G2 I-0.00250 J0
G1 Z[-0.10000+6*0.00800]
G2 I-0.00250 J0
G1 Z[-0.10000+5*0.00800]
G2 I-0.00250 J0
G1 Z[-0.10000+4*0.00800]
G2 I-0.00250 J0
G1 Z[-0.10000+3*0.00800]
G2 I-0.00250 J0
G1 Z[-0.10000+2*0.00800]
G2 I-0.00250 J0
G1 Z[-0.10000+1*0.00800]
G2 I-0.00250 J0
G0 Z0.02000

G0 X0.40250 Y3.62500
G1 Z[-0.10000+12*0.00800]
G2 I-0.00250 J0
G1 Z[-0.10000+11*0.00800]
G2 I-0.00250 J0
G1 Z[-0.10000+10*0.00800]
G2 I-0.00250 J0
G1 Z[-0.10000+9*0.00800]
G2 I-0.00250 J0
G1 Z[-0.10000+8*0.00800]
G2 I-0.00250 J0
G1 Z[-0.10000+7*0.00800]
G2 I-0.00250 J0
G1 Z[-0.10000+6*0.00800]
G2 I-0.00250 J0
G1 Z[-0.10000+5*0.00800]
G2 I-0.00250 J0
G1 Z[-0.10000+4*0.00800]
G2 I-0.00250 J0
G1 Z[-0.10000+3*0.00800]
G2 I-0.00250 J0
G1 Z[-0.10000+2*0.00800]
G2 I-0.00250 J0
G1 Z[-0.10000+1*0.00800]
G2 I-0.00250 J0
G0 Z0.02000

G0 X0.50250 Y3.62500
G1 Z[-0.10000+12*0.00800]
G2 I-0.00250 J0
G1 Z[-0.10000+11*0.00800]
G2 I-0.00250 J0
G1 Z[-0.10000+10*0.00800]
G2 I-0.00250 J0
G1 Z[-0.10000+9*0.00800]
G2 I-0.00250 J0
G1 Z[-0.10000+8*0.00800]
G2 I-0.00250 J0
G1 Z[-0.10000+7*0.00800]
G2 I-0.00250 J0
G1 Z[-0.10000+6*0.00800]
G2 I-0.00250 J0
G1 Z[-0.10000+5*0.00800]
G2 I-0.00250 J0
G1 Z[-0.10000+4*0.00800]
G2 I-0.00250 J0
G1 Z[-0.10000+3*0.00800]
G2 I-0.00250 J0
G1 Z[-0.10000+2*0.00800]
G2 I-0.00250 J0
G1 Z[-0.10000+1*0.00800]
G2 I-0.00250 J0
G0 Z0.02000

G0 X0.55250 Y3.72500
G1 Z[-0.10000+12*0.00800]
G2 I-0.00250 J0
G1 Z[-0.10000+11*0.00800]
G2 I-0.00250 J0
G1 Z[-0.10000+10*0.00800]
G2 I-0.00250 J0
G1 Z[-0.10000+9*0.00800]
G2 I-0.00250 J0
G1 Z[-0.10000+8*0.00800]
G2 I-0.00250 J0
G1 Z[-0.10000+7*0.00800]
G2 I-0.00250 J0
G1 Z[-0.10000+6*0.00800]
G2 I-0.00250 J0
G1 Z[-0.10000+5*0.00800]
G2 I-0.00250 J0
G1 Z[-0.10000+4*0.00800]
G2 I-0.00250 J0
G1 Z[-0.10000+3*0.00800]
G2 I-0.00250 J0
G1 Z[-0.10000+2*0.00800]
G2 I-0.00250 J0
G1 Z[-0.10000+1*0.00800]
G2 I-0.00250 J0
G0 Z0.02000

G0 X0.45250 Y3.72500
G1 Z[-0.10000+12*0.00800]
G2 I-0.00250 J0
G1 Z[-0.10000+11*0.00800]
G2 I-0.00250 J0
G1 Z[-0.10000+10*0.00800]
G2 I-0.00250 J0
G1 Z[-0.10000+9*0.00800]
G2 I-0.00250 J0
G1 Z[-0.10000+8*0.00800]
G2 I-0.00250 J0
G1 Z[-0.10000+7*0.00800]
G2 I-0.00250 J0
G1 Z[-0.10000+6*0.00800]
G2 I-0.00250 J0
G1 Z[-0.10000+5*0.00800]
G2 I-0.00250 J0
G1 Z[-0.10000+4*0.00800]
G2 I-0.00250 J0
G1 Z[-0.10000+3*0.00800]
G2 I-0.00250 J0
G1 Z[-0.10000+2*0.00800]
G2 I-0.00250 J0
G1 Z[-0.10000+1*0.00800]
G2 I-0.00250 J0
G0 Z0.02000

G0 X0.35250 Y3.72500
G1 Z[-0.10000+12*0.00800]
G2 I-0.00250 J0
G1 Z[-0.10000+11*0.00800]
G2 I-0.00250 J0
G1 Z[-0.10000+10*0.00800]
G2 I-0.00250 J0
G1 Z[-0.10000+9*0.00800]
G2 I-0.00250 J0
G1 Z[-0.10000+8*0.00800]
G2 I-0.00250 J0
G1 Z[-0.10000+7*0.00800]
G2 I-0.00250 J0
G1 Z[-0.10000+6*0.00800]
G2 I-0.00250 J0
G1 Z[-0.10000+5*0.00800]
G2 I-0.00250 J0
G1 Z[-0.10000+4*0.00800]
G2 I-0.00250 J0
G1 Z[-0.10000+3*0.00800]
G2 I-0.00250 J0
G1 Z[-0.10000+2*0.00800]
G2 I-0.00250 J0
G1 Z[-0.10000+1*0.00800]
G2 I-0.00250 J0
G0 Z0.02000

G0 X0.25250 Y3.72500
G1 Z[-0.10000+12*0.00800]
G2 I-0.00250 J0
G1 Z[-0.10000+11*0.00800]
G2 I-0.00250 J0
G1 Z[-0.10000+10*0.00800]
G2 I-0.00250 J0
G1 Z[-0.10000+9*0.00800]
G2 I-0.00250 J0
G1 Z[-0.10000+8*0.00800]
G2 I-0.00250 J0
G1 Z[-0.10000+7*0.00800]
G2 I-0.00250 J0
G1 Z[-0.10000+6*0.00800]
G2 I-0.00250 J0
G1 Z[-0.10000+5*0.00800]
G2 I-0.00250 J0
G1 Z[-0.10000+4*0.00800]
G2 I-0.00250 J0
G1 Z[-0.10000+3*0.00800]
G2 I-0.00250 J0
G1 Z[-0.10000+2*0.00800]
G2 I-0.00250 J0
G1 Z[-0.10000+1*0.00800]
G2 I-0.00250 J0
G0 Z0.02000

G0 X1.65250 Y3.62500
G1 Z[-0.10000+12*0.00800]
G2 I-0.00250 J0
G1 Z[-0.10000+11*0.00800]
G2 I-0.00250 J0
G1 Z[-0.10000+10*0.00800]
G2 I-0.00250 J0
G1 Z[-0.10000+9*0.00800]
G2 I-0.00250 J0
G1 Z[-0.10000+8*0.00800]
G2 I-0.00250 J0
G1 Z[-0.10000+7*0.00800]
G2 I-0.00250 J0
G1 Z[-0.10000+6*0.00800]
G2 I-0.00250 J0
G1 Z[-0.10000+5*0.00800]
G2 I-0.00250 J0
G1 Z[-0.10000+4*0.00800]
G2 I-0.00250 J0
G1 Z[-0.10000+3*0.00800]
G2 I-0.00250 J0
G1 Z[-0.10000+2*0.00800]
G2 I-0.00250 J0
G1 Z[-0.10000+1*0.00800]
G2 I-0.00250 J0
G0 Z0.02000

G0 X1.75250 Y3.62500
G1 Z[-0.10000+12*0.00800]
G2 I-0.00250 J0
G1 Z[-0.10000+11*0.00800]
G2 I-0.00250 J0
G1 Z[-0.10000+10*0.00800]
G2 I-0.00250 J0
G1 Z[-0.10000+9*0.00800]
G2 I-0.00250 J0
G1 Z[-0.10000+8*0.00800]
G2 I-0.00250 J0
G1 Z[-0.10000+7*0.00800]
G2 I-0.00250 J0
G1 Z[-0.10000+6*0.00800]
G2 I-0.00250 J0
G1 Z[-0.10000+5*0.00800]
G2 I-0.00250 J0
G1 Z[-0.10000+4*0.00800]
G2 I-0.00250 J0
G1 Z[-0.10000+3*0.00800]
G2 I-0.00250 J0
G1 Z[-0.10000+2*0.00800]
G2 I-0.00250 J0
G1 Z[-0.10000+1*0.00800]
G2 I-0.00250 J0
G0 Z0.02000

G0 X1.85250 Y3.62500
G1 Z[-0.10000+12*0.00800]
G2 I-0.00250 J0
G1 Z[-0.10000+11*0.00800]
G2 I-0.00250 J0
G1 Z[-0.10000+10*0.00800]
G2 I-0.00250 J0
G1 Z[-0.10000+9*0.00800]
G2 I-0.00250 J0
G1 Z[-0.10000+8*0.00800]
G2 I-0.00250 J0
G1 Z[-0.10000+7*0.00800]
G2 I-0.00250 J0
G1 Z[-0.10000+6*0.00800]
G2 I-0.00250 J0
G1 Z[-0.10000+5*0.00800]
G2 I-0.00250 J0
G1 Z[-0.10000+4*0.00800]
G2 I-0.00250 J0
G1 Z[-0.10000+3*0.00800]
G2 I-0.00250 J0
G1 Z[-0.10000+2*0.00800]
G2 I-0.00250 J0
G1 Z[-0.10000+1*0.00800]
G2 I-0.00250 J0
G0 Z0.02000

G0 X1.95250 Y3.62500
G1 Z[-0.10000+12*0.00800]
G2 I-0.00250 J0
G1 Z[-0.10000+11*0.00800]
G2 I-0.00250 J0
G1 Z[-0.10000+10*0.00800]
G2 I-0.00250 J0
G1 Z[-0.10000+9*0.00800]
G2 I-0.00250 J0
G1 Z[-0.10000+8*0.00800]
G2 I-0.00250 J0
G1 Z[-0.10000+7*0.00800]
G2 I-0.00250 J0
G1 Z[-0.10000+6*0.00800]
G2 I-0.00250 J0
G1 Z[-0.10000+5*0.00800]
G2 I-0.00250 J0
G1 Z[-0.10000+4*0.00800]
G2 I-0.00250 J0
G1 Z[-0.10000+3*0.00800]
G2 I-0.00250 J0
G1 Z[-0.10000+2*0.00800]
G2 I-0.00250 J0
G1 Z[-0.10000+1*0.00800]
G2 I-0.00250 J0
G0 Z0.02000

G0 X2.00250 Y3.72500
G1 Z[-0.10000+12*0.00800]
G2 I-0.00250 J0
G1 Z[-0.10000+11*0.00800]
G2 I-0.00250 J0
G1 Z[-0.10000+10*0.00800]
G2 I-0.00250 J0
G1 Z[-0.10000+9*0.00800]
G2 I-0.00250 J0
G1 Z[-0.10000+8*0.00800]
G2 I-0.00250 J0
G1 Z[-0.10000+7*0.00800]
G2 I-0.00250 J0
G1 Z[-0.10000+6*0.00800]
G2 I-0.00250 J0
G1 Z[-0.10000+5*0.00800]
G2 I-0.00250 J0
G1 Z[-0.10000+4*0.00800]
G2 I-0.00250 J0
G1 Z[-0.10000+3*0.00800]
G2 I-0.00250 J0
G1 Z[-0.10000+2*0.00800]
G2 I-0.00250 J0
G1 Z[-0.10000+1*0.00800]
G2 I-0.00250 J0
G0 Z0.02000

G0 X1.90250 Y3.72500
G1 Z[-0.10000+12*0.00800]
G2 I-0.00250 J0
G1 Z[-0.10000+11*0.00800]
G2 I-0.00250 J0
G1 Z[-0.10000+10*0.00800]
G2 I-0.00250 J0
G1 Z[-0.10000+9*0.00800]
G2 I-0.00250 J0
G1 Z[-0.10000+8*0.00800]
G2 I-0.00250 J0
G1 Z[-0.10000+7*0.00800]
G2 I-0.00250 J0
G1 Z[-0.10000+6*0.00800]
G2 I-0.00250 J0
G1 Z[-0.10000+5*0.00800]
G2 I-0.00250 J0
G1 Z[-0.10000+4*0.00800]
G2 I-0.00250 J0
G1 Z[-0.10000+3*0.00800]
G2 I-0.00250 J0
G1 Z[-0.10000+2*0.00800]
G2 I-0.00250 J0
G1 Z[-0.10000+1*0.00800]
G2 I-0.00250 J0
G0 Z0.02000

G0 X1.80250 Y3.72500
G1 Z[-0.10000+12*0.00800]
G2 I-0.00250 J0
G1 Z[-0.10000+11*0.00800]
G2 I-0.00250 J0
G1 Z[-0.10000+10*0.00800]
G2 I-0.00250 J0
G1 Z[-0.10000+9*0.00800]
G2 I-0.00250 J0
G1 Z[-0.10000+8*0.00800]
G2 I-0.00250 J0
G1 Z[-0.10000+7*0.00800]
G2 I-0.00250 J0
G1 Z[-0.10000+6*0.00800]
G2 I-0.00250 J0
G1 Z[-0.10000+5*0.00800]
G2 I-0.00250 J0
G1 Z[-0.10000+4*0.00800]
G2 I-0.00250 J0
G1 Z[-0.10000+3*0.00800]
G2 I-0.00250 J0
G1 Z[-0.10000+2*0.00800]
G2 I-0.00250 J0
G1 Z[-0.10000+1*0.00800]
G2 I-0.00250 J0
G0 Z0.02000

G0 X1.70250 Y3.72500
G1 Z[-0.10000+12*0.00800]
G2 I-0.00250 J0
G1 Z[-0.10000+11*0.00800]
G2 I-0.00250 J0
G1 Z[-0.10000+10*0.00800]
G2 I-0.00250 J0
G1 Z[-0.10000+9*0.00800]
G2 I-0.00250 J0
G1 Z[-0.10000+8*0.00800]
G2 I-0.00250 J0
G1 Z[-0.10000+7*0.00800]
G2 I-0.00250 J0
G1 Z[-0.10000+6*0.00800]
G2 I-0.00250 J0
G1 Z[-0.10000+5*0.00800]
G2 I-0.00250 J0
G1 Z[-0.10000+4*0.00800]
G2 I-0.00250 J0
G1 Z[-0.10000+3*0.00800]
G2 I-0.00250 J0
G1 Z[-0.10000+2*0.00800]
G2 I-0.00250 J0
G1 Z[-0.10000+1*0.00800]
G2 I-0.00250 J0
G0 Z0.02000

G0 X3.10250 Y3.62500
G1 Z[-0.10000+12*0.00800]
G2 I-0.00250 J0
G1 Z[-0.10000+11*0.00800]
G2 I-0.00250 J0
G1 Z[-0.10000+10*0.00800]
G2 I-0.00250 J0
G1 Z[-0.10000+9*0.00800]
G2 I-0.00250 J0
G1 Z[-0.10000+8*0.00800]
G2 I-0.00250 J0
G1 Z[-0.10000+7*0.00800]
G2 I-0.00250 J0
G1 Z[-0.10000+6*0.00800]
G2 I-0.00250 J0
G1 Z[-0.10000+5*0.00800]
G2 I-0.00250 J0
G1 Z[-0.10000+4*0.00800]
G2 I-0.00250 J0
G1 Z[-0.10000+3*0.00800]
G2 I-0.00250 J0
G1 Z[-0.10000+2*0.00800]
G2 I-0.00250 J0
G1 Z[-0.10000+1*0.00800]
G2 I-0.00250 J0
G0 Z0.02000

G0 X3.20250 Y3.62500
G1 Z[-0.10000+12*0.00800]
G2 I-0.00250 J0
G1 Z[-0.10000+11*0.00800]
G2 I-0.00250 J0
G1 Z[-0.10000+10*0.00800]
G2 I-0.00250 J0
G1 Z[-0.10000+9*0.00800]
G2 I-0.00250 J0
G1 Z[-0.10000+8*0.00800]
G2 I-0.00250 J0
G1 Z[-0.10000+7*0.00800]
G2 I-0.00250 J0
G1 Z[-0.10000+6*0.00800]
G2 I-0.00250 J0
G1 Z[-0.10000+5*0.00800]
G2 I-0.00250 J0
G1 Z[-0.10000+4*0.00800]
G2 I-0.00250 J0
G1 Z[-0.10000+3*0.00800]
G2 I-0.00250 J0
G1 Z[-0.10000+2*0.00800]
G2 I-0.00250 J0
G1 Z[-0.10000+1*0.00800]
G2 I-0.00250 J0
G0 Z0.02000

G0 X3.30250 Y3.62500
G1 Z[-0.10000+12*0.00800]
G2 I-0.00250 J0
G1 Z[-0.10000+11*0.00800]
G2 I-0.00250 J0
G1 Z[-0.10000+10*0.00800]
G2 I-0.00250 J0
G1 Z[-0.10000+9*0.00800]
G2 I-0.00250 J0
G1 Z[-0.10000+8*0.00800]
G2 I-0.00250 J0
G1 Z[-0.10000+7*0.00800]
G2 I-0.00250 J0
G1 Z[-0.10000+6*0.00800]
G2 I-0.00250 J0
G1 Z[-0.10000+5*0.00800]
G2 I-0.00250 J0
G1 Z[-0.10000+4*0.00800]
G2 I-0.00250 J0
G1 Z[-0.10000+3*0.00800]
G2 I-0.00250 J0
G1 Z[-0.10000+2*0.00800]
G2 I-0.00250 J0
G1 Z[-0.10000+1*0.00800]
G2 I-0.00250 J0
G0 Z0.02000

G0 X3.40250 Y3.62500
G1 Z[-0.10000+12*0.00800]
G2 I-0.00250 J0
G1 Z[-0.10000+11*0.00800]
G2 I-0.00250 J0
G1 Z[-0.10000+10*0.00800]
G2 I-0.00250 J0
G1 Z[-0.10000+9*0.00800]
G2 I-0.00250 J0
G1 Z[-0.10000+8*0.00800]
G2 I-0.00250 J0
G1 Z[-0.10000+7*0.00800]
G2 I-0.00250 J0
G1 Z[-0.10000+6*0.00800]
G2 I-0.00250 J0
G1 Z[-0.10000+5*0.00800]
G2 I-0.00250 J0
G1 Z[-0.10000+4*0.00800]
G2 I-0.00250 J0
G1 Z[-0.10000+3*0.00800]
G2 I-0.00250 J0
G1 Z[-0.10000+2*0.00800]
G2 I-0.00250 J0
G1 Z[-0.10000+1*0.00800]
G2 I-0.00250 J0
G0 Z0.02000

G0 X3.45250 Y3.72500
G1 Z[-0.10000+12*0.00800]
G2 I-0.00250 J0
G1 Z[-0.10000+11*0.00800]
G2 I-0.00250 J0
G1 Z[-0.10000+10*0.00800]
G2 I-0.00250 J0
G1 Z[-0.10000+9*0.00800]
G2 I-0.00250 J0
G1 Z[-0.10000+8*0.00800]
G2 I-0.00250 J0
G1 Z[-0.10000+7*0.00800]
G2 I-0.00250 J0
G1 Z[-0.10000+6*0.00800]
G2 I-0.00250 J0
G1 Z[-0.10000+5*0.00800]
G2 I-0.00250 J0
G1 Z[-0.10000+4*0.00800]
G2 I-0.00250 J0
G1 Z[-0.10000+3*0.00800]
G2 I-0.00250 J0
G1 Z[-0.10000+2*0.00800]
G2 I-0.00250 J0
G1 Z[-0.10000+1*0.00800]
G2 I-0.00250 J0
G0 Z0.02000

G0 X3.35250 Y3.72500
G1 Z[-0.10000+12*0.00800]
G2 I-0.00250 J0
G1 Z[-0.10000+11*0.00800]
G2 I-0.00250 J0
G1 Z[-0.10000+10*0.00800]
G2 I-0.00250 J0
G1 Z[-0.10000+9*0.00800]
G2 I-0.00250 J0
G1 Z[-0.10000+8*0.00800]
G2 I-0.00250 J0
G1 Z[-0.10000+7*0.00800]
G2 I-0.00250 J0
G1 Z[-0.10000+6*0.00800]
G2 I-0.00250 J0
G1 Z[-0.10000+5*0.00800]
G2 I-0.00250 J0
G1 Z[-0.10000+4*0.00800]
G2 I-0.00250 J0
G1 Z[-0.10000+3*0.00800]
G2 I-0.00250 J0
G1 Z[-0.10000+2*0.00800]
G2 I-0.00250 J0
G1 Z[-0.10000+1*0.00800]
G2 I-0.00250 J0
G0 Z0.02000

G0 X3.25250 Y3.72500
G1 Z[-0.10000+12*0.00800]
G2 I-0.00250 J0
G1 Z[-0.10000+11*0.00800]
G2 I-0.00250 J0
G1 Z[-0.10000+10*0.00800]
G2 I-0.00250 J0
G1 Z[-0.10000+9*0.00800]
G2 I-0.00250 J0
G1 Z[-0.10000+8*0.00800]
G2 I-0.00250 J0
G1 Z[-0.10000+7*0.00800]
G2 I-0.00250 J0
G1 Z[-0.10000+6*0.00800]
G2 I-0.00250 J0
G1 Z[-0.10000+5*0.00800]
G2 I-0.00250 J0
G1 Z[-0.10000+4*0.00800]
G2 I-0.00250 J0
G1 Z[-0.10000+3*0.00800]
G2 I-0.00250 J0
G1 Z[-0.10000+2*0.00800]
G2 I-0.00250 J0
G1 Z[-0.10000+1*0.00800]
G2 I-0.00250 J0
G0 Z0.02000

G0 X3.15250 Y3.72500
G1 Z[-0.10000+12*0.00800]
G2 I-0.00250 J0
G1 Z[-0.10000+11*0.00800]
G2 I-0.00250 J0
G1 Z[-0.10000+10*0.00800]
G2 I-0.00250 J0
G1 Z[-0.10000+9*0.00800]
G2 I-0.00250 J0
G1 Z[-0.10000+8*0.00800]
G2 I-0.00250 J0
G1 Z[-0.10000+7*0.00800]
G2 I-0.00250 J0
G1 Z[-0.10000+6*0.00800]
G2 I-0.00250 J0
G1 Z[-0.10000+5*0.00800]
G2 I-0.00250 J0
G1 Z[-0.10000+4*0.00800]
G2 I-0.00250 J0
G1 Z[-0.10000+3*0.00800]
G2 I-0.00250 J0
G1 Z[-0.10000+2*0.00800]
G2 I-0.00250 J0
G1 Z[-0.10000+1*0.00800]
G2 I-0.00250 J0
G0 Z0.02000

G0 X0.19900 Y0.32500
G1 Z[-0.10000+12*0.00800]
G2 I-0.04900 J0
G1 Z[-0.10000+11*0.00800]
G2 I-0.04900 J0
G1 Z[-0.10000+10*0.00800]
G2 I-0.04900 J0
G1 Z[-0.10000+9*0.00800]
G2 I-0.04900 J0
G1 Z[-0.10000+8*0.00800]
G2 I-0.04900 J0
G1 Z[-0.10000+7*0.00800]
G2 I-0.04900 J0
G1 Z[-0.10000+6*0.00800]
G2 I-0.04900 J0
G1 Z[-0.10000+5*0.00800]
G2 I-0.04900 J0
G1 Z[-0.10000+4*0.00800]
G2 I-0.04900 J0
G1 Z[-0.10000+3*0.00800]
G2 I-0.04900 J0
G1 Z[-0.10000+2*0.00800]
G2 I-0.04900 J0
G1 Z[-0.10000+1*0.00800]
G2 I-0.04900 J0
G0 Z0.02000

G0 X0.64900 Y0.32500
G1 Z[-0.10000+12*0.00800]
G2 I-0.04900 J0
G1 Z[-0.10000+11*0.00800]
G2 I-0.04900 J0
G1 Z[-0.10000+10*0.00800]
G2 I-0.04900 J0
G1 Z[-0.10000+9*0.00800]
G2 I-0.04900 J0
G1 Z[-0.10000+8*0.00800]
G2 I-0.04900 J0
G1 Z[-0.10000+7*0.00800]
G2 I-0.04900 J0
G1 Z[-0.10000+6*0.00800]
G2 I-0.04900 J0
G1 Z[-0.10000+5*0.00800]
G2 I-0.04900 J0
G1 Z[-0.10000+4*0.00800]
G2 I-0.04900 J0
G1 Z[-0.10000+3*0.00800]
G2 I-0.04900 J0
G1 Z[-0.10000+2*0.00800]
G2 I-0.04900 J0
G1 Z[-0.10000+1*0.00800]
G2 I-0.04900 J0
G0 Z0.02000

G0 X0.92400 Y0.32500
G1 Z[-0.10000+12*0.00800]
G2 I-0.04900 J0
G1 Z[-0.10000+11*0.00800]
G2 I-0.04900 J0
G1 Z[-0.10000+10*0.00800]
G2 I-0.04900 J0
G1 Z[-0.10000+9*0.00800]
G2 I-0.04900 J0
G1 Z[-0.10000+8*0.00800]
G2 I-0.04900 J0
G1 Z[-0.10000+7*0.00800]
G2 I-0.04900 J0
G1 Z[-0.10000+6*0.00800]
G2 I-0.04900 J0
G1 Z[-0.10000+5*0.00800]
G2 I-0.04900 J0
G1 Z[-0.10000+4*0.00800]
G2 I-0.04900 J0
G1 Z[-0.10000+3*0.00800]
G2 I-0.04900 J0
G1 Z[-0.10000+2*0.00800]
G2 I-0.04900 J0
G1 Z[-0.10000+1*0.00800]
G2 I-0.04900 J0
G0 Z0.02000

G0 X1.37400 Y0.32500
G1 Z[-0.10000+12*0.00800]
G2 I-0.04900 J0
G1 Z[-0.10000+11*0.00800]
G2 I-0.04900 J0
G1 Z[-0.10000+10*0.00800]
G2 I-0.04900 J0
G1 Z[-0.10000+9*0.00800]
G2 I-0.04900 J0
G1 Z[-0.10000+8*0.00800]
G2 I-0.04900 J0
G1 Z[-0.10000+7*0.00800]
G2 I-0.04900 J0
G1 Z[-0.10000+6*0.00800]
G2 I-0.04900 J0
G1 Z[-0.10000+5*0.00800]
G2 I-0.04900 J0
G1 Z[-0.10000+4*0.00800]
G2 I-0.04900 J0
G1 Z[-0.10000+3*0.00800]
G2 I-0.04900 J0
G1 Z[-0.10000+2*0.00800]
G2 I-0.04900 J0
G1 Z[-0.10000+1*0.00800]
G2 I-0.04900 J0
G0 Z0.02000

G0 X1.64900 Y0.32500
G1 Z[-0.10000+12*0.00800]
G2 I-0.04900 J0
G1 Z[-0.10000+11*0.00800]
G2 I-0.04900 J0
G1 Z[-0.10000+10*0.00800]
G2 I-0.04900 J0
G1 Z[-0.10000+9*0.00800]
