( pcb2gcode 1.2.2 )
( Software-independent Gcode )
      
G94 ( Inches per minute feed rate. )
G20 ( Units == INCHES. )

G90 ( Absolute coordinates. )
S10000 ( RPM spindle speed. )
G64 P0.00200 ( set maximum deviation from commanded toolpath )
F1.75000 ( Feedrate. )

F1.75000 ( Feedrate. )
M3 ( Spindle on clockwise. )
G04 P0 ( dwell for no time -- G64 should not smooth over this point )
G00 Z0.02000 ( retract )

G00 X5.50700 Y2.41600 ( rapid move to begin. )
G01 Z-0.01500 F0.87500 ( plunge. )
G04 P0 ( dwell for no time -- G64 should not smooth over this point )
F1.75000
X5.50700 Y2.41600
X5.50700 Y1.89800
X5.50600 Y1.89800
X5.50600 Y1.89600
X5.50500 Y1.89600
X5.50500 Y1.89500
X5.50300 Y1.89500
X5.50300 Y1.89400
X4.09800 Y1.89400
X4.09800 Y1.89500
X4.09600 Y1.89500
X4.09600 Y1.89600
X4.09500 Y1.89600
X4.09500 Y1.89800
X4.09400 Y1.89800
X4.09400 Y2.51300
X4.09500 Y2.51300
X4.09500 Y2.51500
X4.09600 Y2.51500
X4.09600 Y2.51600
X4.09800 Y2.51600
X4.09800 Y2.51700
X5.50300 Y2.51700
X5.50300 Y2.51600
X5.50500 Y2.51600
X5.50500 Y2.51500
X5.50600 Y2.51500
X5.50600 Y2.51300
X5.50700 Y2.51300
X5.50700 Y2.41600
G01 Z-0.05000 F0.87500 ( plunge. )
G04 P0 ( dwell for no time -- G64 should not smooth over this point )
F1.75000
X5.50700 Y2.41600
X5.50700 Y1.89800
X5.50600 Y1.89800
X5.50600 Y1.89600
X5.50500 Y1.89600
X5.50500 Y1.89500
X5.50300 Y1.89500
X5.50300 Y1.89400
X4.09800 Y1.89400
X4.09800 Y1.89500
X4.09600 Y1.89500
X4.09600 Y1.89600
X4.09500 Y1.89600
X4.09500 Y1.89800
X4.09400 Y1.89800
X4.09400 Y2.51300
X4.09500 Y2.51300
X4.09500 Y2.51500
X4.09600 Y2.51500
X4.09600 Y2.51600
X4.09800 Y2.51600
X4.09800 Y2.51700
X5.50300 Y2.51700
X5.50300 Y2.51600
X5.50500 Y2.51600
X5.50500 Y2.51500
X5.50600 Y2.51500
X5.50600 Y2.51300
X5.50700 Y2.51300
X5.50700 Y2.41600
G01 Z-0.08500 F0.87500 ( plunge. )
G04 P0 ( dwell for no time -- G64 should not smooth over this point )
F1.75000
X5.50700 Y2.41600
X5.50700 Y1.89800
X5.50600 Y1.89800
X5.50600 Y1.89600
X5.50500 Y1.89600
X5.50500 Y1.89500
X5.50300 Y1.89500
X5.50300 Y1.89400
X4.09800 Y1.89400
X4.09800 Y1.89500
X4.09600 Y1.89500
X4.09600 Y1.89600
X4.09500 Y1.89600
X4.09500 Y1.89800
X4.09400 Y1.89800
X4.09400 Y2.51300
X4.09500 Y2.51300
X4.09500 Y2.51500
X4.09600 Y2.51500
X4.09600 Y2.51600
X4.09800 Y2.51600
X4.09800 Y2.51700
X5.50300 Y2.51700
X5.50300 Y2.51600
X5.50500 Y2.51600
X5.50500 Y2.51500
X5.50600 Y2.51500
X5.50600 Y2.51300
X5.50700 Y2.51300
X5.50700 Y2.41600
G04 P0 ( dwell for no time -- G64 should not smooth over this point )
G00 Z0.02000 ( retract )

G00 X5.70600 Y4.30500 ( rapid move to begin. )
G01 Z-0.01500 F0.87500 ( plunge. )
G04 P0 ( dwell for no time -- G64 should not smooth over this point )
F1.75000
X5.70600 Y4.30500
X5.70600 Y-0.10200
X5.70500 Y-0.10200
X5.70500 Y-0.10300
X5.70400 Y-0.10300
X5.70400 Y-0.10400
X5.70300 Y-0.10400
X5.70300 Y-0.10500
X-0.10200 Y-0.10500
X-0.10200 Y-0.10400
X-0.10300 Y-0.10400
X-0.10300 Y-0.10300
X-0.10400 Y-0.10300
X-0.10400 Y-0.10200
X-0.10500 Y-0.10200
X-0.10500 Y4.40300
X-0.10400 Y4.40300
X-0.10400 Y4.40400
X-0.10300 Y4.40400
X-0.10300 Y4.40500
X-0.10200 Y4.40500
X-0.10200 Y4.40600
X5.70300 Y4.40600
X5.70300 Y4.40500
X5.70400 Y4.40500
X5.70400 Y4.40400
X5.70500 Y4.40400
X5.70500 Y4.40300
X5.70600 Y4.40300
X5.70600 Y4.30500
G01 Z-0.05000 F0.87500 ( plunge. )
G04 P0 ( dwell for no time -- G64 should not smooth over this point )
F1.75000
X5.70600 Y4.30500
X5.70600 Y-0.10200
X5.70500 Y-0.10200
X5.70500 Y-0.10300
X5.70400 Y-0.10300
X5.70400 Y-0.10400
X5.70300 Y-0.10400
X5.70300 Y-0.10500
X-0.10200 Y-0.10500
X-0.10200 Y-0.10400
X-0.10300 Y-0.10400
X-0.10300 Y-0.10300
X-0.10400 Y-0.10300
X-0.10400 Y-0.10200
X-0.10500 Y-0.10200
X-0.10500 Y4.40300
X-0.10400 Y4.40300
X-0.10400 Y4.40400
X-0.10300 Y4.40400
X-0.10300 Y4.40500
X-0.10200 Y4.40500
X-0.10200 Y4.40600
X5.70300 Y4.40600
X5.70300 Y4.40500
X5.70400 Y4.40500
X5.70400 Y4.40400
X5.70500 Y4.40400
X5.70500 Y4.40300
X5.70600 Y4.40300
X5.70600 Y4.30500
G01 Z-0.08500 F0.87500 ( plunge. )
G04 P0 ( dwell for no time -- G64 should not smooth over this point )
F1.75000
X5.70600 Y4.30500
X5.70600 Y-0.10200
X5.70500 Y-0.10200
X5.70500 Y-0.10300
X5.70400 Y-0.10300
X5.70400 Y-0.10400
X5.70300 Y-0.10400
X5.70300 Y-0.10500
X-0.10200 Y-0.10500
X-0.10200 Y-0.10400
X-0.10300 Y-0.10400
X-0.10300 Y-0.10300
X-0.10400 Y-0.10300
X-0.10400 Y-0.10200
X-0.10500 Y-0.10200
X-0.10500 Y4.40300
X-0.10400 Y4.40300
X-0.10400 Y4.40400
X-0.10300 Y4.40400
X-0.10300 Y4.40500
X-0.10200 Y4.40500
X-0.10200 Y4.40600
X5.70300 Y4.40600
X5.70300 Y4.40500
X5.70400 Y4.40500
X5.70400 Y4.40400
X5.70500 Y4.40400
X5.70500 Y4.40300
X5.70600 Y4.40300
X5.70600 Y4.30500

G04 P0 ( dwell for no time -- G64 should not smooth over this point )
G00 Z0.02000 ( retract )

M5 ( Spindle off. )
M9 ( Coolant off. )
M2 ( Program end. )

